;FLAVOR:RepRap
;TIME:5552
;Generated with Cura_SteamEngine 2.3.1
M104 S190
M109 S190

;LAYER_COUNT:106
;LAYER:0
M107
M205 X10
G1 F2400 E-1
G1 Z20.4
G0 F1200 X6.908 Y15.441 Z.6
M205 X20
;TYPE:WALL-INNER
G1 Z.2
G1 F2400 E0
G1 F600 X16.124 Y6.225 E0.43349
G1 X120.775 Y110.876 E5.35595
G1 X111.559 Y120.092 E5.78945
G1 X6.908 Y15.441 E10.71191
M205 X10
G0 F1200 X6.342 Y15.441
M205 X20
G1 F600 X16.124 Y5.659 E11.17202
G1 X121.341 Y110.876 E16.12111
G1 X111.559 Y120.658 E16.58122
G1 X6.342 Y15.441 E21.53031
M205 X10
G0 F1200 X5.776 Y15.441
M205 X20
;TYPE:WALL-OUTER
G1 F600 X16.124 Y5.093 E22.01705
G1 X121.907 Y110.876 E26.99276
G1 X111.559 Y121.224 E27.47949
G1 X5.776 Y15.441 E32.4552
M205 X10
G0 F1200 X7.341 Y15.26
M205 X20
;TYPE:SKIN
G1 F600 X111.738 Y119.658 E37.36574
G0 X111.808 Y119.728
M205 X10
G0 F1200 X112.021 Y119.375
M205 X20
G1 F600 X7.624 Y14.977 E42.27628
G0 X7.554 Y14.907
M205 X10
G0 F1200 X7.906 Y14.695
M205 X20
G1 F600 X112.304 Y119.092 E47.18682
G0 X112.374 Y119.162
M205 X10
G0 F1200 X112.586 Y118.809
M205 X20
G1 F600 X8.189 Y14.412 E52.09733
G0 X8.119 Y14.342
M205 X10
G0 F1200 X8.472 Y14.129
M205 X20
G1 F600 X112.869 Y118.526 E57.00785
G0 X112.939 Y118.596
M205 X10
G0 F1200 X113.152 Y118.243
M205 X20
G1 F600 X8.755 Y13.846 E61.91836
G0 X8.685 Y13.776
M205 X10
G0 F1200 X9.038 Y13.563
M205 X20
G1 F600 X113.435 Y117.96 E66.82888
G0 X113.505 Y118.03
M205 X10
G0 F1200 X113.718 Y117.678
M205 X20
G1 F600 X9.321 Y13.28 E71.73941
G0 X9.251 Y13.21
M205 X10
G0 F1200 X9.603 Y12.998
M205 X20
G1 F600 X114.001 Y117.395 E76.64995
G0 X114.071 Y117.465
M205 X10
G0 F1200 X114.284 Y117.112
M205 X20
G1 F600 X9.886 Y12.715 E81.56049
G0 X9.816 Y12.645
M205 X10
G0 F1200 X10.169 Y12.432
M205 X20
G1 F600 X114.566 Y116.829 E86.47101
G0 X114.636 Y116.899
M205 X10
G0 F1200 X114.849 Y116.546
M205 X20
G1 F600 X10.452 Y12.149 E91.38152
G0 X10.382 Y12.079
M205 X10
G0 F1200 X10.735 Y11.866
M205 X20
G1 F600 X115.132 Y116.263 E96.29204
G0 X115.202 Y116.333
M205 X10
G0 F1200 X115.415 Y115.981
M205 X20
G1 F600 X11.018 Y11.583 E101.20257
G0 X10.948 Y11.513
M205 X10
G0 F1200 X11.3 Y11.3
M205 X20
G1 F600 X115.698 Y115.698 E106.11314
G0 X115.768 Y115.768
M205 X10
G0 F1200 X115.981 Y115.415
M205 X20
G1 F600 X11.583 Y11.018 E111.02367
G0 X11.513 Y10.948
M205 X10
G0 F1200 X11.866 Y10.735
M205 X20
G1 F600 X116.263 Y115.132 E115.93419
G0 X116.333 Y115.202
M205 X10
G0 F1200 X116.546 Y114.849
M205 X20
G1 F600 X12.149 Y10.452 E120.8447
G0 X12.079 Y10.382
M205 X10
G0 F1200 X12.432 Y10.169
M205 X20
G1 F600 X116.829 Y114.566 E125.75522
G0 X116.899 Y114.636
M205 X10
G0 F1200 X117.112 Y114.284
M205 X20
G1 F600 X12.715 Y9.886 E130.66576
G0 X12.645 Y9.816
M205 X10
G0 F1200 X12.998 Y9.603
M205 X20
G1 F600 X117.395 Y114.001 E135.5763
G0 X117.465 Y114.071
M205 X10
G0 F1200 X117.678 Y113.718
M205 X20
G1 F600 X13.28 Y9.321 E140.48683
G0 X13.21 Y9.251
M205 X10
G0 F1200 X13.563 Y9.038
M205 X20
G1 F600 X117.96 Y113.435 E145.39735
G0 X118.03 Y113.505
M205 X10
G0 F1200 X118.243 Y113.152
M205 X20
G1 F600 X13.846 Y8.755 E150.30786
G0 X13.776 Y8.685
M205 X10
G0 F1200 X14.129 Y8.472
M205 X20
G1 F600 X118.526 Y112.869 E155.21838
G0 X118.596 Y112.939
M205 X10
G0 F1200 X118.809 Y112.586
M205 X20
G1 F600 X14.412 Y8.189 E160.12889
G0 X14.342 Y8.119
M205 X10
G0 F1200 X14.695 Y7.906
M205 X20
G1 F600 X119.092 Y112.304 E165.03943
G0 X119.162 Y112.374
M205 X10
G0 F1200 X119.375 Y112.021
M205 X20
G1 F600 X14.977 Y7.624 E169.94997
G0 X14.907 Y7.554
M205 X10
G0 F1200 X15.26 Y7.341
M205 X20
G1 F600 X119.658 Y111.738 E174.86051
G0 X119.728 Y111.808
M205 X10
G0 F1200 X119.94 Y111.455
M205 X20
G1 F600 X15.543 Y7.058 E179.77102
G0 X15.473 Y6.988
M205 X10
G0 F1200 X15.826 Y6.775
M205 X20
G1 F600 X120.223 Y111.172 E184.68154
G0 X120.293 Y111.242
M205 X10
G0 F1200 X120.506 Y110.889
M205 X20
G1 F600 X16.109 Y6.492 E189.59205
G0 X16.039 Y6.422
M205 X10
;TIME_ELAPSED:579.252396
;LAYER:1
M106 S51
M205 X15
G0 F2400 X16.124 Y6.225 Z.4
M205 X20
;TYPE:WALL-INNER
G1 F1600 X120.775 Y110.876 E194.51451
G1 X111.305 Y120.346 E194.95995
G1 X6.654 Y15.695 E199.88242
G1 X16.124 Y6.225 E200.32786
M205 X15
G0 F2400 X16.124 Y5.659
M205 X20
G1 F1600 X121.341 Y110.876 E205.27694
G1 X111.305 Y120.912 E205.749
G1 X6.088 Y15.695 E210.69809
G1 X16.124 Y5.659 E211.17015
M205 X15
G0 F2400 X16.124 Y5.093
M205 X20
;TYPE:WALL-OUTER
G1 F1000 X121.907 Y110.876 E216.14586
G1 X111.305 Y121.478 E216.64455
G1 X5.522 Y15.695 E221.62025
G1 X16.124 Y5.093 E222.11894
M205 X15
G0 F2400 X16.136 Y6.491
M205 X20
;TYPE:SKIN
G1 F1400 X6.92 Y15.706 E222.55241
G0 X6.85 Y15.776
M205 X15
G0 F2400 X7.203 Y15.989
M205 X20
G1 F1400 X16.419 Y6.774 E222.98588
G0 X16.489 Y6.704
M205 X15
G0 F2400 X16.701 Y7.056
M205 X20
G1 F1400 X7.486 Y16.272 E223.41935
G0 X7.416 Y16.342
M205 X15
G0 F2400 X7.768 Y16.555
M205 X20
G1 F1400 X16.984 Y7.339 E223.85284
G0 X17.054 Y7.269
M205 X15
G0 F2400 X17.267 Y7.622
M205 X20
G1 F1400 X8.051 Y16.838 E224.28633
G0 X7.981 Y16.908
M205 X15
G0 F2400 X8.334 Y17.121
M205 X20
G1 F1400 X17.55 Y7.905 E224.71982
G0 X17.62 Y7.835
M205 X15
G0 F2400 X17.833 Y8.188
M205 X20
G1 F1400 X8.617 Y17.404 E225.15332
G0 X8.547 Y17.474
M205 X15
G0 F2400 X8.9 Y17.686
M205 X20
G1 F1400 X18.116 Y8.471 E225.58678
G0 X18.186 Y8.401
M205 X15
G0 F2400 X18.398 Y8.753
M205 X20
G1 F1400 X9.183 Y17.969 E226.02025
G0 X9.113 Y18.039
M205 X15
G0 F2400 X9.466 Y18.252
M205 X20
G1 F1400 X18.681 Y9.036 E226.45372
G0 X18.751 Y8.966
M205 X15
G0 F2400 X18.964 Y9.319
M205 X20
G1 F1400 X9.748 Y18.535 E226.88721
G0 X9.678 Y18.605
M205 X15
G0 F2400 X10.031 Y18.818
M205 X20
G1 F1400 X19.247 Y9.602 E227.32071
G0 X19.317 Y9.532
M205 X15
G0 F2400 X19.53 Y9.885
M205 X20
G1 F1400 X10.314 Y19.101 E227.7542
G0 X10.244 Y19.171
M205 X15
G0 F2400 X10.597 Y19.383
M205 X20
G1 F1400 X19.813 Y10.168 E228.18767
G0 X19.883 Y10.098
M205 X15
G0 F2400 X20.095 Y10.451
M205 X20
G1 F1400 X10.88 Y19.666 E228.62111
G0 X10.81 Y19.736
M205 X15
G0 F2400 X11.163 Y19.949
M205 X20
G1 F1400 X20.378 Y10.733 E229.05458
G0 X20.448 Y10.663
M205 X15
G0 F2400 X20.661 Y11.016
M205 X20
G1 F1400 X11.445 Y20.232 E229.48807
G0 X11.375 Y20.302
M205 X15
G0 F2400 X11.728 Y20.515
M205 X20
G1 F1400 X20.944 Y11.299 E229.92157
G0 X21.014 Y11.229
M205 X15
G0 F2400 X21.227 Y11.582
M205 X20
G1 F1400 X12.011 Y20.798 E230.35506
G0 X11.941 Y20.868
M205 X15
G0 F2400 X12.294 Y21.08
M205 X20
G1 F1400 X21.51 Y11.865 E230.78853
G0 X21.58 Y11.795
M205 X15
G0 F2400 X21.793 Y12.148
M205 X20
G1 F1400 X12.577 Y21.363 E231.222
G0 X12.507 Y21.433
M205 X15
G0 F2400 X12.86 Y21.646
M205 X20
G1 F1400 X22.075 Y12.43 E231.65547
G0 X22.145 Y12.36
M205 X15
G0 F2400 X22.358 Y12.713
M205 X20
G1 F1400 X13.142 Y21.929 E232.08896
G0 X13.072 Y21.999
M205 X15
G0 F2400 X13.425 Y22.212
M205 X20
G1 F1400 X22.641 Y12.996 E232.52245
G0 X22.711 Y12.926
M205 X15
G0 F2400 X22.924 Y13.279
M205 X20
G1 F1400 X13.708 Y22.495 E232.95594
G0 X13.638 Y22.565
M205 X15
G0 F2400 X13.991 Y22.778
M205 X20
G1 F1400 X23.207 Y13.562 E233.38944
G0 X23.277 Y13.492
M205 X15
G0 F2400 X23.49 Y13.845
M205 X20
G1 F1400 X14.274 Y23.06 E233.8229
G0 X14.204 Y23.13
M205 X15
G0 F2400 X14.557 Y23.343
M205 X20
G1 F1400 X23.772 Y14.127 E234.25637
G0 X23.842 Y14.057
M205 X15
G0 F2400 X24.055 Y14.41
M205 X20
G1 F1400 X14.84 Y23.626 E234.68984
G0 X14.77 Y23.696
M205 X15
G0 F2400 X15.122 Y23.909
M205 X20
G1 F1400 X24.338 Y14.693 E235.12333
G0 X24.408 Y14.623
M205 X15
G0 F2400 X24.621 Y14.976
M205 X20
G1 F1400 X15.405 Y24.192 E235.55683
G0 X15.335 Y24.262
M205 X15
G0 F2400 X15.688 Y24.475
M205 X20
G1 F1400 X24.904 Y15.259 E235.99032
G0 X24.974 Y15.189
M205 X15
G0 F2400 X25.187 Y15.542
M205 X20
G1 F1400 X15.971 Y24.757 E236.42379
G0 X15.901 Y24.827
M205 X15
G0 F2400 X16.254 Y25.04
M205 X20
G1 F1400 X25.469 Y15.825 E236.85723
G0 X25.539 Y15.755
M205 X15
G0 F2400 X25.752 Y16.107
M205 X20
G1 F1400 X16.537 Y25.323 E237.2907
G0 X16.467 Y25.393
M205 X15
G0 F2400 X16.819 Y25.606
M205 X20
G1 F1400 X26.035 Y16.39 E237.72419
G0 X26.105 Y16.32
M205 X15
G0 F2400 X26.318 Y16.673
M205 X20
G1 F1400 X17.102 Y25.889 E238.15769
G0 X17.032 Y25.959
M205 X15
G0 F2400 X17.385 Y26.172
M205 X20
G1 F1400 X26.601 Y16.956 E238.59118
G0 X26.671 Y16.886
M205 X15
G0 F2400 X26.884 Y17.239
M205 X20
G1 F1400 X17.668 Y26.454 E239.02465
G0 X17.598 Y26.524
M205 X15
G0 F2400 X17.951 Y26.737
M205 X20
G1 F1400 X27.167 Y17.522 E239.45812
G0 X27.237 Y17.452
M205 X15
G0 F2400 X27.449 Y17.804
M205 X20
G1 F1400 X18.234 Y27.02 E239.89159
G0 X18.164 Y27.09
M205 X15
G0 F2400 X18.517 Y27.303
M205 X20
G1 F1400 X27.732 Y18.087 E240.32505
G0 X27.802 Y18.017
M205 X15
G0 F2400 X28.015 Y18.37
M205 X20
G1 F1400 X18.799 Y27.586 E240.75855
G0 X18.729 Y27.656
M205 X15
G0 F2400 X19.082 Y27.869
M205 X20
G1 F1400 X28.298 Y18.653 E241.19204
G0 X28.368 Y18.583
M205 X15
G0 F2400 X28.581 Y18.936
M205 X20
G1 F1400 X19.365 Y28.152 E241.62553
G0 X19.295 Y28.222
M205 X15
G0 F2400 X19.648 Y28.434
M205 X20
G1 F1400 X28.864 Y19.219 E242.059
G0 X28.934 Y19.149
M205 X15
G0 F2400 X29.146 Y19.502
M205 X20
G1 F1400 X19.931 Y28.717 E242.49245
G0 X19.861 Y28.787
M205 X15
G0 F2400 X20.214 Y29
M205 X20
G1 F1400 X29.429 Y19.784 E242.92591
G0 X29.499 Y19.714
M205 X15
G0 F2400 X29.712 Y20.067
M205 X20
G1 F1400 X20.496 Y29.283 E243.35941
G0 X20.426 Y29.353
M205 X15
G0 F2400 X20.779 Y29.566
M205 X20
G1 F1400 X29.995 Y20.35 E243.7929
G0 X30.065 Y20.28
M205 X15
G0 F2400 X30.278 Y20.633
M205 X20
G1 F1400 X21.062 Y29.849 E244.22639
G0 X20.992 Y29.919
M205 X15
G0 F2400 X21.345 Y30.131
M205 X20
G1 F1400 X30.561 Y20.916 E244.65986
G0 X30.631 Y20.846
M205 X15
G0 F2400 X30.843 Y21.199
M205 X20
G1 F1400 X21.628 Y30.414 E245.09331
G0 X21.558 Y30.484
M205 X15
G0 F2400 X21.911 Y30.697
M205 X20
G1 F1400 X31.126 Y21.481 E245.52678
G0 X31.196 Y21.411
M205 X15
G0 F2400 X31.409 Y21.764
M205 X20
G1 F1400 X22.193 Y30.98 E245.96027
G0 X22.123 Y31.05
M205 X15
G0 F2400 X22.476 Y31.263
M205 X20
G1 F1400 X31.692 Y22.047 E246.39376
G0 X31.762 Y21.977
M205 X15
G0 F2400 X31.975 Y22.33
M205 X20
G1 F1400 X22.759 Y31.546 E246.82725
G0 X22.689 Y31.616
M205 X15
G0 F2400 X23.042 Y31.828
M205 X20
G1 F1400 X32.258 Y22.613 E247.26072
G0 X32.328 Y22.543
M205 X15
G0 F2400 X32.541 Y22.896
M205 X20
G1 F1400 X23.325 Y32.111 E247.69419
G0 X23.255 Y32.181
M205 X15
G0 F2400 X23.608 Y32.394
M205 X20
G1 F1400 X32.823 Y23.178 E248.12766
G0 X32.893 Y23.108
M205 X15
G0 F2400 X33.106 Y23.461
M205 X20
G1 F1400 X23.891 Y32.677 E248.56113
G0 X23.821 Y32.747
M205 X15
G0 F2400 X24.173 Y32.96
M205 X20
G1 F1400 X33.389 Y23.744 E248.99462
G0 X33.459 Y23.674
M205 X15
G0 F2400 X33.672 Y24.027
M205 X20
G1 F1400 X24.456 Y33.243 E249.42811
G0 X24.386 Y33.313
M205 X15
G0 F2400 X24.739 Y33.526
M205 X20
G1 F1400 X33.955 Y24.31 E249.8616
G0 X34.025 Y24.24
M205 X15
G0 F2400 X34.238 Y24.593
M205 X20
G1 F1400 X25.022 Y33.808 E250.29507
G0 X24.952 Y33.878
M205 X15
G0 F2400 X25.305 Y34.091
M205 X20
G1 F1400 X34.52 Y24.876 E250.72852
G0 X34.59 Y24.806
M205 X15
G0 F2400 X34.803 Y25.158
M205 X20
G1 F1400 X25.588 Y34.374 E251.16199
G0 X25.518 Y34.444
M205 X15
G0 F2400 X25.87 Y34.657
M205 X20
G1 F1400 X35.086 Y25.441 E251.59548
G0 X35.156 Y25.371
M205 X15
G0 F2400 X35.369 Y25.724
M205 X20
G1 F1400 X26.153 Y34.94 E252.02897
G0 X26.083 Y35.01
M205 X15
G0 F2400 X26.436 Y35.223
M205 X20
G1 F1400 X35.652 Y26.007 E252.46247
G0 X35.722 Y25.937
M205 X15
G0 F2400 X35.935 Y26.29
M205 X20
G1 F1400 X26.719 Y35.505 E252.89593
G0 X26.649 Y35.575
M205 X15
G0 F2400 X27.002 Y35.788
M205 X20
G1 F1400 X36.218 Y26.573 E253.3294
G0 X36.288 Y26.503
M205 X15
G0 F2400 X36.5 Y26.855
M205 X20
G1 F1400 X27.285 Y36.071 E253.76287
G0 X27.215 Y36.141
M205 X15
G0 F2400 X27.567 Y36.354
M205 X20
G1 F1400 X36.783 Y27.138 E254.19636
G0 X36.853 Y27.068
M205 X15
G0 F2400 X37.066 Y27.421
M205 X20
G1 F1400 X27.85 Y36.637 E254.62986
G0 X27.78 Y36.707
M205 X15
G0 F2400 X28.133 Y36.92
M205 X20
G1 F1400 X37.349 Y27.704 E255.06335
G0 X37.419 Y27.634
M205 X15
G0 F2400 X37.632 Y27.987
M205 X20
G1 F1400 X28.416 Y37.203 E255.49684
G0 X28.346 Y37.273
M205 X15
G0 F2400 X28.699 Y37.485
M205 X20
G1 F1400 X37.915 Y28.27 E255.93031
G0 X37.985 Y28.2
M205 X15
G0 F2400 X38.197 Y28.552
M205 X20
G1 F1400 X28.982 Y37.768 E256.36378
G0 X28.912 Y37.838
M205 X15
G0 F2400 X29.265 Y38.051
M205 X20
G1 F1400 X38.48 Y28.835 E256.79725
G0 X38.55 Y28.765
M205 X15
G0 F2400 X38.763 Y29.118
M205 X20
G1 F1400 X29.547 Y38.334 E257.23074
G0 X29.477 Y38.404
M205 X15
G0 F2400 X29.83 Y38.617
M205 X20
G1 F1400 X39.046 Y29.401 E257.66423
G0 X39.116 Y29.331
M205 X15
G0 F2400 X39.329 Y29.684
M205 X20
G1 F1400 X30.113 Y38.9 E258.09773
G0 X30.043 Y38.97
M205 X15
G0 F2400 X30.396 Y39.182
M205 X20
G1 F1400 X39.612 Y29.967 E258.53119
G0 X39.682 Y29.897
M205 X15
G0 F2400 X39.894 Y30.25
M205 X20
G1 F1400 X30.679 Y39.465 E258.96464
G0 X30.609 Y39.535
M205 X15
G0 F2400 X30.962 Y39.748
M205 X20
G1 F1400 X40.177 Y30.532 E259.39811
G0 X40.247 Y30.462
M205 X15
G0 F2400 X40.46 Y30.815
M205 X20
G1 F1400 X31.244 Y40.031 E259.8316
G0 X31.174 Y40.101
M205 X15
G0 F2400 X31.527 Y40.314
M205 X20
G1 F1400 X40.743 Y31.098 E260.26509
G0 X40.813 Y31.028
M205 X15
G0 F2400 X41.026 Y31.381
M205 X20
G1 F1400 X31.81 Y40.597 E260.69859
G0 X31.74 Y40.667
M205 X15
G0 F2400 X32.093 Y40.879
M205 X20
G1 F1400 X41.309 Y31.664 E261.13205
G0 X41.379 Y31.594
M205 X15
G0 F2400 X41.592 Y31.947
M205 X20
G1 F1400 X32.376 Y41.162 E261.56552
G0 X32.306 Y41.232
M205 X15
G0 F2400 X32.659 Y41.445
M205 X20
G1 F1400 X41.874 Y32.229 E261.99899
G0 X41.944 Y32.159
M205 X15
G0 F2400 X42.157 Y32.512
M205 X20
G1 F1400 X32.941 Y41.728 E262.43248
G0 X32.871 Y41.798
M205 X15
G0 F2400 X33.224 Y42.011
M205 X20
G1 F1400 X42.44 Y32.795 E262.86598
G0 X42.51 Y32.725
M205 X15
G0 F2400 X42.723 Y33.078
M205 X20
G1 F1400 X33.507 Y42.294 E263.29947
G0 X33.437 Y42.364
M205 X15
G0 F2400 X33.79 Y42.577
M205 X20
G1 F1400 X43.006 Y33.361 E263.73296
G0 X43.076 Y33.291
M205 X15
G0 F2400 X43.289 Y33.644
M205 X20
G1 F1400 X34.073 Y42.859 E264.16643
G0 X34.003 Y42.929
M205 X15
G0 F2400 X34.356 Y43.142
M205 X20
G1 F1400 X43.571 Y33.926 E264.5999
G0 X43.641 Y33.856
M205 X15
G0 F2400 X43.854 Y34.209
M205 X20
G1 F1400 X34.639 Y43.425 E265.03337
G0 X34.569 Y43.495
M205 X15
G0 F2400 X34.921 Y43.708
M205 X20
G1 F1400 X44.137 Y34.492 E265.46686
G0 X44.207 Y34.422
M205 X15
G0 F2400 X44.42 Y34.775
M205 X20
G1 F1400 X35.204 Y43.991 E265.90035
G0 X35.134 Y44.061
M205 X15
G0 F2400 X35.487 Y44.274
M205 X20
G1 F1400 X44.703 Y35.058 E266.33385
G0 X44.773 Y34.988
M205 X15
G0 F2400 X44.986 Y35.341
M205 X20
G1 F1400 X35.77 Y44.556 E266.76731
G0 X35.7 Y44.626
M205 X15
G0 F2400 X36.053 Y44.839
M205 X20
G1 F1400 X45.268 Y35.624 E267.20076
G0 X45.338 Y35.554
M205 X15
G0 F2400 X45.551 Y35.906
M205 X20
G1 F1400 X36.336 Y45.122 E267.63423
G0 X36.266 Y45.192
M205 X15
G0 F2400 X36.618 Y45.405
M205 X20
G1 F1400 X45.834 Y36.189 E268.06772
G0 X45.904 Y36.119
M205 X15
G0 F2400 X46.117 Y36.472
M205 X20
G1 F1400 X36.901 Y45.688 E268.50121
G0 X36.831 Y45.758
M205 X15
G0 F2400 X37.184 Y45.971
M205 X20
G1 F1400 X46.4 Y36.755 E268.93471
G0 X46.47 Y36.685
M205 X15
G0 F2400 X46.683 Y37.038
M205 X20
G1 F1400 X37.467 Y46.253 E269.36817
G0 X37.397 Y46.323
M205 X15
G0 F2400 X37.75 Y46.536
M205 X20
G1 F1400 X46.966 Y37.321 E269.80164
G0 X47.036 Y37.251
M205 X15
G0 F2400 X47.248 Y37.603
M205 X20
G1 F1400 X38.033 Y46.819 E270.23511
G0 X37.963 Y46.889
M205 X15
G0 F2400 X38.315 Y47.102
M205 X20
G1 F1400 X47.531 Y37.886 E270.6686
G0 X47.601 Y37.816
M205 X15
G0 F2400 X47.814 Y38.169
M205 X20
G1 F1400 X38.598 Y47.385 E271.1021
G0 X38.528 Y47.455
M205 X15
G0 F2400 X38.881 Y47.668
M205 X20
G1 F1400 X48.097 Y38.452 E271.53559
G0 X48.167 Y38.382
M205 X15
G0 F2400 X48.38 Y38.735
M205 X20
G1 F1400 X39.164 Y47.951 E271.96908
G0 X39.094 Y48.021
M205 X15
G0 F2400 X39.447 Y48.233
M205 X20
G1 F1400 X48.663 Y39.018 E272.40255
G0 X48.733 Y38.948
M205 X15
G0 F2400 X48.945 Y39.3
M205 X20
G1 F1400 X39.73 Y48.516 E272.83602
G0 X39.66 Y48.586
M205 X15
G0 F2400 X40.013 Y48.799
M205 X20
G1 F1400 X49.228 Y39.583 E273.26949
G0 X49.298 Y39.513
M205 X15
G0 F2400 X49.511 Y39.866
M205 X20
G1 F1400 X40.295 Y49.082 E273.70298
G0 X40.225 Y49.152
M205 X15
