;FLAVOR:RepRap
;TIME:8961
;Generated with Cura_SteamEngine 2.3.1
M104 S190
M109 S190

M117 Black

;LAYER_COUNT:23
;LAYER:15
G1 F2400 E3699.34624
G0 F4800 X104.482 Y28.401 Z3.2
G0 X101.472 Y28.473
G0 X100.728 Y47.273
G0 X99.835 Y47.273
G0 X99.153 Y48.153
G0 X79.847 Y49.847
G0 X79.153 Y71.152
G0 X59.847 Y72.846
G0 X59.165 Y73.728
G0 X58.272 Y73.728
G0 X58.23 Y73.77
G0 X58.3 Y73.7
M205 X20
;TYPE:WALL-OUTER
G1 F2400 E3700.34624
G1 F1800 X58.3 Y93.3 E3700.99814
G1 X40.7 Y93.3 E3701.58352
G1 X40.7 Y73.7 E3702.23542
G1 X58.3 Y73.7 E3702.82079
M205 X25
G0 F4800 X57.501 Y74.5
M205 X20
G1 F1800 X41.501 Y74.5 E3703.35296
G1 X41.501 Y92.499 E3703.95161
G1 X57.501 Y92.499 E3704.48377
G1 X57.501 Y74.5 E3705.08242
M205 X25
G0 F4800 X57.783 Y74.218
G1 F2400 E3704.08242
G0 F4800 X58.272 Y93.272
G0 X59.165 Y93.272
G0 X59.847 Y94.152
G0 X99.153 Y95.847
G0 X99.835 Y96.727
G0 X100.728 Y96.727
G0 X100.77 Y96.769
G0 X100.7 Y96.699
M205 X20
;TYPE:WALL-OUTER
G1 F2400 E3705.08242
G1 F1800 X118.3 Y96.699 E3705.6678
G1 X118.3 Y116.299 E3706.31969
G1 X100.7 Y116.299 E3706.90507
G1 X100.7 Y96.699 E3707.55697
M205 X25
G0 F4800 X101.5 Y97.499
M205 X20
G1 F1800 X101.5 Y115.499 E3708.15565
G1 X117.499 Y115.499 E3708.68778
G1 X117.499 Y97.499 E3709.28647
G1 X101.5 Y97.499 E3709.81859
M205 X25
G0 F4800 X101.218 Y97.217
G1 F2400 E3708.81859
G0 F4800 X109.62 Y97.459
G0 X109.62 Y98.364
G0 X109.62 Y100.805
G0 X109.62 Y102.11
G0 X109.62 Y103.079
M205 X20
;TYPE:WALL-INNER
G1 F2400 E3709.81859
G1 F3600 X109.77 Y102.626 E3709.83447
G1 X109.919 Y103.078 E3709.84085
G1 X109.956 Y103.189 E3709.84474
G1 X109.584 Y103.189 E3709.85062
G0 X109.62 Y103.079
M205 X25
G0 F4800 X109.307 Y103.589
M205 X20
G1 F3600 X107.946 Y108.154 E3710.00905
G1 X106.721 Y112.261 E3710.1516
G1 X106.446 Y112.261 E3710.16075
G1 X106.445 Y112.261 E3710.16078
G1 X106.17 Y112.261 E3710.16993
G1 X106.256 Y111.999 E3710.17538
G1 X107.565 Y108.031 E3710.31435
G1 X109.057 Y103.507 E3710.44566
G1 X109.086 Y103.418 E3710.44877
G1 X109.532 Y102.07 E3710.496
G1 X110.008 Y102.07 E3710.51183
G1 X110.453 Y103.416 E3710.55898
G1 X110.482 Y103.505 E3710.56209
G1 X111.987 Y108.059 E3710.72162
G1 X113.29 Y111.999 E3710.85964
G1 X113.376 Y112.261 E3710.86881
G1 X113.101 Y112.261 E3710.87425
G1 X113.1 Y112.261 E3710.87429
G1 X112.826 Y112.261 E3710.8834
G1 X111.606 Y108.184 E3711.02494
G1 X110.232 Y103.589 E3711.15714
G1 X110.138 Y103.589 E3711.15984
G1 X109.401 Y103.589 E3711.18435
G1 X109.307 Y103.589 E3711.18705
M205 X25
G0 F4800 X109.605 Y103.989
M205 X20
;TYPE:WALL-OUTER
G1 F1800 X109.572 Y104.102 E3711.19096
G1 X107.019 Y112.661 E3711.48803
G1 X105.893 Y112.661 E3711.52548
G1 X105.892 Y112.661 E3711.52552
G1 X105.617 Y112.661 E3711.53466
G1 X105.703 Y112.399 E3711.54012
G1 X109.243 Y101.67 E3711.91589
G1 X110.297 Y101.67 E3711.95094
G1 X113.844 Y112.399 E3712.32679
G1 X113.93 Y112.661 E3712.33596
G1 X113.655 Y112.661 E3712.3414
G1 X113.654 Y112.661 E3712.34143
G1 X112.528 Y112.661 E3712.37888
G1 X109.967 Y104.102 E3712.67602
G1 X109.934 Y103.989 E3712.6796
G1 X109.605 Y103.989 E3712.69055
M205 X25
G0 F4800 X112.616 Y100.374
M205 X20
G1 F1800 X112.668 Y100.486 E3712.69465
G1 X113.796 Y102.874 E3712.78249
G1 X113.82 Y102.923 E3712.78431
G1 X113.694 Y102.923 E3712.7846
G1 X112.578 Y100.53 E3712.80801
G0 X112.578 Y100.374
G1 X112.578 Y100.293 E3712.80835
G0 X112.616 Y100.293
G1 X114.062 Y100.293 E3712.85644
G1 X114.062 Y99.763 E3712.87407
G1 X114.172 Y99.763 E3712.87773
G1 X114.172 Y100.293 E3712.88258
G1 X114.456 Y100.293 E3712.89202
G1 X114.456 Y100.374 E3712.89222
G0 X114.172 Y100.374
G1 X114.172 Y101.397 E3712.92624
G1 X114.062 Y101.397 E3712.9299
G1 X114.062 Y100.374 E3712.93926
G1 X112.616 Y100.374 E3712.94541
M205 X25
G1 F2400 E3711.94541
G1 Z3.6
G0 F4800 X38.3 Y96.7 Z3.6
M205 X20
;TYPE:WALL-OUTER
G1 Z3.2
G1 F2400 E3712.94541
G1 F1800 X38.3 Y116.299 E3713.59728
G1 X20.7 Y116.299 E3714.18266
G1 X20.7 Y96.7 E3714.83452
G1 X38.3 Y96.7 E3715.4199
M205 X25
G0 F4800 X37.5 Y97.5
M205 X20
G1 F1800 X21.501 Y97.5 E3715.95203
G1 X21.501 Y115.499 E3716.55068
G1 X37.5 Y115.499 E3717.08281
G1 X37.5 Y97.5 E3717.68146
M205 X25
G0 F4800 X37.782 Y97.218
G1 F2400 E3716.68146
G0 F4800 X37.54 Y101.953
G0 X36.635 Y101.953
G0 X35.547 Y101.953
G0 X34.642 Y101.953
G0 X34.657 Y101.953
G0 X34.572 Y101.901
M205 X20
G1 F2400 E3717.68146
G1 F1800 X34.572 Y98.958 E3717.77934
G1 X34.682 Y98.958 E3717.783
G1 X34.682 Y101.901 E3717.80992
G1 X34.682 Y102.012 E3717.81361
G1 X34.682 Y102.118 E3717.81713
G0 X34.572 Y102.118
G1 X34.438 Y102.118 E3717.81945
G0 X34.422 Y102.107
G1 X34.333 Y102.041 E3717.82216
G1 X34.066 Y101.847 E3717.83314
G1 X34.066 Y101.801 E3717.83467
G0 X34.087 Y101.817
G0 X34.353 Y102.012
G0 X34.377 Y102
G0 X34.572 Y101.901
M205 X25
G0 F4800 X32.266 Y103.265
M205 X20
;TYPE:WALL-INNER
G1 F3600 X32.486 Y103.55 E3717.84665
G1 X32.637 Y103.776 E3717.85569
G1 X32.709 Y103.902 E3717.86051
G1 X32.778 Y104.042 E3717.8657
G1 X32.833 Y104.181 E3717.87068
G1 X32.873 Y104.306 E3717.87504
G1 X32.932 Y104.553 E3717.88349
G1 X32.989 Y104.907 E3717.89541
G1 X33.044 Y105.463 E3717.914
G1 X33.044 Y112.366 E3718.14359
G1 X32.517 Y112.366 E3718.16112
G1 X32.517 Y105.6 E3718.38616
G1 X32.487 Y105.191 E3718.3998
G1 X32.449 Y104.907 E3718.40933
G1 X32.385 Y104.612 E3718.41937
G1 X32.279 Y104.314 E3718.42989
G1 X32.134 Y104.038 E3718.44026
G1 X31.974 Y103.795 E3718.44993
G1 X31.69 Y103.421 E3718.46555
G1 X31.334 Y103.149 E3718.48045
G1 X31.106 Y102.996 E3718.48959
G1 X30.848 Y102.856 E3718.49935
G1 X30.567 Y102.75 E3718.50934
G1 X30.285 Y102.681 E3718.519
G1 X30.013 Y102.641 E3718.52814
G1 X29.597 Y102.605 E3718.54203
G1 X29.183 Y102.642 E3718.55585
G1 X28.913 Y102.681 E3718.56493
G1 X28.632 Y102.749 E3718.57454
G1 X28.352 Y102.856 E3718.58451
G1 X28.096 Y102.996 E3718.59422
G1 X27.868 Y103.15 E3718.60337
G1 X27.52 Y103.421 E3718.61804
G1 X27.235 Y103.788 E3718.63349
G1 X27.07 Y104.031 E3718.64326
G1 X26.929 Y104.297 E3718.65327
G1 X26.86 Y104.464 E3718.65928
G1 X26.776 Y104.755 E3718.66936
G1 X26.725 Y105.047 E3718.67922
G1 X26.696 Y105.323 E3718.68845
G1 X26.677 Y105.601 E3718.69771
G1 X26.677 Y112.366 E3718.92272
G1 X26.15 Y112.366 E3718.94025
G1 X26.15 Y105.46 E3719.16994
G1 X26.204 Y104.903 E3719.18856
G1 X26.259 Y104.548 E3719.2005
G1 X26.313 Y104.322 E3719.20823
G1 X26.361 Y104.174 E3719.21341
G1 X26.417 Y104.036 E3719.21836
G1 X26.552 Y103.786 E3719.22781
G1 X26.705 Y103.563 E3719.2368
G1 X26.938 Y103.269 E3719.24928
G1 X27.149 Y103.024 E3719.26004
G1 X27.552 Y102.722 E3719.27679
G1 X27.86 Y102.518 E3719.28907
G1 X28.061 Y102.407 E3719.29671
G1 X28.2 Y102.342 E3719.30181
G1 X28.347 Y102.286 E3719.30705
G1 X28.482 Y102.245 E3719.31174
G1 X28.733 Y102.188 E3719.3203
G1 X28.894 Y102.159 E3719.32574
G1 X29.273 Y102.112 E3719.33844
G1 X29.594 Y102.083 E3719.34916
G1 X30.121 Y102.132 E3719.36677
G1 X30.476 Y102.186 E3719.37871
G1 X30.714 Y102.24 E3719.38683
G1 X30.999 Y102.336 E3719.39683
G1 X31.142 Y102.402 E3719.40207
G1 X31.374 Y102.529 E3719.41086
G1 X31.644 Y102.706 E3719.4216
G1 X32.063 Y103.02 E3719.43902
G1 X32.266 Y103.265 E3719.4496
M205 X25
G0 F4800 X31.404 Y103.706
M205 X20
;TYPE:WALL-OUTER
G1 F1800 X31.101 Y103.474 E3719.46229
G1 X30.899 Y103.339 E3719.47037
G1 X30.681 Y103.221 E3719.47862
G1 X30.448 Y103.133 E3719.4869
G1 X30.208 Y103.074 E3719.49512
G1 X29.967 Y103.039 E3719.50322
G1 X29.597 Y103.007 E3719.51557
G1 X29.229 Y103.039 E3719.52786
G1 X28.989 Y103.074 E3719.53593
G1 X28.751 Y103.132 E3719.54407
G1 X28.52 Y103.22 E3719.5523
G1 X28.304 Y103.338 E3719.56048
G1 X28.103 Y103.474 E3719.56855
G1 X27.805 Y103.706 E3719.58112
G1 X27.559 Y104.023 E3719.59446
G1 X27.413 Y104.238 E3719.6031
G1 X27.291 Y104.467 E3719.61173
G1 X27.238 Y104.596 E3719.61637
G1 X27.166 Y104.845 E3719.62499
G1 X27.121 Y105.102 E3719.63367
G1 X27.095 Y105.357 E3719.6422
G1 X27.077 Y105.615 E3719.6508
G1 X27.077 Y112.766 E3719.88864
G1 X25.75 Y112.766 E3719.93278
G1 X25.75 Y105.443 E3720.17634
G1 X25.806 Y104.86 E3720.19582
G1 X25.867 Y104.467 E3720.20905
G1 X25.928 Y104.213 E3720.21774
G1 X25.983 Y104.042 E3720.22371
G1 X26.054 Y103.868 E3720.22996
G1 X26.134 Y103.709 E3720.23588
G1 X26.222 Y103.56 E3720.24164
G1 X26.381 Y103.328 E3720.25099
G1 X26.624 Y103.021 E3720.26402
G1 X26.875 Y102.73 E3720.2768
G1 X27.331 Y102.388 E3720.29576
G1 X27.644 Y102.181 E3720.30824
G1 X27.892 Y102.044 E3720.31766
G1 X28.04 Y101.975 E3720.32309
G1 X28.219 Y101.907 E3720.32946
G1 X28.377 Y101.859 E3720.33495
G1 X28.656 Y101.795 E3720.34447
G1 X28.831 Y101.764 E3720.35038
G1 X29.224 Y101.715 E3720.36356
G1 X29.596 Y101.682 E3720.37598
G1 X30.166 Y101.735 E3720.39502
G1 X30.554 Y101.794 E3720.40807
G1 X30.825 Y101.855 E3720.41731
G1 X30.992 Y101.906 E3720.42312
G1 X31.155 Y101.967 E3720.42891
G1 X31.323 Y102.044 E3720.43505
G1 X31.567 Y102.178 E3720.44431
G1 X31.884 Y102.386 E3720.45692
G1 X32.34 Y102.728 E3720.47588
G1 X32.583 Y103.021 E3720.48854
G1 X32.813 Y103.319 E3720.50106
G1 X32.976 Y103.564 E3720.51085
G1 X33.06 Y103.709 E3720.51642
G1 X33.145 Y103.882 E3720.52283
G1 X33.21 Y104.047 E3720.52873
G1 X33.26 Y104.203 E3720.53418
G1 X33.325 Y104.475 E3720.54348
G1 X33.387 Y104.864 E3720.55658
G1 X33.444 Y105.444 E3720.57597
G1 X33.444 Y112.766 E3720.8195
G1 X32.117 Y112.766 E3720.86363
G1 X32.117 Y105.615 E3721.10148
G1 X32.089 Y105.232 E3721.11425
G1 X32.055 Y104.976 E3721.12284
G1 X32 Y104.722 E3721.13148
G1 X31.912 Y104.475 E3721.14021
G1 X31.789 Y104.242 E3721.14897
G1 X31.647 Y104.026 E3721.15757
G1 X31.404 Y103.706 E3721.17093
M205 X25
G0 F4800 X31.737 Y103.275
G0 X31.739 Y103.277
G1 F2400 E3720.17093
G1 Z3.6
G0 F4800 X40.7 Y96.7 Z3.6
M205 X20
;TYPE:WALL-OUTER
G1 Z3.2
G1 F2400 E3721.17093
G1 F1800 X58.3 Y96.7 E3721.75631
G1 X58.3 Y116.299 E3722.40817
G1 X40.7 Y116.299 E3722.99355
G1 X40.7 Y96.7 E3723.64542
M205 X25
G0 F4800 X41.5 Y97.5
M205 X20
G1 F1800 X41.5 Y115.499 E3724.24407
G1 X57.5 Y115.499 E3724.77623
G1 X57.5 Y97.5 E3725.37488
G1 X41.5 Y97.5 E3725.90704
M205 X25
G0 F4800 X41.218 Y97.218
G1 F2400 E3724.90704
G0 F4800 X54.052 Y97.46
G0 X55.515 Y99.751
G0 X54.052 Y100.281
G0 X54.041 Y100.334
M205 X20
G1 F2400 E3725.90704
G1 F1800 X54.093 Y100.446 E3725.91115
G1 X55.221 Y102.835 E3725.99902
G1 X55.244 Y102.883 E3726.00079
G1 X55.118 Y102.883 E3726.00109
G1 X54.002 Y100.49 E3726.02456
G0 X54.002 Y100.334
G1 X54.002 Y100.253 E3726.02491
G0 X54.041 Y100.253
G1 X55.487 Y100.253 E3726.073
G1 X55.487 Y99.723 E3726.09063
G1 X55.597 Y99.723 E3726.09429
G1 X55.597 Y100.253 E3726.09913
G1 X55.88 Y100.253 E3726.10855
G1 X55.88 Y100.334 E3726.10874
G0 X55.597 Y100.334
G1 X55.597 Y101.357 E3726.14277
G1 X55.487 Y101.357 E3726.14643
G1 X55.487 Y100.334 E3726.15578
G1 X54.041 Y100.334 E3726.16193
M205 X25
G0 F4800 X52.502 Y103.806
M205 X20
;TYPE:WALL-INNER
G1 F3600 X51.941 Y103.806 E3726.18059
G1 X52.23 Y102.715 E3726.21813
G1 X52.502 Y103.806 E3726.25552
M205 X25
G0 F4800 X51.487 Y103.806
G0 X49.828 Y110.351
G0 X48.824 Y110.351
G0 X47.159 Y103.806
G0 X46.706 Y103.806
M205 X20
G1 F3600 X46.15 Y103.806 E3726.27402
G1 X46.419 Y102.727 E3726.311
G1 X46.706 Y103.806 E3726.34814
M205 X25
G0 F4800 X46.646 Y102.141
G0 X48.824 Y110.351
G0 X49.168 Y110.813
M205 X20
G1 F3600 X49.142 Y110.72 E3726.35135
G1 X49.507 Y110.72 E3726.35975
G0 X49.483 Y110.811
G1 X49.325 Y111.39 E3726.37971
G1 X49.168 Y110.813 E3726.38524
M205 X25
G0 F4800 X48.848 Y110.32
M205 X20
G1 F3600 X49.804 Y110.32 E3726.41704
G1 X51.439 Y104.139 E3726.62969
G1 X51.461 Y104.054 E3726.63261
G1 X51.976 Y102.11 E3726.6995
G1 X52.491 Y102.11 E3726.71663
G1 X52.984 Y104.086 E3726.78436
G1 X52.993 Y104.124 E3726.78566
G1 X53.573 Y106.449 E3726.86536
G1 X54.973 Y112.052 E3727.05745
G1 X55.035 Y112.3 E3727.06595
G1 X54.78 Y112.3 E3727.07109
G1 X54.779 Y112.3 E3727.07112
G1 X54.463 Y112.3 E3727.08163
G1 X53.185 Y106.546 E3727.27768
G1 X52.666 Y104.206 E3727.35113
G1 X52.626 Y104.206 E3727.35238
G1 X51.783 Y104.206 E3727.38042
G1 X51.695 Y104.206 E3727.38295
G1 X50.016 Y110.377 E3727.51139
G1 X49.492 Y112.3 E3727.57768
G1 X49.159 Y112.3 E3727.58875
G1 X48.635 Y110.379 E3727.65498
G1 X46.948 Y104.206 E3727.86783
G1 X46.863 Y104.206 E3727.87065
G1 X46.022 Y104.206 E3727.89862
G1 X45.977 Y104.206 E3727.90012
G1 X45.409 Y106.777 E3727.98769
G1 X44.188 Y112.3 E3728.17583
G1 X43.874 Y112.3 E3728.18627
G1 X43.873 Y112.3 E3728.1863
G1 X43.618 Y112.3 E3728.19478
G1 X43.679 Y112.052 E3728.19994
G1 X45.02 Y106.681 E3728.38406
G1 X45.657 Y104.127 E3728.46384
G1 X45.667 Y104.084 E3728.46521
G1 X46.161 Y102.11 E3728.53289
G1 X46.67 Y102.11 E3728.54982
G1 X47.186 Y104.055 E3728.61675
G1 X47.207 Y104.137 E3728.61919
G1 X48.848 Y110.32 E3728.74923
M205 X25
G0 F4800 X49.156 Y109.92
M205 X20
;TYPE:WALL-OUTER
G1 F1800 X49.496 Y109.92 E3728.76054
G1 X49.524 Y109.811 E3728.76428
G1 X51.668 Y101.71 E3729.043
G1 X52.803 Y101.71 E3729.08075
G1 X55.485 Y112.452 E3729.449
G1 X55.547 Y112.7 E3729.4575
G1 X55.292 Y112.7 E3729.46264
G1 X55.291 Y112.7 E3729.46267
G1 X54.142 Y112.7 E3729.50089
G1 X52.369 Y104.716 E3729.77291
G1 X52.345 Y104.606 E3729.77665
G1 X52.001 Y104.606 E3729.78809
G1 X51.972 Y104.715 E3729.79159
G1 X49.798 Y112.7 E3730.06684
G1 X48.854 Y112.7 E3730.09824
G1 X46.672 Y104.713 E3730.37362
G1 X46.643 Y104.606 E3730.37731
G1 X46.298 Y104.606 E3730.38878
G1 X46.275 Y104.714 E3730.39221
G1 X44.51 Y112.7 E3730.66423
G1 X43.362 Y112.7 E3730.70241
G1 X43.361 Y112.7 E3730.70245
G1 X43.106 Y112.7 E3730.71093
G1 X43.167 Y112.452 E3730.71608
G1 X45.849 Y101.71 E3731.08433
G1 X46.978 Y101.71 E3731.12188
G1 X49.128 Y109.811 E3731.40065
G1 X49.156 Y109.92 E3731.40412
M205 X25
G0 F4800 X49.156 Y110.72
G1 F2400 E3730.40412
G1 Z3.6
G0 F4800 X38.3 Y93.3 Z3.6
M205 X20
;TYPE:WALL-OUTER
G1 Z3.2
G1 F2400 E3731.40412
G1 F1800 X20.7 Y93.3 E3731.9895
G1 X20.7 Y73.7 E3732.6414
G1 X38.3 Y73.7 E3733.22678
G1 X38.3 Y93.3 E3733.87867
M205 X25
G0 F4800 X37.5 Y92.499
M205 X20
G1 F1800 X37.5 Y74.5 E3734.47732
G1 X21.501 Y74.5 E3735.00945
G1 X21.501 Y92.499 E3735.6081
G1 X37.5 Y92.499 E3736.14023
M205 X25
G0 F4800 X37.782 Y92.781
G1 F2400 E3735.14023
G0 F4800 X37.54 Y79.942
G0 X36.635 Y79.942
G0 X34.735 Y78.394
G0 X33.842 Y78.394
G0 X33.404 Y79.942
G0 X33.494 Y79.9
M205 X20
G1 F2400 E3736.14023
G1 F1800 X33.517 Y79.948 E3736.142
G1 X33.391 Y79.948 E3736.14396
G1 X32.275 Y77.555 E3736.23179
G1 X32.275 Y77.399 E3736.23697
G1 X32.275 Y77.318 E3736.23967
G0 X32.314 Y77.318
G1 X33.76 Y77.318 E3736.28776
G1 X33.76 Y76.789 E3736.30536
G1 X33.87 Y76.789 E3736.30902
G1 X33.87 Y77.318 E3736.31385
G1 X34.153 Y77.318 E3736.32327
G1 X34.153 Y77.399 E3736.32346
G0 X33.87 Y77.399
G1 X33.87 Y78.422 E3736.35749
G1 X33.76 Y78.422 E3736.36114
G1 X33.76 Y77.399 E3736.3705
G1 X32.314 Y77.399 E3736.37665
G0 X32.366 Y77.511
G1 X33.494 Y79.9 E3736.39849
M205 X25
G1 F2400 E3735.39849
G0 F4800 X33.404 Y79.942
G0 X33.412 Y79.915
G0 X32.6 Y80.295
G0 X31.044 Y79.915
G0 X29.739 Y79.915
G0 X29.578 Y83.867
M205 X20
;TYPE:WALL-INNER
G1 F2400 E3736.39849
G1 F3600 X29.588 Y83.885 E3736.39918
G0 X29.566 Y83.885
G1 X29.545 Y83.885 E3736.39934
G0 X29.553 Y83.869
G0 X29.566 Y83.844
G0 X29.578 Y83.867
M205 X25
G0 F4800 X29.944 Y84.285
M205 X20
G1 F3600 X29.833 Y84.285 E3736.40303
G1 X29.299 Y84.285 E3736.42079
G1 X29.188 Y84.285 E3736.42448
G1 X27.048 Y88.767 E3736.58967
G1 X26.774 Y89.34 E3736.6108
G1 X26.632 Y89.34 E3736.61552
G1 X26.631 Y89.34 E3736.61556
G1 X26.305 Y89.34 E3736.6264
G1 X26.453 Y89.049 E3736.63263
G1 X26.69 Y88.586 E3736.64993
G1 X28.953 Y84.165 E3736.78683
G1 X29.003 Y84.067 E3736.78995
G1 X29.354 Y83.381 E3736.81558
G1 X29.354 Y79.149 E3736.95634
G1 X29.779 Y79.149 E3736.97047
G1 X29.779 Y83.381 E3737.11123
G1 X30.129 Y84.066 E3737.13681
G1 X30.179 Y84.164 E3737.13994
G1 X32.443 Y88.589 E3737.30526
G1 X32.679 Y89.05 E3737.32249
G1 X32.827 Y89.34 E3737.33332
G1 X32.502 Y89.34 E3737.33952
G1 X32.501 Y89.34 E3737.33955
G1 X32.358 Y89.34 E3737.34431
G1 X32.086 Y88.771 E3737.36529
G1 X29.944 Y84.285 E3737.50252
M205 X25
G0 F4800 X29.692 Y84.685
M205 X20
;TYPE:WALL-OUTER
G1 F1800 X29.44 Y84.685 E3737.51091
G1 X29.374 Y84.823 E3737.51599
