;FLAVOR:RepRap
;TIME:8961
;Generated with Cura_SteamEngine 2.3.1
M104 S190
M109 S190

M117 White

;LAYER_COUNT:23
;LAYER:0
M107
M205 X10
G1 F2400 E-1
G1 Z20.4
G0 F1200 X41.5 Y74.5 Z.6
M205 X20
;TYPE:WALL-INNER
G1 Z.2
G1 F2400 E0
G1 F600 X57.5 Y74.5 E0.53216
G1 X57.5 Y92.5 E1.13084
G1 X41.5 Y92.5 E1.66301
G1 X41.5 Y74.5 E2.26169
M205 X10
G0 F1200 X41.1 Y74.1
M205 X20
G1 F600 X57.9 Y74.1 E2.82046
G1 X57.9 Y92.9 E3.44575
G1 X41.1 Y92.9 E4.00452
G1 X41.1 Y74.1 E4.62981
M205 X10
G0 F1200 X40.7 Y73.7
M205 X20
;TYPE:WALL-OUTER
G1 F600 X58.3 Y73.7 E5.21519
G1 X58.3 Y93.3 E5.86709
G1 X40.7 Y93.3 E6.45247
G1 X40.7 Y73.7 E7.10436
M205 X10
G0 F1200 X41.869 Y74.679
M205 X20
;TYPE:SKIN
G1 F600 X57.32 Y90.129 E7.83111
G0 X57.39 Y90.199
M205 X10
G0 F1200 X57.32 Y89.564
M205 X20
G1 F600 X42.435 Y74.679 E8.53125
G0 X42.365 Y74.609
M205 X10
G0 F1200 X43.001 Y74.679
M205 X20
G1 F600 X57.32 Y88.998 E9.20478
G0 X57.39 Y89.068
M205 X10
G0 F1200 X57.32 Y88.432
M205 X20
G1 F600 X43.566 Y74.679 E9.8517
G0 X43.496 Y74.609
M205 X10
G0 F1200 X44.132 Y74.679
M205 X20
G1 F600 X57.32 Y87.867 E10.47202
G0 X57.39 Y87.937
M205 X10
G0 F1200 X57.32 Y87.301
M205 X20
G1 F600 X44.698 Y74.679 E11.06572
G0 X44.628 Y74.609
M205 X10
G0 F1200 X45.264 Y74.679
M205 X20
G1 F600 X57.32 Y86.735 E11.6328
G0 X57.39 Y86.805
M205 X10
G0 F1200 X57.32 Y86.17
M205 X20
G1 F600 X45.829 Y74.679 E12.1733
G0 X45.759 Y74.609
M205 X10
G0 F1200 X46.395 Y74.679
M205 X20
G1 F600 X57.32 Y85.604 E12.68718
G0 X57.39 Y85.674
M205 X10
G0 F1200 X57.32 Y85.038
M205 X20
G1 F600 X46.961 Y74.679 E13.17443
G0 X46.891 Y74.609
M205 X10
G0 F1200 X47.526 Y74.679
M205 X20
G1 F600 X57.32 Y84.473 E13.63511
G0 X57.39 Y84.543
M205 X10
G0 F1200 X57.32 Y83.907
M205 X20
G1 F600 X48.092 Y74.679 E14.06917
G0 X48.022 Y74.609
M205 X10
G0 F1200 X48.658 Y74.679
M205 X20
G1 F600 X57.32 Y83.341 E14.4766
G0 X57.39 Y83.411
M205 X10
G0 F1200 X57.32 Y82.776
M205 X20
G1 F600 X49.223 Y74.679 E14.85746
G0 X49.153 Y74.609
M205 X10
G0 F1200 X49.789 Y74.679
M205 X20
G1 F600 X57.32 Y82.21 E15.2117
G0 X57.39 Y82.28
M205 X10
G0 F1200 X57.32 Y81.644
M205 X20
G1 F600 X50.355 Y74.679 E15.53931
G0 X50.285 Y74.609
M205 X10
G0 F1200 X50.92 Y74.679
M205 X20
G1 F600 X57.32 Y81.078 E15.84032
G0 X57.39 Y81.148
M205 X10
G0 F1200 X57.32 Y80.513
M205 X20
G1 F600 X51.486 Y74.679 E16.11474
G0 X51.416 Y74.609
M205 X10
G0 F1200 X52.052 Y74.679
M205 X20
G1 F600 X57.32 Y79.947 E16.36253
G0 X57.39 Y80.017
M205 X10
G0 F1200 X57.32 Y79.381
M205 X20
G1 F600 X52.617 Y74.679 E16.58372
G0 X52.547 Y74.609
M205 X10
G0 F1200 X53.183 Y74.679
M205 X20
G1 F600 X57.32 Y78.816 E16.77831
G0 X57.39 Y78.886
M205 X10
G0 F1200 X57.32 Y78.25
M205 X20
G1 F600 X53.749 Y74.679 E16.94628
G0 X53.679 Y74.609
M205 X10
G0 F1200 X54.314 Y74.679
M205 X20
G1 F600 X57.32 Y77.684 E17.08765
G0 X57.39 Y77.754
M205 X10
G0 F1200 X57.32 Y77.119
M205 X20
G1 F600 X54.88 Y74.679 E17.20242
G0 X54.81 Y74.609
M205 X10
G0 F1200 X55.446 Y74.679
M205 X20
G1 F600 X57.32 Y76.553 E17.29057
G0 X57.39 Y76.623
M205 X10
G0 F1200 X57.32 Y75.987
M205 X20
G1 F600 X56.012 Y74.679 E17.35209
G0 X55.942 Y74.609
M205 X10
G0 F1200 X56.577 Y74.679
M205 X20
G1 F600 X57.32 Y75.422 E17.38704
G0 X57.39 Y75.492
M205 X10
G0 F1200 X57.32 Y74.856
M205 X20
G1 F600 X57.143 Y74.679 E17.39536
M205 X10
G0 F1200 X41.679 Y75.055
M205 X20
G1 F600 X57.32 Y90.695 E18.13105
G0 X57.39 Y90.765
M205 X10
G0 F1200 X57.32 Y91.261
M205 X20
G1 F600 X41.679 Y75.62 E18.86675
G0 X41.609 Y75.55
M205 X10
G0 F1200 X41.679 Y76.186
M205 X20
G1 F600 X57.32 Y91.827 E19.60245
G0 X57.39 Y91.897
M205 X10
G0 F1200 X57.246 Y92.319
M205 X20
G1 F600 X41.679 Y76.752 E20.33468
G0 X41.609 Y76.682
M205 X10
G0 F1200 X41.679 Y77.317
M205 X20
G1 F600 X56.68 Y92.319 E21.0403
G0 X56.75 Y92.389
M205 X10
G0 F1200 X56.115 Y92.319
M205 X20
G1 F600 X41.679 Y77.883 E21.71933
G0 X41.609 Y77.813
M205 X10
G0 F1200 X41.679 Y78.449
M205 X20
G1 F600 X55.549 Y92.319 E22.37173
G0 X55.619 Y92.389
M205 X10
G0 F1200 X54.983 Y92.319
M205 X20
G1 F600 X41.679 Y79.014 E22.99753
G0 X41.609 Y78.944
M205 X10
G0 F1200 X41.679 Y79.58
M205 X20
G1 F600 X54.418 Y92.319 E23.59674
G0 X54.488 Y92.389
M205 X10
G0 F1200 X53.852 Y92.319
M205 X20
G1 F600 X41.679 Y80.146 E24.16932
G0 X41.609 Y80.076
M205 X10
G0 F1200 X41.679 Y80.711
M205 X20
G1 F600 X53.286 Y92.319 E24.7153
G0 X53.356 Y92.389
M205 X10
G0 F1200 X52.721 Y92.319
M205 X20
G1 F600 X41.679 Y81.277 E25.23468
G0 X41.609 Y81.207
M205 X10
G0 F1200 X41.679 Y81.843
M205 X20
G1 F600 X52.155 Y92.319 E25.72744
G0 X52.225 Y92.389
M205 X10
G0 F1200 X51.589 Y92.319
M205 X20
G1 F600 X41.679 Y82.409 E26.19358
G0 X41.609 Y82.339
M205 X10
G0 F1200 X41.679 Y82.974
M205 X20
G1 F600 X51.024 Y92.319 E26.63314
G0 X51.094 Y92.389
M205 X10
G0 F1200 X50.458 Y92.319
M205 X20
G1 F600 X41.679 Y83.54 E27.04607
G0 X41.609 Y83.47
M205 X10
G0 F1200 X41.679 Y84.106
M205 X20
G1 F600 X49.892 Y92.319 E27.43239
G0 X49.962 Y92.389
M205 X10
G0 F1200 X49.327 Y92.319
M205 X20
G1 F600 X41.679 Y84.671 E27.79213
G0 X41.609 Y84.601
M205 X10
G0 F1200 X41.679 Y85.237
M205 X20
G1 F600 X48.761 Y92.319 E28.12524
G0 X48.831 Y92.389
M205 X10
G0 F1200 X48.195 Y92.319
M205 X20
G1 F600 X41.679 Y85.803 E28.43173
G0 X41.609 Y85.733
M205 X10
G0 F1200 X41.679 Y86.368
M205 X20
G1 F600 X47.63 Y92.319 E28.71165
G0 X47.7 Y92.389
M205 X10
G0 F1200 X47.064 Y92.319
M205 X20
G1 F600 X41.679 Y86.934 E28.96494
G0 X41.609 Y86.864
M205 X10
G0 F1200 X41.679 Y87.5
M205 X20
G1 F600 X46.498 Y92.319 E29.19162
G0 X46.568 Y92.389
M205 X10
G0 F1200 X45.932 Y92.319
M205 X20
G1 F600 X41.679 Y88.065 E29.39169
G0 X41.609 Y87.995
M205 X10
G0 F1200 X41.679 Y88.631
M205 X20
G1 F600 X45.367 Y92.319 E29.56516
G0 X45.437 Y92.389
M205 X10
G0 F1200 X44.801 Y92.319
M205 X20
G1 F600 X41.679 Y89.197 E29.71201
G0 X41.609 Y89.127
M205 X10
G0 F1200 X41.679 Y89.762
M205 X20
G1 F600 X44.235 Y92.319 E29.83226
G0 X44.305 Y92.389
M205 X10
G0 F1200 X43.67 Y92.319
M205 X20
G1 F600 X41.679 Y90.328 E29.92591
G0 X41.609 Y90.258
M205 X10
G0 F1200 X41.679 Y90.894
M205 X20
G1 F600 X43.104 Y92.319 E29.99294
G0 X43.174 Y92.389
M205 X10
G0 F1200 X42.538 Y92.319
M205 X20
G1 F600 X41.679 Y91.46 E30.03334
G0 X41.609 Y91.39
M205 X10
G0 F1200 X41.679 Y92.025
M205 X20
G1 F600 X41.973 Y92.319 E30.04717
M205 X10
G1 F2400 E29.04717
G0 F1200 X57.872 Y92.872
G0 X59.165 Y92.872
G0 X59.847 Y94.152
G0 X99.153 Y95.847
G0 X99.835 Y97.127
G0 X101.128 Y97.127
G0 X101.5 Y97.499
M205 X20
;TYPE:WALL-INNER
G1 F2400 E30.04717
G1 F600 X117.5 Y97.499 E30.57933
G1 X117.5 Y115.499 E31.17801
G1 X101.5 Y115.499 E31.71018
G1 X101.5 Y97.499 E32.30886
M205 X10
G0 F1200 X101.1 Y97.099
M205 X20
G1 F600 X117.9 Y97.099 E32.86763
G1 X117.9 Y115.899 E33.49292
G1 X101.1 Y115.899 E34.05169
G1 X101.1 Y97.099 E34.67698
M205 X10
G0 F1200 X100.7 Y96.699
M205 X20
;TYPE:WALL-OUTER
G1 F600 X118.3 Y96.699 E35.26236
G1 X118.3 Y116.299 E35.91426
G1 X100.7 Y116.299 E36.49964
G1 X100.7 Y96.699 E37.15154
M205 X10
G0 F1200 X101.679 Y97.72
M205 X20
;TYPE:SKIN
G1 F600 X117.319 Y113.359 E37.88717
G0 X117.389 Y113.429
M205 X10
G0 F1200 X117.319 Y112.794
M205 X20
G1 F600 X102.204 Y97.679 E38.59813
G0 X102.134 Y97.609
M205 X10
G0 F1200 X102.77 Y97.679
M205 X20
G1 F600 X117.319 Y112.228 E39.28247
G0 X117.389 Y112.298
M205 X10
G0 F1200 X117.319 Y111.662
M205 X20
G1 F600 X103.335 Y97.679 E39.94021
G0 X103.265 Y97.609
M205 X10
G0 F1200 X103.901 Y97.679
M205 X20
G1 F600 X117.319 Y111.097 E40.57136
G0 X117.389 Y111.167
M205 X10
G0 F1200 X117.319 Y110.531
M205 X20
G1 F600 X104.467 Y97.679 E41.17587
G0 X104.397 Y97.609
M205 X10
G0 F1200 X105.032 Y97.679
M205 X20
G1 F600 X117.319 Y109.965 E41.75379
G0 X117.389 Y110.035
M205 X10
G0 F1200 X117.319 Y109.4
M205 X20
G1 F600 X105.598 Y97.679 E42.30511
G0 X105.528 Y97.609
M205 X10
G0 F1200 X106.164 Y97.679
M205 X20
G1 F600 X117.319 Y108.834 E42.82981
G0 X117.389 Y108.904
M205 X10
G0 F1200 X117.319 Y108.268
M205 X20
G1 F600 X106.729 Y97.679 E43.32791
G0 X106.659 Y97.609
M205 X10
G0 F1200 X107.295 Y97.679
M205 X20
G1 F600 X117.319 Y107.702 E43.79938
G0 X117.389 Y107.772
M205 X10
G0 F1200 X117.319 Y107.137
M205 X20
G1 F600 X107.861 Y97.679 E44.24426
G0 X107.791 Y97.609
M205 X10
G0 F1200 X108.427 Y97.679
M205 X20
G1 F600 X117.319 Y106.571 E44.66251
G0 X117.389 Y106.641
M205 X10
G0 F1200 X117.319 Y106.005
M205 X20
G1 F600 X108.992 Y97.679 E45.05416
G0 X108.922 Y97.609
M205 X10
G0 F1200 X109.558 Y97.679
M205 X20
G1 F600 X117.319 Y105.44 E45.41922
G0 X117.389 Y105.51
M205 X10
G0 F1200 X117.319 Y104.874
M205 X20
G1 F600 X110.124 Y97.679 E45.75765
G0 X110.054 Y97.609
M205 X10
G0 F1200 X110.689 Y97.679
M205 X20
G1 F600 X117.319 Y104.308 E46.06948
G0 X117.389 Y104.378
M205 X10
G0 F1200 X117.319 Y103.743
M205 X20
G1 F600 X111.255 Y97.679 E46.35471
G0 X111.185 Y97.609
M205 X10
G0 F1200 X111.821 Y97.679
M205 X20
G1 F600 X117.319 Y103.177 E46.61332
G0 X117.389 Y103.247
M205 X10
G0 F1200 X117.319 Y102.611
M205 X20
G1 F600 X112.386 Y97.679 E46.84533
G0 X112.316 Y97.609
M205 X10
G0 F1200 X112.952 Y97.679
M205 X20
G1 F600 X117.319 Y102.046 E47.05074
G0 X117.389 Y102.116
M205 X10
G0 F1200 X117.319 Y101.48
M205 X20
G1 F600 X113.518 Y97.679 E47.22953
G0 X113.448 Y97.609
M205 X10
G0 F1200 X114.083 Y97.679
M205 X20
G1 F600 X117.319 Y100.914 E47.38172
G0 X117.389 Y100.984
M205 X10
G0 F1200 X117.319 Y100.349
M205 X20
G1 F600 X114.649 Y97.679 E47.5073
G0 X114.579 Y97.609
M205 X10
G0 F1200 X115.215 Y97.679
M205 X20
G1 F600 X117.319 Y99.783 E47.60627
G0 X117.389 Y99.853
M205 X10
G0 F1200 X117.319 Y99.217
M205 X20
G1 F600 X115.78 Y97.679 E47.67864
G0 X115.71 Y97.609
M205 X10
G0 F1200 X116.346 Y97.679
M205 X20
G1 F600 X117.319 Y98.652 E47.7244
G0 X117.389 Y98.722
M205 X10
G0 F1200 X117.319 Y98.086
M205 X20
G1 F600 X116.912 Y97.679 E47.74355
M205 X10
G0 F1200 X101.679 Y98.285
M205 X20
G1 F600 X117.319 Y113.925 E48.4792
G0 X117.389 Y113.995
M205 X10
G0 F1200 X117.319 Y114.491
M205 X20
G1 F600 X101.679 Y98.851 E49.21486
G0 X101.609 Y98.781
M205 X10
G0 F1200 X101.679 Y99.417
M205 X20
G1 F600 X117.319 Y115.056 E49.9505
G0 X117.389 Y115.126
M205 X10
G0 F1200 X117.015 Y115.318
M205 X20
G1 F600 X101.679 Y99.982 E50.67186
G0 X101.609 Y99.912
M205 X10
G0 F1200 X101.679 Y100.548
M205 X20
G1 F600 X116.449 Y115.318 E51.36659
G0 X116.519 Y115.388
M205 X10
G0 F1200 X115.884 Y115.318
M205 X20
G1 F600 X101.679 Y101.114 E52.03473
G0 X101.609 Y101.044
M205 X10
G0 F1200 X101.679 Y101.679
M205 X20
G1 F600 X115.318 Y115.318 E52.67626
G0 X115.388 Y115.388
M205 X10
G0 F1200 X114.752 Y115.318
M205 X20
G1 F600 X101.679 Y102.245 E53.29118
G0 X101.609 Y102.175
M205 X10
G0 F1200 X101.679 Y102.811
M205 X20
G1 F600 X114.187 Y115.318 E53.87949
G0 X114.257 Y115.388
M205 X10
G0 F1200 X113.621 Y115.318
M205 X20
G1 F600 X101.679 Y103.376 E54.44121
G0 X101.609 Y103.306
M205 X10
G0 F1200 X101.679 Y103.942
M205 X20
G1 F600 X113.055 Y115.318 E54.9763
G0 X113.125 Y115.388
M205 X10
G0 F1200 X112.49 Y115.318
M205 X20
G1 F600 X101.679 Y104.508 E55.48479
G0 X101.609 Y104.438
M205 X10
G0 F1200 X101.679 Y105.073
M205 X20
G1 F600 X111.924 Y115.318 E55.96669
G0 X111.994 Y115.388
M205 X10
G0 F1200 X111.358 Y115.318
M205 X20
G1 F600 X101.679 Y105.639 E56.42196
G0 X101.609 Y105.569
M205 X10
G0 F1200 X101.679 Y106.205
M205 X20
G1 F600 X110.793 Y115.318 E56.85063
G0 X110.863 Y115.388
M205 X10
G0 F1200 X110.227 Y115.318
M205 X20
G1 F600 X101.679 Y106.771 E57.25267
G0 X101.609 Y106.701
M205 X10
G0 F1200 X101.679 Y107.336
M205 X20
G1 F600 X109.661 Y115.318 E57.62812
G0 X109.731 Y115.388
M205 X10
G0 F1200 X109.095 Y115.318
M205 X20
G1 F600 X101.679 Y107.902 E57.97695
G0 X101.609 Y107.832
M205 X10
G0 F1200 X101.679 Y108.468
M205 X20
G1 F600 X108.53 Y115.318 E58.29918
G0 X108.6 Y115.388
M205 X10
G0 F1200 X107.964 Y115.318
M205 X20
G1 F600 X101.679 Y109.033 E58.5948
G0 X101.609 Y108.963
M205 X10
G0 F1200 X101.679 Y109.599
M205 X20
G1 F600 X107.398 Y115.318 E58.86381
G0 X107.468 Y115.388
M205 X10
G0 F1200 X106.833 Y115.318
M205 X20
G1 F600 X101.679 Y110.165 E59.10621
G0 X101.609 Y110.095
M205 X10
G0 F1200 X101.679 Y110.73
M205 X20
G1 F600 X106.267 Y115.318 E59.32202
G0 X106.337 Y115.388
M205 X10
G0 F1200 X105.701 Y115.318
M205 X20
G1 F600 X101.679 Y111.296 E59.5112
G0 X101.609 Y111.226
M205 X10
G0 F1200 X101.679 Y111.862
M205 X20
G1 F600 X105.136 Y115.318 E59.67378
G0 X105.206 Y115.388
M205 X10
G0 F1200 X104.57 Y115.318
M205 X20
G1 F600 X101.679 Y112.427 E59.80977
G0 X101.609 Y112.357
M205 X10
G0 F1200 X101.679 Y112.993
M205 X20
G1 F600 X104.004 Y115.318 E59.91913
G0 X104.074 Y115.388
M205 X10
G0 F1200 X103.439 Y115.318
M205 X20
G1 F600 X101.679 Y113.559 E60.00189
G0 X101.609 Y113.489
M205 X10
G0 F1200 X101.679 Y114.124
M205 X20
G1 F600 X102.873 Y115.318 E60.05805
G0 X102.943 Y115.388
M205 X10
G0 F1200 X102.307 Y115.318
M205 X20
G1 F600 X101.679 Y114.69 E60.08759
G0 X101.609 Y114.62
M205 X10
G0 F1200 X101.679 Y115.256
M205 X20
G1 F600 X101.742 Y115.318 E60.09053
M205 X10
G1 F2400 E59.09053
G0 F1200 X101.14 Y115.499
G0 X99.835 Y115.499
G0 X99.153 Y95.847
G0 X39.847 Y95.847
G0 X39.165 Y115.499
G0 X37.86 Y115.499
G0 X37.5 Y115.499
M205 X20
;TYPE:WALL-INNER
G1 F2400 E60.09053
G1 F600 X21.5 Y115.499 E60.62269
G1 X21.5 Y97.5 E61.22134
G1 X37.5 Y97.5 E61.7535
G1 X37.5 Y115.499 E62.35215
M205 X10
G0 F1200 X37.9 Y115.899
M205 X20
G1 F600 X21.1 Y115.899 E62.91092
G1 X21.1 Y97.1 E63.53618
G1 X37.9 Y97.1 E64.09495
G1 X37.9 Y115.899 E64.72021
M205 X10
G0 F1200 X38.3 Y116.299
M205 X20
;TYPE:WALL-OUTER
G1 F600 X20.7 Y116.299 E65.30559
G1 X20.7 Y96.7 E65.95745
G1 X38.3 Y96.7 E66.54283
G1 X38.3 Y116.299 E67.1947
M205 X10
G0 F1200 X37.253 Y115.317
M205 X20
;TYPE:SKIN
G1 F600 X21.679 Y99.744 E67.92723
G0 X21.609 Y99.674
M205 X10
G0 F1200 X21.679 Y99.178
M205 X20
G1 F600 X37.32 Y114.819 E68.66293
G0 X37.39 Y114.889
M205 X10
G0 F1200 X37.32 Y114.253
M205 X20
G1 F600 X21.679 Y98.613 E69.39861
G0 X21.609 Y98.543
M205 X10
G0 F1200 X21.679 Y98.047
M205 X20
G1 F600 X37.32 Y113.687 E70.13429
G0 X37.39 Y113.757
M205 X10
G0 F1200 X37.32 Y113.122
M205 X20
G1 F600 X21.877 Y97.679 E70.86068
G0 X21.807 Y97.609
M205 X10
G0 F1200 X22.443 Y97.679
M205 X20
G1 F600 X37.32 Y112.556 E71.56045
G0 X37.39 Y112.626
M205 X10
G0 F1200 X37.32 Y111.99
M205 X20
G1 F600 X23.009 Y97.679 E72.2336
G0 X22.939 Y97.609
M205 X10
G0 F1200 X23.574 Y97.679
M205 X20
G1 F600 X37.32 Y111.425 E72.88017
G0 X37.39 Y111.495
M205 X10
G0 F1200 X37.32 Y110.859
M205 X20
G1 F600 X24.14 Y97.679 E73.50011
G0 X24.07 Y97.609
M205 X10
G0 F1200 X24.706 Y97.679
M205 X20
G1 F600 X37.32 Y110.293 E74.09344
G0 X37.39 Y110.363
M205 X10
G0 F1200 X37.32 Y109.728
M205 X20
G1 F600 X25.271 Y97.679 E74.66019
G0 X25.201 Y97.609
M205 X10
G0 F1200 X25.837 Y97.679
M205 X20
G1 F600 X37.32 Y109.162 E75.20031
G0 X37.39 Y109.232
M205 X10
G0 F1200 X37.32 Y108.596
M205 X20
G1 F600 X26.403 Y97.679 E75.71381
G0 X26.333 Y97.609
M205 X10
G0 F1200 X26.969 Y97.679
M205 X20
G1 F600 X37.32 Y108.031 E76.20072
G0 X37.39 Y108.101
M205 X10
G0 F1200 X37.32 Y107.465
M205 X20
G1 F600 X27.534 Y97.679 E76.66102
G0 X27.464 Y97.609
M205 X10
G0 F1200 X28.1 Y97.679
M205 X20
G1 F600 X37.32 Y106.899 E77.0947
G0 X37.39 Y106.969
M205 X10
G0 F1200 X37.32 Y106.334
M205 X20
G1 F600 X28.666 Y97.679 E77.50178
G0 X28.596 Y97.609
M205 X10
G0 F1200 X29.231 Y97.679
M205 X20
G1 F600 X37.32 Y105.768 E77.88226
G0 X37.39 Y105.838
M205 X10
G0 F1200 X37.32 Y105.202
M205 X20
G1 F600 X29.797 Y97.679 E78.23612
G0 X29.727 Y97.609
M205 X10
G0 F1200 X30.363 Y97.679
M205 X20
G1 F600 X37.32 Y104.636 E78.56336
G0 X37.39 Y104.706
M205 X10
G0 F1200 X37.32 Y104.071
M205 X20
G1 F600 X30.928 Y97.679 E78.86402
G0 X30.858 Y97.609
M205 X10
G0 F1200 X31.494 Y97.679
M205 X20
G1 F600 X37.32 Y103.505 E79.13806
G0 X37.39 Y103.575
M205 X10
G0 F1200 X37.32 Y102.939
M205 X20
G1 F600 X32.06 Y97.679 E79.38547
G0 X31.99 Y97.609
M205 X10
G0 F1200 X32.625 Y97.679
M205 X20
G1 F600 X37.32 Y102.374 E79.60631
G0 X37.39 Y102.444
M205 X10
G0 F1200 X37.32 Y101.808
M205 X20
G1 F600 X33.191 Y97.679 E79.80052
G0 X33.121 Y97.609
M205 X10
G0 F1200 X33.757 Y97.679
M205 X20
G1 F600 X37.32 Y101.242 E79.96812
G0 X37.39 Y101.312
M205 X10
G0 F1200 X37.32 Y100.677
M205 X20
G1 F600 X34.322 Y97.679 E80.10913
