;FLAVOR:RepRap
;TIME:9153
;Generated with Cura_SteamEngine 2.3.1
M104 S190
M109 S190

M117 Black

;LAYER_COUNT:23
;LAYER:15
M205 X25
G1 F2400 E3671.46232
G1 Z3.4
G0 F4800 X40.7 Y96.7 Z3.6
M205 X20
;TYPE:WALL-OUTER
G1 Z3.2
G1 F2400 E3672.46232
G1 F1800 X58.3 Y96.7 E3673.0477
G1 X58.3 Y116.3 E3673.69959
G1 X40.7 Y116.3 E3674.28497
G1 X40.7 Y96.7 E3674.93687
M205 X25
G0 F4800 X41.501 Y97.5
M205 X20
G1 F1800 X41.501 Y115.499 E3675.53552
G1 X57.501 Y115.499 E3676.06768
G1 X57.501 Y97.5 E3676.66633
G1 X41.501 Y97.5 E3677.19849
M205 X25
G0 F4800 X41.219 Y97.218
G1 F2400 E3676.19849
G0 F4800 X41.473 Y115.527
G0 X49.768 Y115.539
G0 X49.768 Y114.634
G0 X49.768 Y113.659
G0 X49.768 Y112.354
G0 X49.768 Y111.658
M205 X20
;TYPE:WALL-INNER
G1 F2400 E3677.19849
G1 F3600 X49.813 Y111.658 E3677.19999
G1 X49.935 Y111.658 E3677.20405
G0 X49.902 Y111.75
G1 X49.813 Y111.994 E3677.2079
G1 X49.768 Y111.994 E3677.20893
G0 X49.68 Y111.751
G0 X49.646 Y111.658
G0 X49.768 Y111.658
M205 X25
G0 F4800 X49.345 Y111.258
M205 X20
G1 F3600 X49.449 Y111.258 E3677.21239
G1 X50.134 Y111.258 E3677.23517
G1 X50.243 Y111.258 E3677.2388
G1 X52.289 Y105.081 E3677.45522
G1 X47.299 Y105.081 E3677.62119
G1 X49.345 Y111.258 E3677.83761
M205 X25
G0 F4800 X49.107 Y111.346
M205 X20
G1 F3600 X45.88 Y102.47 E3678.15173
G1 X45.783 Y102.203 E3678.16118
G1 X46.067 Y102.203 E3678.16676
G1 X46.068 Y102.203 E3678.1668
G1 X46.327 Y102.203 E3678.17541
G1 X47.201 Y104.75 E3678.26497
G1 X47.299 Y104.75 E3678.26798
G1 X52.289 Y104.75 E3678.40532
G1 X52.377 Y104.75 E3678.40825
G1 X53.261 Y102.203 E3678.49792
G1 X53.512 Y102.203 E3678.50626
G1 X53.513 Y102.203 E3678.5063
G1 X53.797 Y102.203 E3678.51574
G1 X53.7 Y102.47 E3678.52132
G1 X50.476 Y111.342 E3678.83529
G1 X50.439 Y111.444 E3678.83833
G1 X50.093 Y112.394 E3678.87196
G1 X49.488 Y112.394 E3678.89208
G1 X49.142 Y111.443 E3678.92574
G1 X49.107 Y111.346 E3678.92865
M205 X25
G0 F4800 X49.634 Y110.858
M205 X20
;TYPE:WALL-OUTER
G1 F1800 X49.954 Y110.858 E3678.93929
G1 X51.735 Y105.481 E3679.12769
G1 X47.853 Y105.481 E3679.2568
G1 X49.634 Y110.858 E3679.4452
M205 X25
G0 F4800 X49.208 Y112.794
M205 X20
G1 F1800 X45.309 Y102.07 E3679.82472
G1 X45.212 Y101.803 E3679.83417
G1 X45.496 Y101.803 E3679.83975
G1 X45.497 Y101.803 E3679.83978
G1 X46.612 Y101.803 E3679.87687
G1 X47.487 Y104.35 E3679.96644
G1 X52.092 Y104.35 E3680.1196
G1 X52.976 Y101.803 E3680.20928
G1 X54.083 Y101.803 E3680.24609
G1 X54.084 Y101.803 E3680.24613
G1 X54.368 Y101.803 E3680.25557
G1 X54.271 Y102.07 E3680.26115
G1 X50.373 Y112.794 E3680.64067
G1 X49.208 Y112.794 E3680.67942
M205 X25
G0 F4800 X49.785 Y112.043
G1 F2400 E3679.67942
G0 F4800 X50.266 Y111.29
G0 X53.765 Y102.225
G0 X55.241 Y101.986
G0 X55.542 Y102.189
G0 X55.491 Y102.169
M205 X20
G1 F2400 E3680.67942
G1 F1800 X55.516 Y102.157 E3680.68034
G1 X55.711 Y102.058 E3680.68761
G1 X55.711 Y99.115 E3680.7855
G1 X55.821 Y99.115 E3680.78916
G1 X55.821 Y102.058 E3680.81607
G0 X55.821 Y102.169
G1 X55.821 Y102.274 E3680.8192
G0 X55.711 Y102.274
G0 X55.576 Y102.274
G0 X55.563 Y102.264
G0 X55.471 Y102.198
G1 X55.206 Y102.004 E3680.82719
G1 X55.206 Y101.959 E3680.82869
G0 X55.226 Y101.974
G0 X55.491 Y102.169
M205 X25
G1 F2400 E3679.82869
G0 F4800 X55.542 Y102.189
G0 X55.793 Y99.143
G0 X56.686 Y99.143
G0 X59.835 Y99.143
G0 X60.74 Y99.143
G0 X60.77 Y96.77
G0 X60.7 Y96.7
M205 X20
;TYPE:WALL-OUTER
G1 F2400 E3680.82869
G1 F1800 X78.3 Y96.7 E3681.41407
G1 X78.3 Y116.3 E3682.06597
G1 X60.7 Y116.3 E3682.65135
G1 X60.7 Y96.7 E3683.30325
M205 X25
G0 F4800 X61.5 Y97.5
M205 X20
G1 F1800 X61.5 Y115.5 E3683.90193
G1 X77.5 Y115.5 E3684.43409
G1 X77.5 Y97.5 E3685.03277
G1 X61.5 Y97.5 E3685.56493
M205 X25
G0 F4800 X61.218 Y97.218
G1 F2400 E3684.56493
G0 F4800 X66.55 Y97.46
G0 X66.55 Y98.365
G0 X66.55 Y100.818
G0 X66.55 Y102.123
G0 X66.55 Y102.445
G0 X66.62 Y102.515
M205 X20
;TYPE:WALL-INNER
G1 F2400 E3685.56493
G1 F3600 X66.62 Y107.137 E3685.71866
G1 X69.73 Y107.137 E3685.8221
G1 X69.898 Y107.137 E3685.82769
G1 X70.131 Y107.12 E3685.83546
G1 X70.204 Y107.115 E3685.83789
G1 X70.335 Y107.105 E3685.84226
G1 X70.578 Y107.066 E3685.85045
G1 X70.689 Y107.036 E3685.85427
G1 X70.833 Y106.999 E3685.85922
G1 X71.003 Y106.926 E3685.86537
G0 X71.003 Y106.999
G1 X71.003 Y107.148 E3685.8692
G1 X71.003 Y107.569 E3685.88321
G1 X71.003 Y107.604 E3685.88437
G1 X71.003 Y107.709 E3685.88786
G1 X71.003 Y107.736 E3685.88876
G1 X71.141 Y107.808 E3685.89394
G1 X71.578 Y108.038 E3685.91036
G1 X71.624 Y108.062 E3685.91209
G1 X71.794 Y108.169 E3685.91877
G1 X71.939 Y108.278 E3685.9248
G1 X72.053 Y108.364 E3685.92955
G1 X72.12 Y108.424 E3685.93254
G1 X72.222 Y108.516 E3685.93711
G1 X72.306 Y108.61 E3685.94131
G1 X72.328 Y108.641 E3685.94257
G1 X72.425 Y108.777 E3685.94813
G1 X72.536 Y109.022 E3685.95707
G1 X72.607 Y109.216 E3685.96394
G1 X72.635 Y109.326 E3685.96772
G1 X72.655 Y109.454 E3685.97203
G1 X72.682 Y109.813 E3685.984
G1 X72.648 Y110.216 E3685.99745
G1 X72.613 Y110.468 E3686.00592
G1 X72.559 Y110.699 E3686.01381
G1 X72.506 Y110.851 E3686.01916
G1 X72.434 Y110.996 E3686.02454
G1 X72.301 Y111.212 E3686.03298
G1 X72.153 Y111.414 E3686.04131
G1 X72.016 Y111.586 E3686.04862
G1 X71.683 Y111.817 E3686.0621
G1 X71.413 Y111.979 E3686.07258
G1 X71.26 Y112.055 E3686.07826
G1 X71.133 Y112.105 E3686.0828
G1 X70.942 Y112.162 E3686.08943
G1 X70.839 Y112.185 E3686.09294
G1 X70.703 Y112.204 E3686.0975
G1 X70.696 Y112.205 E3686.09774
G1 X70.524 Y112.231 E3686.10353
G1 X70.425 Y112.239 E3686.10683
G1 X70.212 Y112.257 E3686.11394
G1 X70.173 Y112.258 E3686.11524
G1 X69.896 Y112.273 E3686.12446
G1 X69.732 Y112.273 E3686.12992
G1 X66.62 Y112.273 E3686.23342
G1 X66.094 Y112.273 E3686.25092
G1 X66.094 Y102.083 E3686.58984
G1 X70.266 Y102.083 E3686.7286
G1 X70.679 Y102.122 E3686.7424
G1 X70.951 Y102.164 E3686.75155
G1 X71.183 Y102.222 E3686.7595
G1 X71.335 Y102.28 E3686.76492
G1 X71.478 Y102.352 E3686.77024
G1 X71.698 Y102.491 E3686.7789
G1 X72.102 Y102.804 E3686.79589
G1 X72.37 Y103.14 E3686.81019
G1 X72.514 Y103.348 E3686.8186
G1 X72.575 Y103.449 E3686.82253
G1 X72.659 Y103.617 E3686.82878
G1 X72.698 Y103.719 E3686.83241
G1 X72.745 Y103.883 E3686.83808
G1 X72.798 Y104.165 E3686.84762
G1 X72.831 Y104.445 E3686.857
G1 X72.853 Y104.717 E3686.86608
G1 X72.823 Y105.087 E3686.87843
G1 X72.799 Y105.262 E3686.8843
G1 X72.767 Y105.404 E3686.88914
G1 X72.713 Y105.573 E3686.89504
G1 X72.65 Y105.73 E3686.90067
G1 X72.5 Y106.04 E3686.91212
G1 X72.352 Y106.219 E3686.91985
G1 X72.249 Y106.33 E3686.92488
G1 X72.227 Y106.354 E3686.92597
G1 X72.116 Y106.453 E3686.93091
G1 X72.004 Y106.53 E3686.93544
G1 X71.867 Y106.601 E3686.94057
G1 X71.792 Y106.632 E3686.94327
G1 X71.701 Y106.67 E3686.94655
G1 X71.321 Y106.805 E3686.95996
G1 X71.084 Y106.89 E3686.96833
G0 X71.304 Y106.761
G0 X71.602 Y106.539
G0 X71.718 Y106.453
G0 X71.776 Y106.371
G1 X71.849 Y106.266 E3686.96841
G1 X71.933 Y106.147 E3686.97133
G1 X71.98 Y106.08 E3686.97313
G1 X72.011 Y106.025 E3686.97492
G1 X72.089 Y105.89 E3686.9801
G1 X72.184 Y105.679 E3686.9878
G1 X72.25 Y105.455 E3686.99557
G1 X72.289 Y105.241 E3687.0028
G1 X72.331 Y104.825 E3687.01671
G1 X72.288 Y104.414 E3687.03045
G1 X72.248 Y104.199 E3687.03773
G1 X72.181 Y103.979 E3687.04538
G1 X72.087 Y103.769 E3687.05303
G1 X71.976 Y103.581 E3687.06029
G1 X71.72 Y103.218 E3687.07506
G1 X71.313 Y102.907 E3687.0921
G1 X71.09 Y102.77 E3687.1008
G1 X70.84 Y102.66 E3687.10989
G1 X70.586 Y102.59 E3687.11865
G1 X70.34 Y102.55 E3687.12694
G1 X69.9 Y102.515 E3687.14162
G1 X66.62 Y102.515 E3687.25071
M205 X25
G0 F4800 X66.62 Y107.476
M205 X20
G1 F3600 X66.62 Y111.934 E3687.39899
G1 X69.732 Y111.934 E3687.48642
G1 X69.873 Y111.925 E3687.49014
G1 X70.155 Y111.906 E3687.49837
G1 X70.393 Y111.871 E3687.50564
G1 X70.432 Y111.862 E3687.50674
G1 X70.637 Y111.811 E3687.51359
G1 X70.644 Y111.809 E3687.51383
G1 X70.878 Y111.717 E3687.52219
G1 X71.098 Y111.599 E3687.5305
G1 X71.523 Y111.314 E3687.54752
G1 X71.794 Y110.95 E3687.56261
G1 X71.907 Y110.764 E3687.56985
G1 X72.007 Y110.555 E3687.57756
G1 X72.075 Y110.331 E3687.58534
G1 X72.116 Y110.119 E3687.59252
G1 X72.159 Y109.709 E3687.60624
G1 X72.117 Y109.303 E3687.61981
G1 X72.075 Y109.091 E3687.627
G1 X72.007 Y108.871 E3687.63466
G1 X71.962 Y108.776 E3687.6376
G1 X71.907 Y108.662 E3687.6402
G1 X71.814 Y108.515 E3687.64223
G0 X71.79 Y108.477
G0 X71.643 Y108.286
G0 X71.527 Y108.136
G1 X71.126 Y107.839 E3687.64554
G0 X70.99 Y107.76
G0 X70.904 Y107.709
G1 X70.658 Y107.604 E3687.64987
G1 X70.625 Y107.596 E3687.65094
G1 X70.403 Y107.538 E3687.65857
G1 X70.232 Y107.513 E3687.66432
G1 X70.16 Y107.503 E3687.66669
G1 X69.876 Y107.486 E3687.67517
G1 X69.73 Y107.476 E3687.6788
G1 X66.62 Y107.476 E3687.76646
M205 X25
G0 F4800 X67.02 Y107.876
M205 X20
;TYPE:WALL-OUTER
G1 F1800 X67.02 Y111.534 E3687.88813
G1 X69.719 Y111.534 E3687.9779
G1 X70.113 Y111.508 E3687.99103
G1 X70.316 Y111.478 E3687.99785
G1 X70.516 Y111.429 E3688.0047
G1 X70.71 Y111.353 E3688.01163
G1 X70.892 Y111.256 E3688.01849
G1 X71.243 Y111.02 E3688.03256
G1 X71.462 Y110.726 E3688.04475
G1 X71.555 Y110.573 E3688.05071
G1 X71.633 Y110.41 E3688.05672
G1 X71.686 Y110.235 E3688.0628
G1 X71.72 Y110.06 E3688.06873
G1 X71.757 Y109.709 E3688.08047
G1 X71.721 Y109.362 E3688.09207
G1 X71.687 Y109.189 E3688.09794
G1 X71.634 Y109.018 E3688.10389
G1 X71.556 Y108.856 E3688.10987
G1 X71.462 Y108.706 E3688.11576
G1 X71.244 Y108.424 E3688.12761
G1 X70.905 Y108.173 E3688.14164
G1 X70.724 Y108.067 E3688.14862
G1 X70.529 Y107.984 E3688.15567
G1 X70.324 Y107.931 E3688.16271
G1 X70.119 Y107.901 E3688.1696
G1 X69.718 Y107.876 E3688.18296
G1 X67.02 Y107.876 E3688.2727
M205 X25
G0 F4800 X67.02 Y106.737
M205 X20
G1 F1800 X69.883 Y106.737 E3688.36792
G1 X70.289 Y106.707 E3688.38146
G1 X70.496 Y106.674 E3688.38844
G1 X70.702 Y106.62 E3688.39552
G1 X70.899 Y106.535 E3688.40266
G1 X71.082 Y106.427 E3688.40972
G1 X71.428 Y106.17 E3688.42406
G1 X71.642 Y105.865 E3688.43645
G1 X71.732 Y105.708 E3688.44247
G1 X71.808 Y105.54 E3688.4486
G1 X71.86 Y105.362 E3688.45477
G1 X71.893 Y105.184 E3688.46079
G1 X71.929 Y104.826 E3688.47276
G1 X71.892 Y104.471 E3688.48463
G1 X71.859 Y104.294 E3688.49062
G1 X71.806 Y104.12 E3688.49667
G1 X71.731 Y103.953 E3688.50276
G1 X71.64 Y103.798 E3688.50873
G1 X71.429 Y103.499 E3688.52091
G1 X71.086 Y103.237 E3688.53526
G1 X70.904 Y103.125 E3688.54237
G1 X70.706 Y103.038 E3688.54956
G1 X70.5 Y102.981 E3688.55667
G1 X70.292 Y102.947 E3688.56368
G1 X69.884 Y102.915 E3688.57729
G1 X67.02 Y102.915 E3688.67255
G1 X67.02 Y106.737 E3688.79967
M205 X25
G0 F4800 X71.403 Y107.201
M205 X20
G1 F1800 X71.403 Y107.494 E3688.80942
G1 X71.511 Y107.55 E3688.81346
G1 X71.823 Y107.715 E3688.8252
G1 X72.021 Y107.839 E3688.83297
G1 X72.31 Y108.057 E3688.84501
G1 X72.506 Y108.234 E3688.8538
G1 X72.619 Y108.36 E3688.85943
G1 X72.773 Y108.576 E3688.86825
G1 X72.904 Y108.864 E3688.87877
G1 X72.991 Y109.101 E3688.88717
G1 X73.027 Y109.245 E3688.89211
G1 X73.053 Y109.411 E3688.89769
G1 X73.083 Y109.817 E3688.91123
G1 X73.047 Y110.253 E3688.92579
G1 X73.007 Y110.537 E3688.93532
G1 X72.941 Y110.819 E3688.94496
G1 X72.876 Y111.005 E3688.95151
G1 X72.784 Y111.192 E3688.95844
G1 X72.638 Y111.429 E3688.9677
G1 X72.466 Y111.663 E3688.97736
G1 X72.292 Y111.882 E3688.98666
G1 X71.896 Y112.156 E3689.00268
G1 X71.619 Y112.323 E3689.01344
G1 X71.413 Y112.425 E3689.02108
G1 X71.267 Y112.482 E3689.0263
G1 X71.047 Y112.548 E3689.03393
G1 X70.903 Y112.58 E3689.03884
G1 X70.568 Y112.629 E3689.0501
G1 X70.244 Y112.655 E3689.06091
G1 X69.898 Y112.673 E3689.07244
G1 X65.694 Y112.673 E3689.21226
G1 X65.694 Y101.683 E3689.57779
G1 X70.282 Y101.683 E3689.73039
G1 X70.73 Y101.725 E3689.74535
G1 X71.031 Y101.772 E3689.75549
G1 X71.304 Y101.84 E3689.76484
G1 X71.499 Y101.914 E3689.77178
G1 X71.674 Y102.003 E3689.77831
G1 X71.924 Y102.161 E3689.78815
G1 X72.162 Y102.339 E3689.79803
G1 X72.39 Y102.523 E3689.80778
G1 X72.683 Y102.89 E3689.8234
G1 X72.851 Y103.131 E3689.83317
G1 X72.929 Y103.261 E3689.83821
G1 X73.022 Y103.449 E3689.84519
G1 X73.078 Y103.595 E3689.85039
G1 X73.135 Y103.793 E3689.85724
G1 X73.193 Y104.102 E3689.8677
G1 X73.23 Y104.412 E3689.87808
G1 X73.255 Y104.717 E3689.88826
G1 X73.222 Y105.122 E3689.90177
G1 X73.193 Y105.331 E3689.90879
G1 X73.153 Y105.51 E3689.91489
G1 X73.088 Y105.714 E3689.92201
G1 X73.018 Y105.887 E3689.92822
G1 X72.839 Y106.258 E3689.94192
G1 X72.646 Y106.491 E3689.95198
G1 X72.51 Y106.638 E3689.95865
G1 X72.365 Y106.767 E3689.9651
G1 X72.207 Y106.876 E3689.97148
G1 X72.036 Y106.965 E3689.9779
G1 X71.85 Y107.042 E3689.98459
G1 X71.518 Y107.161 E3689.99632
G1 X71.403 Y107.201 E3690.00037
M205 X25
G0 F4800 X70.66 Y107.457
G1 F2400 E3689.00037
G0 F4800 X72.338 Y103.163
G0 X73.739 Y101.99
G0 X73.815 Y102.116
G0 X73.878 Y102.039
M205 X20
G1 F2400 E3690.00037
G1 F1800 X73.946 Y102.08 E3690.00301
G1 X74.022 Y102.127 E3690.00598
G1 X74.073 Y102.144 E3690.00777
G1 X74.137 Y102.167 E3690.01003
G1 X74.148 Y102.168 E3690.0104
G1 X74.303 Y102.189 E3690.0156
G1 X74.455 Y102.168 E3690.02071
G1 X74.505 Y102.161 E3690.02239
G1 X74.549 Y102.145 E3690.02394
G1 X74.626 Y102.116 E3690.02668
G1 X74.642 Y102.109 E3690.02726
G1 X74.702 Y102.067 E3690.0297
G1 X74.817 Y101.987 E3690.03436
G1 X74.911 Y101.856 E3690.03972
G1 X74.94 Y101.816 E3690.04136
G1 X74.955 Y101.776 E3690.04278
G1 X74.979 Y101.717 E3690.0449
G1 X74.994 Y101.68 E3690.04623
G1 X75.002 Y101.622 E3690.04818
G1 X75.025 Y101.477 E3690.05306
G1 X75.006 Y101.334 E3690.05786
G1 X74.998 Y101.275 E3690.05984
G1 X74.974 Y101.212 E3690.06208
G1 X74.945 Y101.138 E3690.06473
G1 X74.93 Y101.117 E3690.06558
G1 X74.887 Y101.057 E3690.06804
G1 X74.82 Y100.966 E3690.0718
G1 X74.63 Y100.84 E3690.07938
G1 X74.603 Y100.831 E3690.08033
G1 X74.482 Y100.789 E3690.08459
G1 X74.297 Y100.77 E3690.09077
G1 X74.297 Y100.749 E3690.09147
G1 X74.297 Y100.718 E3690.0925
G0 X74.472 Y100.7
G0 X74.519 Y100.694
G0 X74.57 Y100.676
G0 X74.6 Y100.665
G0 X74.661 Y100.643
G1 X74.845 Y100.52 E3690.09762
G1 X74.9 Y100.442 E3690.1008
G1 X74.944 Y100.379 E3690.10335
G1 X74.981 Y100.327 E3690.10548
G1 X75.002 Y100.271 E3690.10747
G1 X75.039 Y100.175 E3690.11089
G1 X75.048 Y100.091 E3690.1137
G1 X75.065 Y99.954 E3690.11829
G1 X75.059 Y99.902 E3690.12003
G1 X75.038 Y99.735 E3690.12563
G1 X75.033 Y99.722 E3690.12609
G1 X75.008 Y99.656 E3690.12844
G1 X74.98 Y99.585 E3690.13098
G1 X74.947 Y99.539 E3690.13286
G1 X74.847 Y99.4 E3690.13856
G1 X74.717 Y99.306 E3690.14389
G1 X74.674 Y99.274 E3690.14567
G1 X74.632 Y99.257 E3690.14718
G1 X74.566 Y99.231 E3690.14954
G1 X74.533 Y99.217 E3690.15073
G1 X74.458 Y99.207 E3690.15325
G1 X74.329 Y99.189 E3690.15758
G1 X74.304 Y99.191 E3690.15842
G1 X74.163 Y99.205 E3690.16313
G1 X74.146 Y99.207 E3690.1637
G1 X74.054 Y99.238 E3690.16693
G1 X74.018 Y99.25 E3690.16819
G1 X73.962 Y99.284 E3690.17037
G1 X73.859 Y99.349 E3690.17442
G1 X73.741 Y99.479 E3690.18026
G1 X73.719 Y99.513 E3690.18161
G1 X73.681 Y99.572 E3690.18394
G1 X73.668 Y99.593 E3690.18476
G1 X73.621 Y99.593 E3690.18632
G1 X73.585 Y99.593 E3690.18752
G1 X73.553 Y99.593 E3690.18859
G0 X73.567 Y99.555
G0 X73.585 Y99.511
G0 X73.621 Y99.451
G0 X73.657 Y99.409
G0 X73.775 Y99.27
G0 X73.795 Y99.256
G0 X73.9 Y99.186
G0 X73.969 Y99.152
G0 X74.016 Y99.128
G0 X74.121 Y99.103
G0 X74.153 Y99.095
G0 X74.293 Y99.08
G0 X74.339 Y99.084
G0 X74.472 Y99.099
G0 X74.554 Y99.116
G0 X74.606 Y99.128
G0 X74.672 Y99.154
G0 X74.726 Y99.185
G0 X74.781 Y99.217
G0 X74.911 Y99.315
G0 X74.923 Y99.324
G0 X74.93 Y99.333
G0 X75.039 Y99.472
G0 X75.073 Y99.526
G0 X75.079 Y99.536
G0 X75.116 Y99.614
G0 X75.137 Y99.682
G0 X75.142 Y99.718
G0 X75.168 Y99.888
G0 X75.172 Y99.946
G0 X75.174 Y99.966
G0 X75.162 Y100.104
G0 X75.145 Y100.182
G0 X75.136 Y100.209
G0 X75.099 Y100.308
G0 X75.055 Y100.376
G0 X75.019 Y100.43
G0 X74.966 Y100.487
G0 X74.875 Y100.558
G0 X74.701 Y100.693
G0 X74.644 Y100.738
G0 X74.63 Y100.749
G0 X74.654 Y100.767
G0 X74.674 Y100.783
G0 X74.852 Y100.924
G0 X74.956 Y101.006
G0 X75.006 Y101.062
G0 X75.022 Y101.088
G0 X75.076 Y101.172
G0 X75.097 Y101.247
G0 X75.118 Y101.319
G0 X75.13 Y101.469
G0 X75.132 Y101.482
G0 X75.113 Y101.638
