;FLAVOR:RepRap
;TIME:9083
;Generated with Cura_SteamEngine 2.3.1
M104 S190
M109 S190

M117 Black

;LAYER_COUNT:23
;LAYER:15
G1 F2400 E3669.84378
G0 F4800 X101.218 Y28.219 Z3.2
G0 X100.728 Y47.272
G0 X100.728 Y48.165
G0 X99.847 Y49.848
G0 X99.153 Y94.153
G0 X98.272 Y95.835
G0 X98.272 Y96.728
G0 X98.23 Y96.77
G0 X98.3 Y96.7
M205 X20
;TYPE:WALL-OUTER
G1 F2400 E3670.84378
G1 F1800 X98.3 Y116.3 E3671.49568
G1 X80.7 Y116.3 E3672.08106
G1 X80.7 Y96.7 E3672.73295
G1 X98.3 Y96.7 E3673.31833
M205 X25
G0 F4800 X97.5 Y97.5
M205 X20
G1 F1800 X81.5 Y97.5 E3673.8505
G1 X81.5 Y115.499 E3674.44914
G1 X97.5 Y115.499 E3674.98131
G1 X97.5 Y97.5 E3675.57996
M205 X25
G0 F4800 X97.782 Y97.218
G1 F2400 E3674.57996
G0 F4800 X97.54 Y101.867
G0 X95.31 Y101.867
G0 X95.324 Y101.867
G0 X95.239 Y101.815
M205 X20
G1 F2400 E3675.57996
G1 F1800 X95.239 Y98.872 E3675.67784
G1 X95.35 Y98.872 E3675.68153
G1 X95.35 Y101.815 E3675.7087
G1 X95.35 Y101.926 E3675.71239
G1 X95.35 Y102.031 E3675.71588
G0 X95.239 Y102.031
G1 X95.105 Y102.031 E3675.71821
G0 X95.091 Y102.021
G1 X95 Y101.955 E3675.72099
G1 X94.734 Y101.761 E3675.73194
G1 X94.734 Y101.716 E3675.73343
G0 X94.755 Y101.731
G0 X95.02 Y101.926
G0 X95.045 Y101.914
G0 X95.239 Y101.815
M205 X25
G0 F4800 X92.75 Y103.02
M205 X20
;TYPE:WALL-INNER
G1 F3600 X92.75 Y103.773 E3675.75848
G1 X92.206 Y103.773 E3675.77657
G1 X92.205 Y103.773 E3675.7766
G1 X91.842 Y103.773 E3675.78868
G1 X92.037 Y103.466 E3675.79548
G1 X92.376 Y102.935 E3675.81643
G1 X92.667 Y102.476 E3675.8345
G1 X92.75 Y102.476 E3675.83727
G1 X92.75 Y103.02 E3675.84848
M205 X25
G0 F4800 X92.466 Y102.111
G0 X87.318 Y110.205
G0 X86.751 Y110.57
M205 X20
G1 F3600 X87.114 Y110.57 E3675.86055
G1 X86.919 Y110.877 E3675.86735
G1 X86.585 Y111.4 E3675.88799
G1 X86.288 Y111.867 E3675.9064
G1 X86.211 Y111.867 E3675.90896
G1 X86.211 Y111.313 E3675.92025
G1 X86.211 Y110.57 E3675.94496
G1 X86.75 Y110.57 E3675.96289
G1 X86.751 Y110.57 E3675.96292
M205 X25
G0 F4800 X86.337 Y110.17
M205 X20
G1 F3600 X87.299 Y110.17 E3675.99492
G1 X92.447 Y102.076 E3676.31396
G1 X93.15 Y102.076 E3676.33734
G1 X93.15 Y112.267 E3676.6763
G1 X92.623 Y112.267 E3676.69383
G1 X92.623 Y104.173 E3676.96303
G1 X91.663 Y104.173 E3676.99496
G1 X86.507 Y112.267 E3677.31415
G1 X85.811 Y112.267 E3677.3373
G1 X85.811 Y102.076 E3677.67625
G1 X86.337 Y102.076 E3677.69375
G1 X86.337 Y110.17 E3677.96296
M205 X25
G0 F4800 X86.737 Y109.77
M205 X20
;TYPE:WALL-OUTER
G1 F1800 X87.079 Y109.77 E3677.97433
G1 X87.132 Y109.687 E3677.97761
G1 X92.227 Y101.676 E3678.29338
G1 X93.55 Y101.676 E3678.33738
G1 X93.55 Y112.667 E3678.70294
G1 X92.223 Y112.667 E3678.74708
G1 X92.223 Y104.674 E3679.01293
G1 X92.223 Y104.573 E3679.01629
G1 X91.882 Y104.573 E3679.02763
G1 X91.828 Y104.658 E3679.03074
G1 X86.726 Y112.667 E3679.34658
G1 X85.411 Y112.667 E3679.39032
G1 X85.411 Y101.676 E3679.75588
G1 X86.737 Y101.676 E3679.79998
G1 X86.737 Y109.671 E3680.0659
G1 X86.737 Y109.77 E3680.06896
M205 X25
G0 F4800 X86.211 Y109.77
G1 F2400 E3679.06896
G1 Z3.6
G0 F4800 X100.7 Y116.3 Z3.6
M205 X20
;TYPE:WALL-OUTER
G1 Z3.2
G1 F2400 E3680.06896
G1 F1800 X100.7 Y96.7 E3680.72086
G1 X118.3 Y96.7 E3681.30624
G1 X118.3 Y116.3 E3681.95814
G1 X100.7 Y116.3 E3682.54351
M205 X25
G0 F4800 X101.5 Y115.499
M205 X20
G1 F1800 X117.499 Y115.499 E3683.07564
G1 X117.499 Y97.5 E3683.67429
G1 X101.5 Y97.5 E3684.20642
G1 X101.5 Y115.499 E3684.80507
M205 X25
G0 F4800 X101.218 Y115.781
G1 F2400 E3683.80507
G0 F4800 X106.211 Y115.539
G0 X106.211 Y114.634
G0 X106.211 Y113.532
G0 X106.211 Y112.227
G0 X106.211 Y111.313
M205 X20
;TYPE:WALL-INNER
G1 F2400 E3684.80507
G1 F3600 X106.211 Y110.57 E3684.82978
G1 X106.75 Y110.57 E3684.84771
G1 X106.751 Y110.57 E3684.84774
G1 X107.114 Y110.57 E3684.85982
G1 X106.919 Y110.877 E3684.86662
G1 X106.585 Y111.4 E3684.88725
G1 X106.288 Y111.867 E3684.90566
G1 X106.211 Y111.867 E3684.90822
G1 X106.211 Y111.313 E3684.91951
M205 X25
G0 F4800 X106.488 Y112.232
G0 X111.644 Y104.138
G0 X112.205 Y103.773
M205 X20
G1 F3600 X111.842 Y103.773 E3684.93159
G1 X112.037 Y103.466 E3684.93838
G1 X112.376 Y102.935 E3684.95934
G1 X112.667 Y102.476 E3684.97741
G1 X112.75 Y102.476 E3684.98017
G1 X112.75 Y103.02 E3684.99139
G1 X112.75 Y103.773 E3685.01643
G1 X112.206 Y103.773 E3685.03453
G1 X112.205 Y103.773 E3685.03456
M205 X25
G0 F4800 X112.623 Y104.173
M205 X20
G1 F3600 X111.663 Y104.173 E3685.06649
G1 X106.507 Y112.267 E3685.38568
G1 X105.811 Y112.267 E3685.40883
G1 X105.811 Y102.076 E3685.74778
G1 X106.337 Y102.076 E3685.76528
G1 X106.337 Y110.17 E3686.03448
G1 X107.299 Y110.17 E3686.06648
G1 X112.447 Y102.076 E3686.38552
G1 X113.15 Y102.076 E3686.40891
G1 X113.15 Y112.267 E3686.74786
G1 X112.623 Y112.267 E3686.76539
G1 X112.623 Y104.173 E3687.0346
M205 X25
G0 F4800 X112.223 Y104.573
M205 X20
;TYPE:WALL-OUTER
G1 F1800 X111.882 Y104.573 E3687.04594
G1 X111.828 Y104.658 E3687.04929
G1 X106.726 Y112.667 E3687.36513
G1 X105.411 Y112.667 E3687.40886
G1 X105.411 Y101.676 E3687.77443
G1 X106.737 Y101.676 E3687.81853
G1 X106.737 Y109.671 E3688.08444
G1 X106.737 Y109.77 E3688.08774
G1 X107.079 Y109.77 E3688.09911
G1 X107.132 Y109.687 E3688.10216
G1 X112.227 Y101.676 E3688.41793
G1 X113.55 Y101.676 E3688.46193
G1 X113.55 Y112.667 E3688.82749
G1 X112.223 Y112.667 E3688.87163
G1 X112.223 Y104.674 E3689.13748
G1 X112.223 Y104.573 E3689.1406
M205 X25
G0 F4800 X112.75 Y104.573
G0 X115.02 Y101.926
M205 X20
G1 F1800 X115.045 Y101.914 E3689.14152
G1 X115.239 Y101.815 E3689.14877
G1 X115.239 Y98.872 E3689.24665
G1 X115.35 Y98.872 E3689.25034
G1 X115.35 Y101.815 E3689.27751
G0 X115.35 Y101.926
G1 X115.35 Y102.031 E3689.28063
G0 X115.239 Y102.031
G0 X115.105 Y102.031
G0 X115.091 Y102.021
G0 X115 Y101.955
G1 X114.734 Y101.761 E3689.28865
G1 X114.734 Y101.716 E3689.29015
G0 X114.755 Y101.731
G0 X115.02 Y101.926
M205 X25
G1 F2400 E3688.29015
G1 Z3.6
G0 F4800 X58.3 Y96.7 Z3.6
M205 X20
;TYPE:WALL-OUTER
G1 Z3.2
G1 F2400 E3689.29015
G1 F1800 X58.3 Y116.3 E3689.94205
G1 X40.7 Y116.3 E3690.52743
G1 X40.7 Y96.7 E3691.17933
G1 X58.3 Y96.7 E3691.76471
M205 X25
G0 F4800 X57.5 Y97.5
M205 X20
G1 F1800 X41.5 Y97.5 E3692.29687
G1 X41.5 Y115.499 E3692.89552
G1 X57.5 Y115.499 E3693.42768
G1 X57.5 Y97.5 E3694.02633
M205 X25
G0 F4800 X57.782 Y97.218
G1 F2400 E3693.02633
G0 F4800 X57.54 Y101.867
G0 X55.311 Y101.867
G0 X55.325 Y101.867
G0 X55.24 Y101.815
M205 X20
G1 F2400 E3694.02633
G1 F1800 X55.24 Y98.872 E3694.12421
G1 X55.351 Y98.872 E3694.1279
G1 X55.351 Y101.815 E3694.15507
G1 X55.351 Y101.926 E3694.15876
G1 X55.351 Y102.031 E3694.16225
G0 X55.24 Y102.031
G1 X55.106 Y102.031 E3694.16458
G0 X55.092 Y102.021
G1 X55.001 Y101.955 E3694.16736
G1 X54.735 Y101.761 E3694.17831
G1 X54.735 Y101.716 E3694.1798
G0 X54.756 Y101.731
G0 X55.021 Y101.926
G0 X55.046 Y101.914
G0 X55.24 Y101.815
M205 X25
G0 F4800 X52.751 Y103.018
M205 X20
;TYPE:WALL-INNER
G1 F3600 X52.751 Y103.773 E3694.20492
G1 X52.206 Y103.773 E3694.22304
G1 X52.205 Y103.773 E3694.22308
G1 X51.842 Y103.773 E3694.23515
G1 X52.037 Y103.466 E3694.24195
G1 X52.377 Y102.933 E3694.26297
G1 X52.667 Y102.476 E3694.28098
G1 X52.751 Y102.476 E3694.28377
G1 X52.751 Y103.018 E3694.29497
M205 X25
G0 F4800 X52.466 Y102.111
G0 X47.318 Y110.205
G0 X46.752 Y110.57
M205 X20
G1 F3600 X47.115 Y110.57 E3694.30704
G1 X46.92 Y110.877 E3694.31384
G1 X46.586 Y111.4 E3694.33448
G1 X46.289 Y111.867 E3694.35288
G1 X46.212 Y111.867 E3694.35545
G1 X46.212 Y111.313 E3694.36673
G1 X46.212 Y110.57 E3694.39145
G1 X46.751 Y110.57 E3694.40937
G1 X46.752 Y110.57 E3694.40941
M205 X25
G0 F4800 X46.338 Y110.17
M205 X20
G1 F3600 X47.299 Y110.17 E3694.44137
G1 X52.447 Y102.076 E3694.76042
G1 X53.151 Y102.076 E3694.78383
G1 X53.151 Y112.267 E3695.12278
G1 X52.624 Y112.267 E3695.14031
G1 X52.624 Y104.173 E3695.40952
G1 X51.664 Y104.173 E3695.44145
G1 X46.508 Y112.267 E3695.76064
G1 X45.812 Y112.267 E3695.78379
G1 X45.812 Y102.076 E3696.12274
G1 X46.338 Y102.076 E3696.14024
G1 X46.338 Y110.17 E3696.40944
M205 X25
G0 F4800 X46.738 Y109.77
M205 X20
;TYPE:WALL-OUTER
G1 F1800 X47.079 Y109.77 E3696.42079
G1 X47.133 Y109.685 E3696.42413
G1 X52.228 Y101.676 E3696.73985
G1 X53.551 Y101.676 E3696.78385
G1 X53.551 Y112.667 E3697.14941
G1 X52.224 Y112.667 E3697.19355
G1 X52.224 Y104.674 E3697.4594
G1 X52.224 Y104.573 E3697.46276
G1 X51.883 Y104.573 E3697.4741
G1 X51.829 Y104.658 E3697.47721
G1 X46.727 Y112.667 E3697.79305
G1 X45.412 Y112.667 E3697.83679
G1 X45.412 Y101.676 E3698.20235
G1 X46.738 Y101.676 E3698.24645
G1 X46.738 Y109.669 E3698.5123
G1 X46.738 Y109.77 E3698.51542
M205 X25
G0 F4800 X46.212 Y109.77
G1 F2400 E3697.51542
G1 Z3.6
G0 F4800 X38.3 Y116.3 Z3.6
M205 X20
;TYPE:WALL-OUTER
G1 Z3.2
G1 F2400 E3698.51542
G1 F1800 X20.7 Y116.3 E3699.1008
G1 X20.7 Y96.7 E3699.7527
G1 X38.3 Y96.7 E3700.33808
G1 X38.3 Y116.3 E3700.98998
M205 X25
G0 F4800 X37.5 Y115.499
M205 X20
G1 F1800 X37.5 Y97.5 E3701.58863
G1 X21.501 Y97.5 E3702.12075
G1 X21.501 Y115.499 E3702.7194
G1 X37.5 Y115.499 E3703.25153
M205 X25
G0 F4800 X37.782 Y115.781
G1 F2400 E3702.25153
G0 F4800 X37.54 Y101.946
G0 X35.311 Y101.946
G0 X35.072 Y101.946
G0 X35.021 Y101.926
M205 X20
G1 F2400 E3703.25153
G1 F1800 X35.046 Y101.914 E3703.25246
G1 X35.24 Y101.815 E3703.2597
G1 X35.24 Y98.872 E3703.35758
G1 X35.351 Y98.872 E3703.36128
G1 X35.351 Y101.815 E3703.38844
G0 X35.351 Y101.926
G1 X35.351 Y102.031 E3703.39156
G0 X35.24 Y102.031
G0 X35.106 Y102.031
G0 X35.092 Y102.021
G0 X35.001 Y101.955
G1 X34.735 Y101.761 E3703.39959
G1 X34.735 Y101.716 E3703.40108
G0 X34.756 Y101.731
G0 X35.021 Y101.926
M205 X25
G0 F4800 X32.751 Y103.02
M205 X20
;TYPE:WALL-INNER
G1 F3600 X32.751 Y103.773 E3703.42613
G1 X32.207 Y103.773 E3703.44422
G1 X32.206 Y103.773 E3703.44426
G1 X31.843 Y103.773 E3703.45633
G1 X32.038 Y103.466 E3703.46313
G1 X32.377 Y102.935 E3703.48408
G1 X32.668 Y102.476 E3703.50216
G1 X32.751 Y102.476 E3703.50492
G1 X32.751 Y103.02 E3703.51613
M205 X25
G0 F4800 X32.467 Y102.111
G0 X27.319 Y110.205
G0 X26.752 Y110.57
M205 X20
G1 F3600 X27.115 Y110.57 E3703.5282
G1 X26.92 Y110.877 E3703.535
G1 X26.586 Y111.4 E3703.55564
G1 X26.289 Y111.867 E3703.57405
G1 X26.212 Y111.867 E3703.57661
G1 X26.212 Y111.313 E3703.5879
G1 X26.212 Y110.57 E3703.61261
G1 X26.751 Y110.57 E3703.63054
G1 X26.752 Y110.57 E3703.63057
M205 X25
G0 F4800 X26.338 Y110.17
M205 X20
G1 F3600 X27.3 Y110.17 E3703.66257
G1 X32.448 Y102.076 E3703.98161
G1 X33.151 Y102.076 E3704.005
G1 X33.151 Y112.267 E3704.34395
G1 X32.624 Y112.267 E3704.36148
G1 X32.624 Y104.173 E3704.63069
G1 X31.664 Y104.173 E3704.66262
G1 X26.508 Y112.267 E3704.9818
G1 X25.812 Y112.267 E3705.00495
G1 X25.812 Y102.076 E3705.34391
G1 X26.338 Y102.076 E3705.3614
G1 X26.338 Y110.17 E3705.63061
M205 X25
G0 F4800 X26.738 Y109.77
M205 X20
;TYPE:WALL-OUTER
G1 F1800 X27.08 Y109.77 E3705.64198
G1 X27.133 Y109.687 E3705.64526
G1 X32.228 Y101.676 E3705.96103
G1 X33.551 Y101.676 E3706.00503
G1 X33.551 Y112.667 E3706.3706
G1 X32.224 Y112.667 E3706.41473
G1 X32.224 Y104.674 E3706.68058
G1 X32.224 Y104.573 E3706.68394
G1 X31.883 Y104.573 E3706.69528
G1 X31.829 Y104.658 E3706.69839
G1 X26.727 Y112.667 E3707.01423
G1 X25.412 Y112.667 E3707.05797
G1 X25.412 Y101.676 E3707.42353
G1 X26.738 Y101.676 E3707.46763
G1 X26.738 Y109.671 E3707.73355
G1 X26.738 Y109.77 E3707.73661
M205 X25
G0 F4800 X26.212 Y109.77
G1 F2400 E3706.73661
G1 Z3.6
G0 F4800 X60.7 Y116.3 Z3.6
M205 X20
;TYPE:WALL-OUTER
G1 Z3.2
G1 F2400 E3707.73661
G1 F1800 X60.7 Y96.7 E3708.38851
G1 X78.3 Y96.7 E3708.97389
G1 X78.3 Y116.3 E3709.62579
G1 X60.7 Y116.3 E3710.21117
M205 X25
G0 F4800 X61.5 Y115.499
M205 X20
G1 F1800 X77.5 Y115.499 E3710.74333
G1 X77.5 Y97.5 E3711.34198
G1 X61.5 Y97.5 E3711.87414
G1 X61.5 Y115.499 E3712.47279
M205 X25
G0 F4800 X61.218 Y115.781
G1 F2400 E3711.47279
G0 F4800 X77.528 Y115.527
G0 X77.54 Y101.946
G0 X75.31 Y101.946
G0 X75.071 Y101.946
G0 X75.02 Y101.926
M205 X20
G1 F2400 E3712.47279
G1 F1800 X75.045 Y101.914 E3712.47371
G1 X75.239 Y101.815 E3712.48096
G1 X75.239 Y98.872 E3712.57884
G1 X75.35 Y98.872 E3712.58253
G1 X75.35 Y101.815 E3712.6097
G0 X75.35 Y101.926
G1 X75.35 Y102.031 E3712.61282
G0 X75.239 Y102.031
G0 X75.105 Y102.031
G0 X75.091 Y102.021
G0 X75 Y101.955
G1 X74.734 Y101.761 E3712.62084
G1 X74.734 Y101.716 E3712.62234
G0 X74.755 Y101.731
G0 X75.02 Y101.926
M205 X25
G0 F4800 X72.75 Y103.018
M205 X20
;TYPE:WALL-INNER
G1 F3600 X72.75 Y103.773 E3712.64745
G1 X72.205 Y103.773 E3712.66558
G1 X72.204 Y103.773 E3712.66561
G1 X71.841 Y103.773 E3712.67769
G1 X72.036 Y103.466 E3712.68448
G1 X72.376 Y102.933 E3712.70551
G1 X72.666 Y102.476 E3712.72351
G1 X72.75 Y102.476 E3712.72631
G1 X72.75 Y103.018 E3712.7375
M205 X25
G0 F4800 X72.465 Y102.111
G0 X67.317 Y110.205
G0 X66.751 Y110.57
M205 X20
G1 F3600 X67.114 Y110.57 E3712.74958
G1 X66.919 Y110.877 E3712.75637
G1 X66.585 Y111.4 E3712.77701
G1 X66.288 Y111.867 E3712.79542
G1 X66.211 Y111.867 E3712.79798
G1 X66.211 Y111.313 E3712.80927
G1 X66.211 Y110.57 E3712.83398
G1 X66.75 Y110.57 E3712.85191
G1 X66.751 Y110.57 E3712.85194
M205 X25
G0 F4800 X66.337 Y110.17
M205 X20
G1 F3600 X67.298 Y110.17 E3712.88391
G1 X72.446 Y102.076 E3713.20295
G1 X73.15 Y102.076 E3713.22637
G1 X73.15 Y112.267 E3713.56532
G1 X72.623 Y112.267 E3713.58285
G1 X72.623 Y104.173 E3713.85206
G1 X71.663 Y104.173 E3713.88399
G1 X66.507 Y112.267 E3714.20317
G1 X65.811 Y112.267 E3714.22632
G1 X65.811 Y102.076 E3714.56528
G1 X66.337 Y102.076 E3714.58277
G1 X66.337 Y110.17 E3714.85198
M205 X25
G0 F4800 X66.737 Y109.77
M205 X20
;TYPE:WALL-OUTER
G1 F1800 X67.078 Y109.77 E3714.86332
G1 X67.132 Y109.685 E3714.86667
G1 X72.227 Y101.676 E3715.18239
G1 X73.55 Y101.676 E3715.22639
G1 X73.55 Y112.667 E3715.59195
G1 X72.223 Y112.667 E3715.63609
G1 X72.223 Y104.674 E3715.90194
G1 X72.223 Y104.573 E3715.90529
G1 X71.882 Y104.573 E3715.91664
G1 X71.828 Y104.658 E3715.91975
G1 X66.726 Y112.667 E3716.23559
G1 X65.411 Y112.667 E3716.27932
G1 X65.411 Y101.676 E3716.64489
G1 X66.737 Y101.676 E3716.68899
G1 X66.737 Y109.669 E3716.95484
G1 X66.737 Y109.77 E3716.95796
M205 X25
G0 F4800 X66.211 Y109.77
G1 F2400 E3715.95796
G1 Z3.6
G0 F4800 X80.7 Y93.3 Z3.6
M205 X20
;TYPE:WALL-OUTER
G1 Z3.2
G1 F2400 E3716.95796
G1 F1800 X80.7 Y73.7 E3717.60986
G1 X98.3 Y73.7 E3718.19524
G1 X98.3 Y93.3 E3718.84713
G1 X80.7 Y93.3 E3719.43251
M205 X25
G0 F4800 X81.5 Y92.499
M205 X20
G1 F1800 X97.5 Y92.499 E3719.96468
G1 X97.5 Y74.5 E3720.56332
G1 X81.5 Y74.5 E3721.09549
G1 X81.5 Y92.499 E3721.69414
M205 X25
G0 F4800 X81.218 Y92.781
G1 F2400 E3720.69414
G0 F4800 X97.528 Y92.527
G0 X97.54 Y79.145
G0 X96.635 Y79.145
G0 X95.512 Y79.145
G0 X94.607 Y79.145
G0 X94.369 Y79.145
G0 X94.318 Y79.125
M205 X20
G1 F2400 E3721.69414
G1 F1800 X94.343 Y79.113 E3721.69506
G1 X94.537 Y79.014 E3721.7023
G1 X94.537 Y76.071 E3721.80019
G1 X94.647 Y76.071 E3721.80385
G1 X94.647 Y79.014 E3721.83076
G0 X94.647 Y79.125
G1 X94.647 Y79.23 E3721.83097
G0 X94.537 Y79.23
G0 X94.403 Y79.23
G0 X94.389 Y79.22
G0 X94.298 Y79.154
G1 X94.032 Y78.96 E3721.83899
G1 X94.032 Y78.915 E3721.84049
G0 X94.053 Y78.93
G0 X94.318 Y79.125
M205 X25
G0 F4800 X92.365 Y80.46
M205 X20
;TYPE:WALL-INNER
G1 F3600 X92.592 Y80.813 E3721.85445
G1 X92.718 Y81.042 E3721.86314
G1 X92.793 Y81.204 E3721.86908
G1 X92.841 Y81.345 E3721.87403
G1 X92.921 Y81.716 E3721.88666
G1 X92.972 Y82.326 E3721.90702
G1 X93.005 Y82.953 E3721.9279
G1 X93.017 Y83.603 E3721.94952
G1 X93.017 Y84.919 E3721.99329
G1 X93.006 Y85.576 E3722.01515
G1 X92.972 Y86.214 E3722.0364
G1 X92.92 Y86.837 E3722.05719
G1 X92.874 Y87.063 E3722.06486
G1 X92.809 Y87.292 E3722.07278
G1 X92.777 Y87.369 E3722.07555
G1 X92.669 Y87.581 E3722.08347
G1 X92.49 Y87.878 E3722.095
G1 X92.3 Y88.16 E3722.10631
G1 X92.177 Y88.318 E3722.11297
G1 X92.069 Y88.434 E3722.11824
G1 X91.9 Y88.589 E3722.12587
G1 X91.493 Y88.907 E3722.14305
G1 X91.156 Y89.088 E3722.15577
G1 X90.91 Y89.204 E3722.16482
G1 X90.689 Y89.29 E3722.1727
G1 X90.458 Y89.354 E3722.18068
G1 X90.216 Y89.396 E3722.18884
G1 X89.964 Y89.424 E3722.19728
G1 X89.555 Y89.451 E3722.21091
G1 X89.165 Y89.425 E3722.22391
G1 X88.903 Y89.396 E3722.23268
G1 X88.658 Y89.351 E3722.24096
G1 X88.426 Y89.287 E3722.24897
