;FLAVOR:RepRap
;TIME:8933
;Generated with Cura_SteamEngine 2.3.1
M104 S190
M109 S190

M117 White

;LAYER_COUNT:23
;LAYER:0
M107
M205 X10
G1 F2400 E-1
G1 Z20.4
G0 F1200 X81.5 Y97.5 Z.6
M205 X20
;TYPE:WALL-INNER
G1 Z.2
G1 F2400 E0
G1 F600 X97.5 Y97.5 E0.53216
G1 X97.5 Y115.5 E1.13084
G1 X81.5 Y115.5 E1.66301
G1 X81.5 Y97.5 E2.26169
M205 X10
G0 F1200 X81.1 Y97.1
M205 X20
G1 F600 X97.9 Y97.1 E2.82046
G1 X97.9 Y115.9 E3.44575
G1 X81.1 Y115.9 E4.00452
G1 X81.1 Y97.1 E4.62981
M205 X10
G0 F1200 X80.7 Y96.7
M205 X20
;TYPE:WALL-OUTER
G1 F600 X98.3 Y96.7 E5.21519
G1 X98.3 Y116.3 E5.86709
G1 X80.7 Y116.3 E6.45247
G1 X80.7 Y96.7 E7.10436
M205 X10
G0 F1200 X81.839 Y97.679
M205 X20
;TYPE:SKIN
G1 F600 X97.32 Y113.159 E7.83252
G0 X97.39 Y113.229
M205 X10
G0 F1200 X97.32 Y112.594
M205 X20
G1 F600 X82.405 Y97.679 E8.53408
G0 X82.335 Y97.609
M205 X10
G0 F1200 X82.971 Y97.679
M205 X20
G1 F600 X97.32 Y112.028 E9.20901
G0 X97.39 Y112.098
M205 X10
G0 F1200 X97.32 Y111.462
M205 X20
G1 F600 X83.536 Y97.679 E9.85734
G0 X83.466 Y97.609
M205 X10
G0 F1200 X84.102 Y97.679
M205 X20
G1 F600 X97.32 Y110.896 E10.47905
G0 X97.39 Y110.966
M205 X10
G0 F1200 X97.32 Y110.331
M205 X20
G1 F600 X84.668 Y97.679 E11.07416
G0 X84.598 Y97.609
M205 X10
G0 F1200 X85.233 Y97.679
M205 X20
G1 F600 X97.32 Y109.765 E11.64268
G0 X97.39 Y109.835
M205 X10
G0 F1200 X97.32 Y109.199
M205 X20
G1 F600 X85.799 Y97.679 E12.18457
G0 X85.729 Y97.609
M205 X10
G0 F1200 X86.365 Y97.679
M205 X20
G1 F600 X97.32 Y108.634 E12.69986
G0 X97.39 Y108.704
M205 X10
G0 F1200 X97.32 Y108.068
M205 X20
G1 F600 X86.931 Y97.679 E13.18852
G0 X86.861 Y97.609
M205 X10
G0 F1200 X87.496 Y97.679
M205 X20
G1 F600 X97.32 Y107.502 E13.65059
G0 X97.39 Y107.572
M205 X10
G0 F1200 X97.32 Y106.937
M205 X20
G1 F600 X88.062 Y97.679 E14.08606
G0 X87.992 Y97.609
M205 X10
G0 F1200 X88.628 Y97.679
M205 X20
G1 F600 X97.32 Y106.371 E14.4949
G0 X97.39 Y106.441
M205 X10
G0 F1200 X97.32 Y105.805
M205 X20
G1 F600 X89.193 Y97.679 E14.87715
G0 X89.123 Y97.609
M205 X10
G0 F1200 X89.759 Y97.679
M205 X20
G1 F600 X97.32 Y105.24 E15.23279
G0 X97.39 Y105.31
M205 X10
G0 F1200 X97.32 Y104.674
M205 X20
G1 F600 X90.325 Y97.679 E15.56182
G0 X90.255 Y97.609
M205 X10
G0 F1200 X90.89 Y97.679
M205 X20
G1 F600 X97.32 Y104.108 E15.86424
G0 X97.39 Y104.178
M205 X10
G0 F1200 X97.32 Y103.543
M205 X20
G1 F600 X91.456 Y97.679 E16.14007
G0 X91.386 Y97.609
M205 X10
G0 F1200 X92.022 Y97.679
M205 X20
G1 F600 X97.32 Y102.977 E16.38927
G0 X97.39 Y103.047
M205 X10
G0 F1200 X97.32 Y102.411
M205 X20
G1 F600 X92.587 Y97.679 E16.61187
G0 X92.517 Y97.609
M205 X10
G0 F1200 X93.153 Y97.679
M205 X20
G1 F600 X97.32 Y101.846 E16.80787
G0 X97.39 Y101.916
M205 X10
G0 F1200 X97.32 Y101.28
M205 X20
G1 F600 X93.719 Y97.679 E16.97725
G0 X93.649 Y97.609
M205 X10
G0 F1200 X94.284 Y97.679
M205 X20
G1 F600 X97.32 Y100.714 E17.12003
G0 X97.39 Y100.784
M205 X10
G0 F1200 X97.32 Y100.148
M205 X20
G1 F600 X94.85 Y97.679 E17.23619
G0 X94.78 Y97.609
M205 X10
G0 F1200 X95.416 Y97.679
M205 X20
G1 F600 X97.32 Y99.583 E17.32575
G0 X97.39 Y99.653
M205 X10
G0 F1200 X97.32 Y99.017
M205 X20
G1 F600 X95.981 Y97.679 E17.38871
G0 X95.911 Y97.609
M205 X10
G0 F1200 X96.547 Y97.679
M205 X20
G1 F600 X97.32 Y98.451 E17.42504
G0 X97.39 Y98.521
M205 X10
G0 F1200 X97.32 Y97.886
M205 X20
G1 F600 X97.113 Y97.679 E17.43478
M205 X10
G0 F1200 X81.68 Y98.084
M205 X20
G1 F600 X97.32 Y113.725 E18.17046
G0 X97.39 Y113.795
M205 X10
G0 F1200 X97.32 Y114.291
M205 X20
G1 F600 X81.68 Y98.65 E18.90614
G0 X81.61 Y98.58
M205 X10
G0 F1200 X81.68 Y99.216
M205 X20
G1 F600 X97.32 Y114.856 E19.6418
G0 X97.39 Y114.926
M205 X10
G0 F1200 X97.217 Y115.319
M205 X20
G1 F600 X81.68 Y99.781 E20.37264
G0 X81.61 Y99.711
M205 X10
G0 F1200 X81.68 Y100.347
M205 X20
G1 F600 X96.651 Y115.319 E21.07685
G0 X96.721 Y115.389
M205 X10
G0 F1200 X96.085 Y115.319
M205 X20
G1 F600 X81.68 Y100.913 E21.75444
G0 X81.61 Y100.843
M205 X10
G0 F1200 X81.68 Y101.479
M205 X20
G1 F600 X95.52 Y115.319 E22.40543
G0 X95.59 Y115.389
M205 X10
G0 F1200 X94.954 Y115.319
M205 X20
G1 F600 X81.68 Y102.044 E23.02982
G0 X81.61 Y101.974
M205 X10
G0 F1200 X81.68 Y102.61
M205 X20
G1 F600 X94.388 Y115.319 E23.62759
G0 X94.458 Y115.389
M205 X10
G0 F1200 X93.823 Y115.319
M205 X20
G1 F600 X81.68 Y103.176 E24.19876
G0 X81.61 Y103.106
M205 X10
G0 F1200 X81.68 Y103.741
M205 X20
G1 F600 X93.257 Y115.319 E24.74333
G0 X93.327 Y115.389
M205 X10
G0 F1200 X92.691 Y115.319
M205 X20
G1 F600 X81.68 Y104.307 E25.26128
G0 X81.61 Y104.237
M205 X10
G0 F1200 X81.68 Y104.873
M205 X20
G1 F600 X92.126 Y115.319 E25.75263
G0 X92.196 Y115.389
M205 X10
G0 F1200 X91.56 Y115.319
M205 X20
G1 F600 X81.68 Y105.438 E26.21738
G0 X81.61 Y105.368
M205 X10
G0 F1200 X81.68 Y106.004
M205 X20
G1 F600 X90.994 Y115.319 E26.6555
G0 X91.064 Y115.389
M205 X10
G0 F1200 X90.429 Y115.319
M205 X20
G1 F600 X81.68 Y106.57 E27.06703
G0 X81.61 Y106.5
M205 X10
G0 F1200 X81.68 Y107.135
M205 X20
G1 F600 X89.863 Y115.319 E27.45195
G0 X89.933 Y115.389
M205 X10
G0 F1200 X89.297 Y115.319
M205 X20
G1 F600 X81.68 Y107.701 E27.81026
G0 X81.61 Y107.631
M205 X10
G0 F1200 X81.68 Y108.267
M205 X20
G1 F600 X88.732 Y115.319 E28.14196
G0 X88.802 Y115.389
M205 X10
G0 F1200 X88.166 Y115.319
M205 X20
G1 F600 X81.68 Y108.832 E28.44707
G0 X81.61 Y108.762
M205 X10
G0 F1200 X81.68 Y109.398
M205 X20
G1 F600 X87.6 Y115.319 E28.72555
G0 X87.67 Y115.389
M205 X10
G0 F1200 X87.034 Y115.319
M205 X20
G1 F600 X81.68 Y109.964 E28.97741
G0 X81.61 Y109.894
M205 X10
G0 F1200 X81.68 Y110.529
M205 X20
G1 F600 X86.469 Y115.319 E29.20269
G0 X86.539 Y115.389
M205 X10
G0 F1200 X85.903 Y115.319
M205 X20
G1 F600 X81.68 Y111.095 E29.40135
G0 X81.61 Y111.025
M205 X10
G0 F1200 X81.68 Y111.661
M205 X20
G1 F600 X85.337 Y115.319 E29.57339
G0 X85.407 Y115.389
M205 X10
G0 F1200 X84.772 Y115.319
M205 X20
G1 F600 X81.68 Y112.227 E29.71883
G0 X81.61 Y112.157
M205 X10
G0 F1200 X81.68 Y112.792
M205 X20
G1 F600 X84.206 Y115.319 E29.83767
G0 X84.276 Y115.389
M205 X10
G0 F1200 X83.64 Y115.319
M205 X20
G1 F600 X81.68 Y113.358 E29.92988
G0 X81.61 Y113.288
M205 X10
G0 F1200 X81.68 Y113.924
M205 X20
G1 F600 X83.075 Y115.319 E29.9955
G0 X83.145 Y115.389
M205 X10
G0 F1200 X82.509 Y115.319
M205 X20
G1 F600 X81.68 Y114.489 E30.03452
G0 X81.61 Y114.419
M205 X10
G0 F1200 X81.68 Y115.055
M205 X20
G1 F600 X81.943 Y115.319 E30.04691
M205 X10
G1 F2400 E29.04691
G0 F1200 X97.86 Y115.5
G0 X99.165 Y115.5
G0 X99.835 Y115.5
G0 X101.14 Y115.5
G0 X101.5 Y115.5
M205 X20
;TYPE:WALL-INNER
G1 F2400 E30.04691
G1 F600 X101.5 Y97.5 E30.64559
G1 X117.5 Y97.5 E31.17776
G1 X117.5 Y115.5 E31.77644
G1 X101.5 Y115.5 E32.3086
M205 X10
G0 F1200 X101.1 Y115.9
M205 X20
G1 F600 X101.1 Y97.1 E32.93389
G1 X117.9 Y97.1 E33.49266
G1 X117.9 Y115.9 E34.11795
G1 X101.1 Y115.9 E34.67672
M205 X10
G0 F1200 X100.7 Y116.3
M205 X20
;TYPE:WALL-OUTER
G1 F600 X100.7 Y96.7 E35.32862
G1 X118.3 Y96.7 E35.914
G1 X118.3 Y116.3 E36.5659
G1 X100.7 Y116.3 E37.15128
M205 X10
G0 F1200 X101.71 Y115.287
G1 F600 X101.993 Y115.004 E37.16755
M205 X20
;TYPE:SKIN
G0 X102.378 Y115.389
M205 X10
G0 F1200 X102.874 Y115.319
M205 X20
G1 F600 X101.679 Y114.124 E37.22376
G0 X101.609 Y114.054
M205 X10
G0 F1200 X101.679 Y113.559
M205 X20
G1 F600 X103.439 Y115.319 E37.30654
G0 X103.509 Y115.389
M205 X10
G0 F1200 X104.005 Y115.319
M205 X20
G1 F600 X101.679 Y112.993 E37.41595
G0 X101.609 Y112.923
M205 X10
G0 F1200 X101.679 Y112.427
M205 X20
G1 F600 X104.571 Y115.319 E37.55198
G0 X104.641 Y115.389
M205 X10
G0 F1200 X105.136 Y115.319
M205 X20
G1 F600 X101.679 Y111.862 E37.71459
G0 X101.609 Y111.792
M205 X10
G0 F1200 X101.679 Y111.296
M205 X20
G1 F600 X105.702 Y115.319 E37.90382
G0 X105.772 Y115.389
M205 X10
G0 F1200 X106.268 Y115.319
M205 X20
G1 F600 X101.679 Y110.73 E38.11967
G0 X101.609 Y110.66
M205 X10
G0 F1200 X101.679 Y110.165
M205 X20
G1 F600 X106.833 Y115.319 E38.3621
G0 X106.903 Y115.389
M205 X10
G0 F1200 X107.399 Y115.319
M205 X20
G1 F600 X101.679 Y109.599 E38.63115
G0 X101.609 Y109.529
M205 X10
G0 F1200 X101.679 Y109.033
M205 X20
G1 F600 X107.965 Y115.319 E38.92683
G0 X108.035 Y115.389
M205 X10
G0 F1200 X108.53 Y115.319
M205 X20
G1 F600 X101.679 Y108.468 E39.24908
G0 X101.609 Y108.398
M205 X10
G0 F1200 X101.679 Y107.902
M205 X20
G1 F600 X109.096 Y115.319 E39.59795
G0 X109.166 Y115.389
M205 X10
G0 F1200 X109.662 Y115.319
M205 X20
G1 F600 X101.679 Y107.336 E39.97344
G0 X101.609 Y107.266
M205 X10
G0 F1200 X101.679 Y106.771
M205 X20
G1 F600 X110.228 Y115.319 E40.37554
G0 X110.298 Y115.389
M205 X10
G0 F1200 X110.793 Y115.319
M205 X20
G1 F600 X101.679 Y106.204 E40.80426
G0 X101.609 Y106.134
M205 X10
G0 F1200 X101.679 Y105.638
M205 X20
G1 F600 X111.359 Y115.319 E41.2596
G0 X111.429 Y115.389
M205 X10
G0 F1200 X111.925 Y115.319
M205 X20
G1 F600 X101.679 Y105.073 E41.74154
G0 X101.609 Y105.003
M205 X10
G0 F1200 X101.679 Y104.507
M205 X20
G1 F600 X112.49 Y115.319 E42.25008
G0 X112.56 Y115.389
M205 X10
G0 F1200 X113.056 Y115.319
M205 X20
G1 F600 X101.679 Y103.941 E42.78524
G0 X101.609 Y103.871
M205 X10
G0 F1200 X101.679 Y103.376
M205 X20
G1 F600 X113.622 Y115.319 E43.347
G0 X113.692 Y115.389
M205 X10
G0 F1200 X114.187 Y115.319
M205 X20
G1 F600 X101.679 Y102.81 E43.93537
G0 X101.609 Y102.74
M205 X10
G0 F1200 X101.679 Y102.244
M205 X20
G1 F600 X114.753 Y115.319 E44.55035
G0 X114.823 Y115.389
M205 X10
G0 F1200 X115.319 Y115.319
M205 X20
G1 F600 X101.679 Y101.679 E45.19193
G0 X101.609 Y101.609
M205 X10
G0 F1200 X101.679 Y101.113
M205 X20
G1 F600 X115.884 Y115.319 E45.86012
G0 X115.954 Y115.389
M205 X10
G0 F1200 X116.45 Y115.319
M205 X20
G1 F600 X101.679 Y100.547 E46.55492
G0 X101.609 Y100.477
M205 X10
G0 F1200 X101.679 Y99.982
M205 X20
G1 F600 X117.016 Y115.319 E47.27633
G0 X117.086 Y115.389
M205 X10
G0 F1200 X117.319 Y115.056
M205 X20
G1 F600 X101.679 Y99.416 E48.01199
G0 X101.609 Y99.346
M205 X10
G0 F1200 X101.679 Y98.85
M205 X20
G1 F600 X117.319 Y114.491 E48.74767
G0 X117.389 Y114.561
M205 X10
G0 F1200 X117.319 Y113.925
M205 X20
G1 F600 X101.679 Y98.285 E49.48332
G0 X101.609 Y98.215
M205 X10
G0 F1200 X101.679 Y97.719
M205 X20
G1 F600 X117.319 Y113.359 E50.21898
G0 X117.389 Y113.429
M205 X10
G0 F1200 X117.319 Y112.794
M205 X20
G1 F600 X102.205 Y97.679 E50.92992
G0 X102.135 Y97.609
M205 X10
G0 F1200 X102.77 Y97.679
M205 X20
G1 F600 X117.319 Y112.228 E51.61426
G0 X117.389 Y112.298
M205 X10
G0 F1200 X117.319 Y111.662
M205 X20
G1 F600 X103.336 Y97.679 E52.27198
G0 X103.266 Y97.609
M205 X10
G0 F1200 X103.902 Y97.679
M205 X20
G1 F600 X117.319 Y111.097 E52.9031
G0 X117.389 Y111.167
M205 X10
G0 F1200 X117.319 Y110.531
M205 X20
G1 F600 X104.467 Y97.679 E53.50762
G0 X104.397 Y97.609
M205 X10
G0 F1200 X105.033 Y97.679
M205 X20
G1 F600 X117.319 Y109.965 E54.08551
G0 X117.389 Y110.035
M205 X10
G0 F1200 X117.319 Y109.4
M205 X20
G1 F600 X105.599 Y97.679 E54.63681
G0 X105.529 Y97.609
M205 X10
G0 F1200 X106.165 Y97.679
M205 X20
G1 F600 X117.319 Y108.834 E55.16148
G0 X117.389 Y108.904
M205 X10
G0 F1200 X117.319 Y108.268
M205 X20
G1 F600 X106.73 Y97.679 E55.65956
G0 X106.66 Y97.609
M205 X10
G0 F1200 X107.296 Y97.679
M205 X20
G1 F600 X117.319 Y107.702 E56.13101
G0 X117.389 Y107.772
M205 X10
G0 F1200 X117.319 Y107.137
M205 X20
G1 F600 X107.862 Y97.679 E56.57586
G0 X107.792 Y97.609
M205 X10
G0 F1200 X108.427 Y97.679
M205 X20
G1 F600 X117.319 Y106.571 E56.99411
G0 X117.389 Y106.641
M205 X10
G0 F1200 X117.319 Y106.005
M205 X20
G1 F600 X108.993 Y97.679 E57.38574
G0 X108.923 Y97.609
M205 X10
G0 F1200 X109.559 Y97.679
M205 X20
G1 F600 X117.319 Y105.44 E57.75077
G0 X117.389 Y105.51
M205 X10
G0 F1200 X117.319 Y104.874
M205 X20
G1 F600 X110.124 Y97.679 E58.0892
G0 X110.054 Y97.609
M205 X10
G0 F1200 X110.69 Y97.679
M205 X20
G1 F600 X117.319 Y104.308 E58.40101
G0 X117.389 Y104.378
M205 X10
G0 F1200 X117.319 Y103.743
M205 X20
G1 F600 X111.256 Y97.679 E58.68622
G0 X111.186 Y97.609
M205 X10
G0 F1200 X111.821 Y97.679
M205 X20
G1 F600 X117.319 Y103.177 E58.94483
G0 X117.389 Y103.247
M205 X10
G0 F1200 X117.319 Y102.611
M205 X20
G1 F600 X112.387 Y97.679 E59.17681
G0 X112.317 Y97.609
M205 X10
G0 F1200 X112.953 Y97.679
M205 X20
G1 F600 X117.319 Y102.046 E59.3822
G0 X117.389 Y102.116
M205 X10
G0 F1200 X117.319 Y101.48
M205 X20
G1 F600 X113.518 Y97.679 E59.56099
G0 X113.448 Y97.609
M205 X10
G0 F1200 X114.084 Y97.679
M205 X20
G1 F600 X117.319 Y100.914 E59.71315
G0 X117.389 Y100.984
M205 X10
G0 F1200 X117.319 Y100.349
M205 X20
G1 F600 X114.65 Y97.679 E59.83872
G0 X114.58 Y97.609
M205 X10
G0 F1200 X115.215 Y97.679
M205 X20
G1 F600 X117.319 Y99.783 E59.93768
G0 X117.389 Y99.853
M205 X10
G0 F1200 X117.319 Y99.217
M205 X20
G1 F600 X115.781 Y97.679 E60.01003
G0 X115.711 Y97.609
M205 X10
G0 F1200 X116.347 Y97.679
M205 X20
G1 F600 X117.319 Y98.652 E60.05577
G0 X117.389 Y98.722
M205 X10
G0 F1200 X117.319 Y98.086
M205 X20
G1 F600 X116.913 Y97.679 E60.07489
M205 X10
G1 F2400 E59.07489
G0 F1200 X101.14 Y97.5
G0 X99.835 Y97.5
G0 X99.153 Y95.847
G0 X79.847 Y95.847
G0 X79.165 Y97.5
G0 X77.86 Y97.5
G0 X77.5 Y97.5
M205 X20
;TYPE:WALL-INNER
G1 F2400 E60.07489
G1 F600 X77.5 Y115.5 E60.67357
G1 X61.5 Y115.5 E61.20573
G1 X61.5 Y97.5 E61.80442
G1 X77.5 Y97.5 E62.33658
M205 X10
G0 F1200 X77.9 Y97.1
M205 X20
G1 F600 X77.9 Y115.9 E62.96187
G1 X61.1 Y115.9 E63.52064
G1 X61.1 Y97.1 E64.14593
G1 X77.9 Y97.1 E64.7047
M205 X10
G0 F1200 X78.3 Y96.7
M205 X20
;TYPE:WALL-OUTER
G1 F600 X78.3 Y116.3 E65.3566
G1 X60.7 Y116.3 E65.94198
G1 X60.7 Y96.7 E66.59388
G1 X78.3 Y96.7 E67.17925
M205 X10
G0 F1200 X77.32 Y98.25
M205 X20
;TYPE:SKIN
G1 F600 X76.748 Y97.679 E67.20614
G0 X76.678 Y97.609
M205 X10
G0 F1200 X76.182 Y97.679
M205 X20
G1 F600 X77.32 Y98.816 E67.25964
G0 X77.39 Y98.886
M205 X10
G0 F1200 X77.32 Y99.381
M205 X20
G1 F600 X75.617 Y97.679 E67.33972
G0 X75.547 Y97.609
M205 X10
G0 F1200 X75.051 Y97.679
M205 X20
G1 F600 X77.32 Y99.947 E67.44642
G0 X77.39 Y100.017
M205 X10
G0 F1200 X77.32 Y100.513
M205 X20
G1 F600 X74.485 Y97.679 E67.57975
G0 X74.415 Y97.609
M205 X10
G0 F1200 X73.92 Y97.679
M205 X20
G1 F600 X77.32 Y101.078 E67.73965
G0 X77.39 Y101.148
M205 X10
G0 F1200 X77.32 Y101.644
M205 X20
G1 F600 X73.354 Y97.679 E67.92618
G0 X73.284 Y97.609
M205 X10
G0 F1200 X72.788 Y97.679
M205 X20
G1 F600 X77.32 Y102.21 E68.13933
G0 X77.39 Y102.28
M205 X10
G0 F1200 X77.32 Y102.775
M205 X20
G1 F600 X72.223 Y97.679 E68.37905
G0 X72.153 Y97.609
M205 X10
G0 F1200 X71.657 Y97.679
M205 X20
G1 F600 X77.32 Y103.341 E68.6454
G0 X77.39 Y103.411
M205 X10
G0 F1200 X77.32 Y103.907
M205 X20
G1 F600 X71.091 Y97.679 E68.93837
G0 X71.021 Y97.609
M205 X10
G0 F1200 X70.526 Y97.679
M205 X20
G1 F600 X77.32 Y104.472 E69.25791
G0 X77.39 Y104.542
M205 X10
G0 F1200 X77.32 Y105.038
M205 X20
G1 F600 X69.96 Y97.679 E69.60408
G0 X69.89 Y97.609
M205 X10
G0 F1200 X69.394 Y97.679
M205 X20
G1 F600 X77.32 Y105.604 E69.97687
G0 X77.39 Y105.674
M205 X10
G0 F1200 X77.32 Y106.169
M205 X20
G1 F600 X68.829 Y97.679 E70.37624
G0 X68.759 Y97.609
M205 X10
G0 F1200 X68.263 Y97.679
M205 X20
G1 F600 X77.32 Y106.735 E70.80223
G0 X77.39 Y106.805
M205 X10
G0 F1200 X77.32 Y107.301
M205 X20
G1 F600 X67.697 Y97.679 E71.25484
G0 X67.627 Y97.609
M205 X10
G0 F1200 X67.132 Y97.679
M205 X20
G1 F600 X77.32 Y107.867 E71.73405
G0 X77.39 Y107.937
M205 X10
G0 F1200 X77.32 Y108.432
M205 X20
G1 F600 X66.566 Y97.679 E72.23986
G0 X66.496 Y97.609
M205 X10
G0 F1200 X66 Y97.679
M205 X20
G1 F600 X77.32 Y108.998 E72.7723
G0 X77.39 Y109.068
M205 X10
G0 F1200 X77.32 Y109.564
M205 X20
G1 F600 X65.434 Y97.679 E73.33136
G0 X65.364 Y97.609
M205 X10
G0 F1200 X64.869 Y97.679
M205 X20
G1 F600 X77.32 Y110.129 E73.91699
G0 X77.39 Y110.199
M205 X10
G0 F1200 X77.32 Y110.695
M205 X20
G1 F600 X64.303 Y97.679 E74.52925
G0 X64.233 Y97.609
M205 X10
G0 F1200 X63.737 Y97.679
M205 X20
G1 F600 X77.32 Y111.261 E75.16812
G0 X77.39 Y111.331
M205 X10
G0 F1200 X77.32 Y111.826
M205 X20
G1 F600 X63.172 Y97.679 E75.83358
G0 X63.102 Y97.609
M205 X10
G0 F1200 X62.606 Y97.679
M205 X20
G1 F600 X77.32 Y112.392 E76.52566
G0 X77.39 Y112.462
M205 X10
G0 F1200 X77.32 Y112.958
M205 X20
G1 F600 X62.04 Y97.679 E77.24436
G0 X61.97 Y97.609
M205 X10
G0 F1200 X61.679 Y97.883
M205 X20
G1 F600 X77.32 Y113.523 E77.98004
G0 X77.39 Y113.593
M205 X10
