;FLAVOR:RepRap
;TIME:9174
;Generated with Cura_SteamEngine 2.3.1
M104 S190
M109 S190

M117 Black

;LAYER_COUNT:23
;LAYER:15
G0 F4800 X107.486 Y33.439 Z3.2
G1 F2400 E3685.39565
G1 Z3.6
G0 F4800 X58.301 Y96.7 Z3.6
M205 X20
;TYPE:WALL-OUTER
G1 Z3.2
G1 F2400 E3686.39565
G1 F1800 X58.301 Y116.3 E3687.04755
G1 X40.701 Y116.3 E3687.63293
G1 X40.701 Y96.7 E3688.28483
G1 X58.301 Y96.7 E3688.87021
M205 X25
G0 F4800 X57.501 Y97.5
M205 X20
G1 F1800 X41.501 Y97.5 E3689.40237
G1 X41.501 Y115.499 E3690.00102
G1 X57.501 Y115.499 E3690.53318
G1 X57.501 Y97.5 E3691.13183
M205 X25
G0 F4800 X57.783 Y97.218
G1 F2400 E3690.13183
G0 F4800 X57.541 Y102.11
G0 X55.781 Y102.11
G0 X55.796 Y102.11
G0 X55.711 Y102.058
M205 X20
G1 F2400 E3691.13183
G1 F1800 X55.711 Y99.115 E3691.22971
G1 X55.821 Y99.115 E3691.23337
G1 X55.821 Y102.058 E3691.26029
G1 X55.821 Y102.169 E3691.26398
G1 X55.821 Y102.274 E3691.26748
G0 X55.711 Y102.274
G1 X55.576 Y102.274 E3691.26983
G0 X55.563 Y102.264
G1 X55.471 Y102.198 E3691.27262
G1 X55.206 Y102.004 E3691.28355
G1 X55.206 Y101.959 E3691.28504
G0 X55.226 Y101.974
G0 X55.491 Y102.169
G0 X55.516 Y102.157
G0 X55.711 Y102.058
M205 X25
G1 F2400 E3690.28504
G0 F4800 X55.796 Y102.11
G0 X55.588 Y102.236
G0 X53.765 Y102.225
G0 X50.266 Y111.29
G0 X49.813 Y111.658
M205 X20
;TYPE:WALL-INNER
G1 F2400 E3691.28504
G1 F3600 X49.935 Y111.658 E3691.2891
G0 X49.902 Y111.75
G1 X49.813 Y111.994 E3691.295
G1 X49.768 Y111.994 E3691.2965
G0 X49.68 Y111.751
G1 X49.646 Y111.658 E3691.29665
G0 X49.768 Y111.658
G0 X49.813 Y111.658
M205 X25
G0 F4800 X50.243 Y111.258
M205 X20
G1 F3600 X52.289 Y105.081 E3691.51308
G1 X47.299 Y105.081 E3691.67904
G1 X49.345 Y111.258 E3691.89547
G1 X49.449 Y111.258 E3691.89893
G1 X50.134 Y111.258 E3691.92171
G1 X50.243 Y111.258 E3691.92534
M205 X25
G0 F4800 X50.476 Y111.342
M205 X20
G1 F3600 X50.439 Y111.444 E3691.92838
G1 X50.093 Y112.394 E3691.962
G1 X49.488 Y112.394 E3691.98213
G1 X49.142 Y111.443 E3692.01579
G1 X49.107 Y111.346 E3692.0187
G1 X45.88 Y102.47 E3692.33282
G1 X45.783 Y102.203 E3692.34227
G1 X46.067 Y102.203 E3692.34785
G1 X46.068 Y102.203 E3692.34788
G1 X46.327 Y102.203 E3692.3565
G1 X47.201 Y104.75 E3692.44606
G1 X47.299 Y104.75 E3692.44907
G1 X52.289 Y104.75 E3692.5864
G1 X52.377 Y104.75 E3692.58933
G1 X53.261 Y102.203 E3692.679
G1 X53.512 Y102.203 E3692.68735
G1 X53.513 Y102.203 E3692.68738
G1 X53.797 Y102.203 E3692.69683
G1 X53.7 Y102.47 E3692.70241
G1 X50.476 Y111.342 E3693.01637
M205 X25
G0 F4800 X49.954 Y110.858
M205 X20
;TYPE:WALL-OUTER
G1 F1800 X51.735 Y105.481 E3693.20477
G1 X47.853 Y105.481 E3693.33388
G1 X49.634 Y110.858 E3693.52228
G1 X49.954 Y110.858 E3693.53292
M205 X25
G0 F4800 X50.373 Y112.794
M205 X20
G1 F1800 X49.208 Y112.794 E3693.57167
G1 X45.309 Y102.07 E3693.9512
G1 X45.212 Y101.803 E3693.96064
G1 X45.496 Y101.803 E3693.96622
G1 X45.497 Y101.803 E3693.96626
G1 X46.612 Y101.803 E3694.00334
G1 X47.487 Y104.35 E3694.09291
G1 X52.092 Y104.35 E3694.24608
G1 X52.976 Y101.803 E3694.33575
G1 X54.083 Y101.803 E3694.37257
G1 X54.084 Y101.803 E3694.3726
G1 X54.368 Y101.803 E3694.38205
G1 X54.271 Y102.07 E3694.38763
G1 X50.373 Y112.794 E3694.76714
M205 X25
G0 F4800 X49.864 Y111.994
G0 X49.821 Y111.976
G1 F2400 E3693.76714
G1 Z3.6
G0 F4800 X38.3 Y116.3 Z3.6
M205 X20
;TYPE:WALL-OUTER
G1 Z3.2
G1 F2400 E3694.76714
G1 F1800 X20.7 Y116.3 E3695.35252
G1 X20.7 Y96.7 E3696.00442
G1 X38.3 Y96.7 E3696.5898
G1 X38.3 Y116.3 E3697.24169
M205 X25
G0 F4800 X37.5 Y115.5
M205 X20
G1 F1800 X37.5 Y97.5 E3697.84038
G1 X21.501 Y97.5 E3698.37251
G1 X21.501 Y115.5 E3698.97119
G1 X37.5 Y115.5 E3699.50332
M205 X25
G0 F4800 X37.782 Y115.782
G1 F2400 E3698.50332
G0 F4800 X37.54 Y102.189
G0 X35.781 Y102.189
G0 X35.542 Y102.189
G0 X35.491 Y102.169
M205 X20
G1 F2400 E3699.50332
G1 F1800 X35.516 Y102.157 E3699.50424
G1 X35.711 Y102.058 E3699.51151
G1 X35.711 Y99.115 E3699.6094
G1 X35.821 Y99.115 E3699.61306
G1 X35.821 Y102.058 E3699.63997
G0 X35.821 Y102.169
G1 X35.821 Y102.274 E3699.6431
G0 X35.711 Y102.274
G0 X35.576 Y102.274
G0 X35.563 Y102.264
G0 X35.471 Y102.198
G1 X35.206 Y102.004 E3699.6511
G1 X35.206 Y101.959 E3699.65259
G0 X35.226 Y101.974
G0 X35.491 Y102.169
M205 X25
G1 F2400 E3698.65259
G0 F4800 X35.542 Y102.189
G0 X35.588 Y102.236
G0 X33.765 Y102.225
G0 X30.266 Y111.29
G0 X29.813 Y111.658
M205 X20
;TYPE:WALL-INNER
G1 F2400 E3699.65259
G1 F3600 X29.935 Y111.658 E3699.65665
G0 X29.902 Y111.75
G1 X29.813 Y111.994 E3699.66255
G1 X29.768 Y111.994 E3699.66405
G0 X29.68 Y111.751
G1 X29.646 Y111.658 E3699.6642
G0 X29.768 Y111.658
G0 X29.813 Y111.658
M205 X25
G0 F4800 X30.243 Y111.258
M205 X20
G1 F3600 X32.289 Y105.081 E3699.88063
G1 X27.299 Y105.081 E3700.04659
G1 X29.345 Y111.258 E3700.26302
G1 X29.449 Y111.258 E3700.26648
G1 X30.134 Y111.258 E3700.28926
G1 X30.243 Y111.258 E3700.29289
M205 X25
G0 F4800 X30.476 Y111.342
M205 X20
G1 F3600 X30.439 Y111.444 E3700.29593
G1 X30.093 Y112.394 E3700.32955
G1 X29.488 Y112.394 E3700.34968
G1 X29.142 Y111.443 E3700.38334
G1 X29.107 Y111.346 E3700.38625
G1 X25.88 Y102.47 E3700.70037
G1 X25.783 Y102.203 E3700.70982
G1 X26.067 Y102.203 E3700.7154
G1 X26.068 Y102.203 E3700.71543
G1 X26.327 Y102.203 E3700.72405
G1 X27.201 Y104.75 E3700.81361
G1 X27.299 Y104.75 E3700.81662
G1 X32.289 Y104.75 E3700.95395
G1 X32.377 Y104.75 E3700.95688
G1 X33.261 Y102.203 E3701.04655
G1 X33.512 Y102.203 E3701.0549
G1 X33.513 Y102.203 E3701.05493
G1 X33.797 Y102.203 E3701.06438
G1 X33.7 Y102.47 E3701.06996
G1 X30.476 Y111.342 E3701.38392
M205 X25
G0 F4800 X29.954 Y110.858
M205 X20
;TYPE:WALL-OUTER
G1 F1800 X31.735 Y105.481 E3701.57232
G1 X27.853 Y105.481 E3701.70143
G1 X29.634 Y110.858 E3701.88983
G1 X29.954 Y110.858 E3701.90047
M205 X25
G0 F4800 X30.373 Y112.794
M205 X20
G1 F1800 X29.208 Y112.794 E3701.93922
G1 X25.309 Y102.07 E3702.31875
G1 X25.212 Y101.803 E3702.32819
G1 X25.496 Y101.803 E3702.33377
G1 X25.497 Y101.803 E3702.33381
G1 X26.612 Y101.803 E3702.37089
G1 X27.487 Y104.35 E3702.46046
G1 X32.092 Y104.35 E3702.61363
G1 X32.976 Y101.803 E3702.7033
G1 X34.083 Y101.803 E3702.74012
G1 X34.084 Y101.803 E3702.74015
G1 X34.368 Y101.803 E3702.7496
G1 X34.271 Y102.07 E3702.75518
G1 X30.373 Y112.794 E3703.13469
M205 X25
G0 F4800 X29.864 Y111.994
G0 X29.821 Y111.976
G1 F2400 E3702.13469
G1 Z3.6
G0 F4800 X80.7 Y116.3 Z3.6
M205 X20
;TYPE:WALL-OUTER
G1 Z3.2
G1 F2400 E3703.13469
G1 F1800 X80.7 Y96.7 E3703.78659
G1 X98.3 Y96.7 E3704.37197
G1 X98.3 Y116.3 E3705.02387
G1 X80.7 Y116.3 E3705.60924
M205 X25
G0 F4800 X81.5 Y115.499
M205 X20
G1 F1800 X97.499 Y115.499 E3706.14137
G1 X97.499 Y97.5 E3706.74002
G1 X81.5 Y97.5 E3707.27215
G1 X81.5 Y115.499 E3707.8708
M205 X25
G0 F4800 X81.218 Y115.781
G1 F2400 E3706.8708
G0 F4800 X97.527 Y115.527
G0 X97.539 Y102.189
G0 X95.78 Y102.189
G0 X95.541 Y102.189
G0 X95.49 Y102.169
M205 X20
G1 F2400 E3707.8708
G1 F1800 X95.515 Y102.157 E3707.87172
G1 X95.71 Y102.058 E3707.879
G1 X95.71 Y99.115 E3707.97688
G1 X95.82 Y99.115 E3707.98054
G1 X95.82 Y102.058 E3708.00746
G0 X95.82 Y102.169
G1 X95.82 Y102.274 E3708.01058
G0 X95.71 Y102.274
G0 X95.575 Y102.274
G0 X95.562 Y102.264
G0 X95.47 Y102.198
G1 X95.205 Y102.004 E3708.01858
G1 X95.205 Y101.959 E3708.02008
G0 X95.225 Y101.974
G0 X95.49 Y102.169
M205 X25
G1 F2400 E3707.02008
G0 F4800 X95.541 Y102.189
G0 X95.587 Y102.236
G0 X93.764 Y102.225
G0 X90.265 Y111.29
G0 X89.812 Y111.658
M205 X20
;TYPE:WALL-INNER
G1 F2400 E3708.02008
G1 F3600 X89.934 Y111.658 E3708.02413
G0 X89.901 Y111.75
G1 X89.812 Y111.994 E3708.03004
G1 X89.767 Y111.994 E3708.03153
G0 X89.679 Y111.751
G1 X89.645 Y111.658 E3708.03169
G0 X89.767 Y111.658
G0 X89.812 Y111.658
M205 X25
G0 F4800 X90.242 Y111.258
M205 X20
G1 F3600 X92.288 Y105.081 E3708.24811
G1 X87.298 Y105.081 E3708.41408
G1 X89.344 Y111.258 E3708.6305
G1 X89.448 Y111.258 E3708.63396
G1 X90.133 Y111.258 E3708.65675
G1 X90.242 Y111.258 E3708.66037
M205 X25
G0 F4800 X90.475 Y111.342
M205 X20
G1 F3600 X90.438 Y111.444 E3708.66341
G1 X90.092 Y112.394 E3708.69704
G1 X89.487 Y112.394 E3708.71716
G1 X89.141 Y111.443 E3708.75082
G1 X89.106 Y111.346 E3708.75373
G1 X85.879 Y102.47 E3709.06785
G1 X85.782 Y102.203 E3709.0773
G1 X86.066 Y102.203 E3709.08288
G1 X86.067 Y102.203 E3709.08292
G1 X86.326 Y102.203 E3709.09153
G1 X87.2 Y104.75 E3709.18109
G1 X87.298 Y104.75 E3709.1841
G1 X92.288 Y104.75 E3709.32144
G1 X92.376 Y104.75 E3709.32436
G1 X93.26 Y102.203 E3709.41404
G1 X93.511 Y102.203 E3709.42238
G1 X93.512 Y102.203 E3709.42242
G1 X93.796 Y102.203 E3709.43186
G1 X93.699 Y102.47 E3709.43744
G1 X90.475 Y111.342 E3709.75141
M205 X25
G0 F4800 X89.953 Y110.858
M205 X20
;TYPE:WALL-OUTER
G1 F1800 X91.734 Y105.481 E3709.9398
G1 X87.852 Y105.481 E3710.06892
G1 X89.633 Y110.858 E3710.25731
G1 X89.953 Y110.858 E3710.26796
M205 X25
G0 F4800 X90.372 Y112.794
M205 X20
G1 F1800 X89.207 Y112.794 E3710.3067
G1 X85.308 Y102.07 E3710.68623
G1 X85.211 Y101.803 E3710.69568
G1 X85.495 Y101.803 E3710.70126
G1 X85.496 Y101.803 E3710.70129
G1 X86.611 Y101.803 E3710.73837
G1 X87.486 Y104.35 E3710.82795
G1 X92.091 Y104.35 E3710.98111
G1 X92.975 Y101.803 E3711.07078
G1 X94.082 Y101.803 E3711.1076
G1 X94.083 Y101.803 E3711.10763
G1 X94.367 Y101.803 E3711.11708
G1 X94.27 Y102.07 E3711.12266
G1 X90.372 Y112.794 E3711.50217
M205 X25
G0 F4800 X89.863 Y111.994
G0 X89.82 Y111.976
G1 F2400 E3710.50217
G1 Z3.6
G0 F4800 X78.3 Y116.3 Z3.6
M205 X20
;TYPE:WALL-OUTER
G1 Z3.2
G1 F2400 E3711.50217
G1 F1800 X60.7 Y116.3 E3712.08755
G1 X60.7 Y96.7 E3712.73945
G1 X78.3 Y96.7 E3713.32483
G1 X78.3 Y116.3 E3713.97673
M205 X25
G0 F4800 X77.5 Y115.499
M205 X20
G1 F1800 X77.5 Y97.5 E3714.57538
G1 X61.5 Y97.5 E3715.10754
G1 X61.5 Y115.499 E3715.70619
G1 X77.5 Y115.499 E3716.23835
M205 X25
G0 F4800 X77.782 Y115.781
G1 F2400 E3715.23835
G0 F4800 X77.54 Y102.189
G0 X75.78 Y102.189
G0 X75.541 Y102.189
G0 X75.49 Y102.169
M205 X20
G1 F2400 E3716.23835
G1 F1800 X75.515 Y102.157 E3716.23927
G1 X75.71 Y102.058 E3716.24655
G1 X75.71 Y99.115 E3716.34443
G1 X75.82 Y99.115 E3716.34809
G1 X75.82 Y102.058 E3716.37501
G0 X75.82 Y102.169
G1 X75.82 Y102.274 E3716.37813
G0 X75.71 Y102.274
G0 X75.575 Y102.274
G0 X75.562 Y102.264
G0 X75.47 Y102.198
G1 X75.205 Y102.004 E3716.38613
G1 X75.205 Y101.959 E3716.38763
G0 X75.225 Y101.974
G0 X75.49 Y102.169
M205 X25
G1 F2400 E3715.38763
G0 F4800 X75.541 Y102.189
G0 X75.587 Y102.236
G0 X73.764 Y102.225
G0 X70.265 Y111.29
G0 X69.812 Y111.658
M205 X20
;TYPE:WALL-INNER
G1 F2400 E3716.38763
G1 F3600 X69.934 Y111.658 E3716.39168
G0 X69.901 Y111.75
G1 X69.812 Y111.994 E3716.39759
G1 X69.767 Y111.994 E3716.39908
G0 X69.679 Y111.751
G1 X69.645 Y111.658 E3716.39924
G0 X69.767 Y111.658
G0 X69.812 Y111.658
M205 X25
G0 F4800 X70.242 Y111.258
M205 X20
G1 F3600 X72.288 Y105.081 E3716.61566
G1 X67.298 Y105.081 E3716.78163
G1 X69.344 Y111.258 E3716.99805
G1 X69.448 Y111.258 E3717.00151
G1 X70.133 Y111.258 E3717.0243
G1 X70.242 Y111.258 E3717.02792
M205 X25
G0 F4800 X70.475 Y111.342
M205 X20
G1 F3600 X70.438 Y111.444 E3717.03096
G1 X70.092 Y112.394 E3717.06459
G1 X69.487 Y112.394 E3717.08471
G1 X69.141 Y111.443 E3717.11837
G1 X69.106 Y111.346 E3717.12128
G1 X65.879 Y102.47 E3717.4354
G1 X65.782 Y102.203 E3717.44485
G1 X66.066 Y102.203 E3717.45043
G1 X66.067 Y102.203 E3717.45047
G1 X66.326 Y102.203 E3717.45908
G1 X67.2 Y104.75 E3717.54864
G1 X67.298 Y104.75 E3717.55165
G1 X72.288 Y104.75 E3717.68899
G1 X72.376 Y104.75 E3717.69191
G1 X73.26 Y102.203 E3717.78159
G1 X73.511 Y102.203 E3717.78993
G1 X73.512 Y102.203 E3717.78997
G1 X73.796 Y102.203 E3717.79941
G1 X73.699 Y102.47 E3717.80499
G1 X70.475 Y111.342 E3718.11896
M205 X25
G0 F4800 X69.953 Y110.858
M205 X20
;TYPE:WALL-OUTER
G1 F1800 X71.734 Y105.481 E3718.30735
G1 X67.852 Y105.481 E3718.43647
G1 X69.633 Y110.858 E3718.62486
G1 X69.953 Y110.858 E3718.63551
M205 X25
G0 F4800 X70.372 Y112.794
M205 X20
G1 F1800 X69.207 Y112.794 E3718.67425
G1 X65.308 Y102.07 E3719.05378
G1 X65.211 Y101.803 E3719.06323
G1 X65.495 Y101.803 E3719.06881
G1 X65.496 Y101.803 E3719.06884
G1 X66.611 Y101.803 E3719.10592
G1 X67.486 Y104.35 E3719.1955
G1 X72.091 Y104.35 E3719.34866
G1 X72.975 Y101.803 E3719.43833
G1 X74.082 Y101.803 E3719.47515
G1 X74.083 Y101.803 E3719.47518
G1 X74.367 Y101.803 E3719.48463
G1 X74.27 Y102.07 E3719.49021
G1 X70.372 Y112.794 E3719.86972
M205 X25
G0 F4800 X69.863 Y111.994
G0 X69.82 Y111.976
G1 F2400 E3718.86972
G1 Z3.6
G0 F4800 X100.7 Y116.3 Z3.6
M205 X20
;TYPE:WALL-OUTER
G1 Z3.2
G1 F2400 E3719.86972
G1 F1800 X100.7 Y96.7 E3720.52162
G1 X118.3 Y96.7 E3721.107
G1 X118.3 Y116.3 E3721.7589
G1 X100.7 Y116.3 E3722.34428
M205 X25
G0 F4800 X101.5 Y115.499
M205 X20
G1 F1800 X117.499 Y115.499 E3722.87641
G1 X117.499 Y97.5 E3723.47506
G1 X101.5 Y97.5 E3724.00719
G1 X101.5 Y115.499 E3724.60583
M205 X25
G0 F4800 X101.218 Y115.781
G1 F2400 E3723.60583
G0 F4800 X109.679 Y115.539
G0 X109.679 Y114.634
G0 X109.679 Y113.659
G0 X109.679 Y112.354
G0 X109.679 Y111.751
M205 X20
;TYPE:WALL-INNER
G1 F2400 E3724.60583
G1 F3600 X109.645 Y111.658 E3724.60913
G1 X109.767 Y111.658 E3724.60953
G0 X109.812 Y111.658
G1 X109.934 Y111.658 E3724.61222
G0 X109.901 Y111.75
G1 X109.812 Y111.994 E3724.61429
G1 X109.767 Y111.994 E3724.61493
G0 X109.679 Y111.751
M205 X25
G0 F4800 X109.344 Y111.258
M205 X20
G1 F3600 X109.448 Y111.258 E3724.61839
G1 X110.133 Y111.258 E3724.64117
G1 X110.242 Y111.258 E3724.6448
G1 X112.288 Y105.081 E3724.86122
G1 X107.298 Y105.081 E3725.02719
G1 X109.344 Y111.258 E3725.24361
M205 X25
G0 F4800 X109.106 Y111.346
M205 X20
G1 F3600 X105.879 Y102.47 E3725.55774
G1 X105.782 Y102.203 E3725.56718
G1 X106.066 Y102.203 E3725.57276
G1 X106.067 Y102.203 E3725.5728
G1 X106.326 Y102.203 E3725.58141
G1 X107.2 Y104.75 E3725.67097
G1 X107.298 Y104.75 E3725.67398
G1 X112.288 Y104.75 E3725.81132
G1 X112.376 Y104.75 E3725.81425
G1 X113.26 Y102.203 E3725.90392
G1 X113.511 Y102.203 E3725.91226
G1 X113.512 Y102.203 E3725.9123
G1 X113.796 Y102.203 E3725.92174
G1 X113.699 Y102.47 E3725.92732
G1 X110.475 Y111.342 E3726.24129
G1 X110.438 Y111.444 E3726.24433
G1 X110.092 Y112.394 E3726.27796
G1 X109.487 Y112.394 E3726.29808
G1 X109.141 Y111.443 E3726.33174
G1 X109.106 Y111.346 E3726.33465
M205 X25
G0 F4800 X109.633 Y110.858
M205 X20
;TYPE:WALL-OUTER
G1 F1800 X109.953 Y110.858 E3726.34529
G1 X111.734 Y105.481 E3726.53369
G1 X107.852 Y105.481 E3726.6628
G1 X109.633 Y110.858 E3726.8512
M205 X25
G0 F4800 X109.207 Y112.794
M205 X20
G1 F1800 X105.308 Y102.07 E3727.23072
G1 X105.211 Y101.803 E3727.24017
G1 X105.495 Y101.803 E3727.24575
G1 X105.496 Y101.803 E3727.24578
G1 X106.611 Y101.803 E3727.28287
G1 X107.486 Y104.35 E3727.37244
G1 X112.091 Y104.35 E3727.52561
G1 X112.975 Y101.803 E3727.61528
G1 X114.082 Y101.803 E3727.65209
G1 X114.083 Y101.803 E3727.65213
G1 X114.367 Y101.803 E3727.66157
G1 X114.27 Y102.07 E3727.66715
G1 X110.372 Y112.794 E3728.04667
G1 X109.207 Y112.794 E3728.08542
M205 X25
G0 F4800 X109.784 Y112.043
G1 F2400 E3727.08542
G0 F4800 X110.265 Y111.29
G0 X113.764 Y102.225
G0 X115.24 Y101.986
G0 X115.541 Y102.189
G0 X115.49 Y102.169
M205 X20
G1 F2400 E3728.08542
G1 F1800 X115.515 Y102.157 E3728.08634
G1 X115.71 Y102.058 E3728.09361
G1 X115.71 Y99.115 E3728.1915
G1 X115.82 Y99.115 E3728.19516
G1 X115.82 Y102.058 E3728.22207
G0 X115.82 Y102.169
G1 X115.82 Y102.274 E3728.2252
G0 X115.71 Y102.274
G0 X115.575 Y102.274
G0 X115.562 Y102.264
G0 X115.47 Y102.198
G1 X115.205 Y102.004 E3728.2332
G1 X115.205 Y101.959 E3728.23469
G0 X115.225 Y101.974
G0 X115.49 Y102.169
M205 X25
G1 F2400 E3727.23469
G1 Z3.6
G0 F4800 X38.3 Y93.3 Z3.6
M205 X20
;TYPE:WALL-OUTER
G1 Z3.2
G1 F2400 E3728.23469
G1 F1800 X20.7 Y93.3 E3728.82007
G1 X20.7 Y73.7 E3729.47197
G1 X38.3 Y73.7 E3730.05735
G1 X38.3 Y93.3 E3730.70925
M205 X25
G0 F4800 X37.5 Y92.499
M205 X20
G1 F1800 X37.5 Y74.5 E3731.3079
G1 X21.501 Y74.5 E3731.84002
G1 X21.501 Y92.499 E3732.43867
G1 X37.5 Y92.499 E3732.9708
M205 X25
G0 F4800 X37.782 Y92.781
G1 F2400 E3731.9708
G0 F4800 X37.54 Y79.189
G0 X35.781 Y79.189
G0 X35.542 Y79.189
G0 X35.491 Y79.169
M205 X20
G1 F2400 E3732.9708
G1 F1800 X35.516 Y79.157 E3732.97172
G1 X35.711 Y79.058 E3732.979
G1 X35.711 Y76.115 E3733.07688
