;FLAVOR:RepRap
;TIME:9153
;Generated with Cura_SteamEngine 2.3.1
M104 S190
M109 S190

M117 White

;LAYER_COUNT:23
;LAYER:0
M107
M205 X10
G1 F2400 E-1
G1 Z20.4
G0 F1200 X41.5 Y97.5 Z.6
M205 X20
;TYPE:WALL-INNER
G1 Z.2
G1 F2400 E0
G1 F600 X57.5 Y97.5 E0.53216
G1 X57.5 Y115.5 E1.13084
G1 X41.5 Y115.5 E1.66301
G1 X41.5 Y97.5 E2.26169
M205 X10
G0 F1200 X41.1 Y97.1
M205 X20
G1 F600 X57.9 Y97.1 E2.82046
G1 X57.9 Y115.9 E3.44575
G1 X41.1 Y115.9 E4.00452
G1 X41.1 Y97.1 E4.62981
M205 X10
G0 F1200 X40.7 Y96.7
M205 X20
;TYPE:WALL-OUTER
G1 F600 X58.3 Y96.7 E5.21519
G1 X58.3 Y116.3 E5.86709
G1 X40.7 Y116.3 E6.45247
G1 X40.7 Y96.7 E7.10436
M205 X10
G0 F1200 X41.679 Y97.682
M205 X20
;TYPE:SKIN
G1 F600 X57.32 Y113.323 E7.84007
G0 X57.39 Y113.393
M205 X10
G0 F1200 X57.32 Y113.888
M205 X20
G1 F600 X41.679 Y98.248 E8.57575
G0 X41.609 Y98.178
M205 X10
G0 F1200 X41.679 Y98.813
M205 X20
G1 F600 X57.32 Y114.454 E9.31146
G0 X57.39 Y114.524
M205 X10
G0 F1200 X57.32 Y115.02
M205 X20
G1 F600 X41.679 Y99.379 E10.04716
G0 X41.609 Y99.309
M205 X10
G0 F1200 X41.679 Y99.945
M205 X20
G1 F600 X57.053 Y115.319 E10.77031
G0 X57.123 Y115.389
M205 X10
G0 F1200 X56.487 Y115.319
M205 X20
G1 F600 X41.679 Y100.51 E11.46685
G0 X41.609 Y100.44
M205 X10
G0 F1200 X41.679 Y101.076
M205 X20
G1 F600 X55.922 Y115.319 E12.1368
G0 X55.992 Y115.389
M205 X10
G0 F1200 X55.356 Y115.319
M205 X20
G1 F600 X41.679 Y101.642 E12.78012
G0 X41.609 Y101.572
M205 X10
G0 F1200 X41.679 Y102.208
M205 X20
G1 F600 X54.79 Y115.319 E13.39682
G0 X54.86 Y115.389
M205 X10
G0 F1200 X54.225 Y115.319
M205 X20
G1 F600 X41.679 Y102.773 E13.98695
G0 X41.609 Y102.703
M205 X10
G0 F1200 X41.679 Y103.339
M205 X20
G1 F600 X53.659 Y115.319 E14.55045
G0 X53.729 Y115.389
M205 X10
G0 F1200 X53.093 Y115.319
M205 X20
G1 F600 X41.679 Y103.905 E15.08733
G0 X41.609 Y103.835
M205 X10
G0 F1200 X41.679 Y104.47
M205 X20
G1 F600 X52.528 Y115.319 E15.59764
G0 X52.598 Y115.389
M205 X10
G0 F1200 X51.962 Y115.319
M205 X20
G1 F600 X41.679 Y105.036 E16.08132
G0 X41.609 Y104.966
M205 X10
G0 F1200 X41.679 Y105.602
M205 X20
G1 F600 X51.396 Y115.319 E16.53837
G0 X51.466 Y115.389
M205 X10
G0 F1200 X50.831 Y115.319
M205 X20
G1 F600 X41.679 Y106.167 E16.96886
G0 X41.609 Y106.097
M205 X10
G0 F1200 X41.679 Y106.733
M205 X20
G1 F600 X50.265 Y115.319 E17.37272
G0 X50.335 Y115.389
M205 X10
G0 F1200 X49.699 Y115.319
M205 X20
G1 F600 X41.679 Y107.299 E17.74995
G0 X41.609 Y107.229
M205 X10
G0 F1200 X41.679 Y107.864
M205 X20
G1 F600 X49.134 Y115.319 E18.10061
G0 X49.204 Y115.389
M205 X10
G0 F1200 X48.568 Y115.319
M205 X20
G1 F600 X41.679 Y108.43 E18.42465
G0 X41.609 Y108.36
M205 X10
G0 F1200 X41.679 Y108.996
M205 X20
G1 F600 X48.002 Y115.319 E18.72206
G0 X48.072 Y115.389
M205 X10
G0 F1200 X47.436 Y115.319
M205 X20
G1 F600 X41.679 Y109.561 E18.99288
G0 X41.609 Y109.491
M205 X10
G0 F1200 X41.679 Y110.127
M205 X20
G1 F600 X46.871 Y115.319 E19.2371
G0 X46.941 Y115.389
M205 X10
G0 F1200 X46.305 Y115.319
M205 X20
G1 F600 X41.679 Y110.693 E19.45469
G0 X41.609 Y110.623
M205 X10
G0 F1200 X41.679 Y111.259
M205 X20
G1 F600 X45.739 Y115.319 E19.64566
G0 X45.809 Y115.389
M205 X10
G0 F1200 X45.174 Y115.319
M205 X20
G1 F600 X41.679 Y111.824 E19.81005
G0 X41.609 Y111.754
M205 X10
G0 F1200 X41.679 Y112.39
M205 X20
G1 F600 X44.608 Y115.319 E19.94782
G0 X44.678 Y115.389
M205 X10
G0 F1200 X44.042 Y115.319
M205 X20
G1 F600 X41.679 Y112.956 E20.05897
G0 X41.609 Y112.886
M205 X10
G0 F1200 X41.679 Y113.521
M205 X20
G1 F600 X43.477 Y115.319 E20.14354
G0 X43.547 Y115.389
M205 X10
G0 F1200 X42.911 Y115.319
M205 X20
G1 F600 X41.679 Y114.087 E20.20149
G0 X41.609 Y114.017
M205 X10
G0 F1200 X41.679 Y114.653
M205 X20
G1 F600 X42.345 Y115.319 E20.23282
G0 X42.415 Y115.389
M205 X10
G0 F1200 X41.78 Y115.319
M205 X20
G1 F600 X41.679 Y115.218 E20.23757
M205 X10
G0 F1200 X57.32 Y112.757
M205 X20
G1 F600 X42.241 Y97.679 E20.94682
G0 X42.171 Y97.609
M205 X10
G0 F1200 X42.807 Y97.679
M205 X20
G1 F600 X57.32 Y112.191 E21.62944
G0 X57.39 Y112.261
M205 X10
G0 F1200 X57.32 Y111.625
M205 X20
G1 F600 X43.373 Y97.679 E22.28544
G0 X43.303 Y97.609
M205 X10
G0 F1200 X43.938 Y97.679
M205 X20
G1 F600 X57.32 Y111.06 E22.91487
G0 X57.39 Y111.13
M205 X10
G0 F1200 X57.32 Y110.494
M205 X20
G1 F600 X44.504 Y97.679 E23.51767
G0 X44.434 Y97.609
M205 X10
G0 F1200 X45.07 Y97.679
M205 X20
G1 F600 X57.32 Y109.928 E24.09385
G0 X57.39 Y109.998
M205 X10
G0 F1200 X57.32 Y109.363
M205 X20
G1 F600 X45.635 Y97.679 E24.64345
G0 X45.565 Y97.609
M205 X10
G0 F1200 X46.201 Y97.679
M205 X20
G1 F600 X57.32 Y108.797 E25.16643
G0 X57.39 Y108.867
M205 X10
G0 F1200 X57.32 Y108.231
M205 X20
G1 F600 X46.767 Y97.679 E25.66279
G0 X46.697 Y97.609
M205 X10
G0 F1200 X47.333 Y97.679
M205 X20
G1 F600 X57.32 Y107.666 E26.13255
G0 X57.39 Y107.736
M205 X10
G0 F1200 X57.32 Y107.1
M205 X20
G1 F600 X47.898 Y97.679 E26.5757
G0 X47.828 Y97.609
M205 X10
G0 F1200 X48.464 Y97.679
M205 X20
G1 F600 X57.32 Y106.534 E26.99224
G0 X57.39 Y106.604
M205 X10
G0 F1200 X57.32 Y105.969
M205 X20
G1 F600 X49.03 Y97.679 E27.38218
G0 X48.96 Y97.609
M205 X10
G0 F1200 X49.595 Y97.679
M205 X20
G1 F600 X57.32 Y105.403 E27.74551
G0 X57.39 Y105.473
M205 X10
G0 F1200 X57.32 Y104.837
M205 X20
G1 F600 X50.161 Y97.679 E28.08223
G0 X50.091 Y97.609
M205 X10
G0 F1200 X50.727 Y97.679
M205 X20
G1 F600 X57.32 Y104.272 E28.39234
G0 X57.39 Y104.342
M205 X10
G0 F1200 X57.32 Y103.706
M205 X20
G1 F600 X51.292 Y97.679 E28.67586
G0 X51.222 Y97.609
M205 X10
G0 F1200 X51.858 Y97.679
M205 X20
G1 F600 X57.32 Y103.14 E28.93275
G0 X57.39 Y103.21
M205 X10
G0 F1200 X57.32 Y102.575
M205 X20
G1 F600 X52.424 Y97.679 E29.16304
G0 X52.354 Y97.609
M205 X10
G0 F1200 X52.989 Y97.679
M205 X20
G1 F600 X57.32 Y102.009 E29.36673
G0 X57.39 Y102.079
M205 X10
G0 F1200 X57.32 Y101.443
M205 X20
G1 F600 X53.555 Y97.679 E29.5438
G0 X53.485 Y97.609
M205 X10
G0 F1200 X54.121 Y97.679
M205 X20
G1 F600 X57.32 Y100.877 E29.69425
G0 X57.39 Y100.947
M205 X10
G0 F1200 X57.32 Y100.312
M205 X20
G1 F600 X54.686 Y97.679 E29.81812
G0 X54.616 Y97.609
M205 X10
G0 F1200 X55.252 Y97.679
M205 X20
G1 F600 X57.32 Y99.746 E29.91537
G0 X57.39 Y99.816
M205 X10
G0 F1200 X57.32 Y99.18
M205 X20
G1 F600 X55.818 Y97.679 E29.986
G0 X55.748 Y97.609
M205 X10
G0 F1200 X56.383 Y97.679
M205 X20
G1 F600 X57.32 Y98.615 E30.03005
G0 X57.39 Y98.685
M205 X10
G0 F1200 X57.32 Y98.049
M205 X20
G1 F600 X56.949 Y97.679 E30.04748
M205 X10
G0 F1200 X61.5 Y97.5
M205 X20
;TYPE:WALL-INNER
G1 F600 X77.5 Y97.5 E30.57964
G1 X77.5 Y115.5 E31.17832
G1 X61.5 Y115.5 E31.71048
G1 X61.5 Y97.5 E32.30917
M205 X10
G0 F1200 X61.1 Y97.1
M205 X20
G1 F600 X77.9 Y97.1 E32.86794
G1 X77.9 Y115.9 E33.49323
G1 X61.1 Y115.9 E34.052
G1 X61.1 Y97.1 E34.67729
M205 X10
G0 F1200 X60.7 Y96.7
M205 X20
;TYPE:WALL-OUTER
G1 F600 X78.3 Y96.7 E35.26267
G1 X78.3 Y116.3 E35.91456
G1 X60.7 Y116.3 E36.49994
G1 X60.7 Y96.7 E37.15184
M205 X10
G0 F1200 X61.679 Y97.883
M205 X20
;TYPE:SKIN
G1 F600 X77.32 Y113.523 E37.88752
G0 X77.39 Y113.593
M205 X10
G0 F1200 X77.32 Y112.958
M205 X20
G1 F600 X62.04 Y97.679 E38.60622
G0 X61.97 Y97.609
M205 X10
G0 F1200 X62.606 Y97.679
M205 X20
G1 F600 X77.32 Y112.392 E39.2983
G0 X77.39 Y112.462
M205 X10
G0 F1200 X77.32 Y111.826
M205 X20
G1 F600 X63.172 Y97.679 E39.96376
G0 X63.102 Y97.609
M205 X10
G0 F1200 X63.737 Y97.679
M205 X20
G1 F600 X77.32 Y111.261 E40.60264
G0 X77.39 Y111.331
M205 X10
G0 F1200 X77.32 Y110.695
M205 X20
G1 F600 X64.303 Y97.679 E41.21489
G0 X64.233 Y97.609
M205 X10
G0 F1200 X64.869 Y97.679
M205 X20
G1 F600 X77.32 Y110.129 E41.80052
G0 X77.39 Y110.199
M205 X10
G0 F1200 X77.32 Y109.564
M205 X20
G1 F600 X65.434 Y97.679 E42.35958
G0 X65.364 Y97.609
M205 X10
G0 F1200 X66 Y97.679
M205 X20
G1 F600 X77.32 Y108.998 E42.89202
G0 X77.39 Y109.068
M205 X10
G0 F1200 X77.32 Y108.432
M205 X20
G1 F600 X66.566 Y97.679 E43.39783
G0 X66.496 Y97.609
M205 X10
G0 F1200 X67.132 Y97.679
M205 X20
G1 F600 X77.32 Y107.867 E43.87704
G0 X77.39 Y107.937
M205 X10
G0 F1200 X77.32 Y107.301
M205 X20
G1 F600 X67.697 Y97.679 E44.32965
G0 X67.627 Y97.609
M205 X10
G0 F1200 X68.263 Y97.679
M205 X20
G1 F600 X77.32 Y106.735 E44.75564
G0 X77.39 Y106.805
M205 X10
G0 F1200 X77.32 Y106.169
M205 X20
G1 F600 X68.829 Y97.679 E45.15501
G0 X68.759 Y97.609
M205 X10
G0 F1200 X69.394 Y97.679
M205 X20
G1 F600 X77.32 Y105.604 E45.5278
G0 X77.39 Y105.674
M205 X10
G0 F1200 X77.32 Y105.038
M205 X20
G1 F600 X69.96 Y97.679 E45.87397
G0 X69.89 Y97.609
M205 X10
G0 F1200 X70.526 Y97.679
M205 X20
G1 F600 X77.32 Y104.472 E46.19352
G0 X77.39 Y104.542
M205 X10
G0 F1200 X77.32 Y103.907
M205 X20
G1 F600 X71.091 Y97.679 E46.48649
G0 X71.021 Y97.609
M205 X10
G0 F1200 X71.657 Y97.679
M205 X20
G1 F600 X77.32 Y103.341 E46.75283
G0 X77.39 Y103.411
M205 X10
G0 F1200 X77.32 Y102.775
M205 X20
G1 F600 X72.223 Y97.679 E46.99256
G0 X72.153 Y97.609
M205 X10
G0 F1200 X72.788 Y97.679
M205 X20
G1 F600 X77.32 Y102.21 E47.2057
G0 X77.39 Y102.28
M205 X10
G0 F1200 X77.32 Y101.644
M205 X20
G1 F600 X73.354 Y97.679 E47.39223
G0 X73.284 Y97.609
M205 X10
G0 F1200 X73.92 Y97.679
M205 X20
G1 F600 X77.32 Y101.078 E47.55213
G0 X77.39 Y101.148
M205 X10
G0 F1200 X77.32 Y100.513
M205 X20
G1 F600 X74.485 Y97.679 E47.68546
G0 X74.415 Y97.609
M205 X10
G0 F1200 X75.051 Y97.679
M205 X20
G1 F600 X77.32 Y99.947 E47.79216
G0 X77.39 Y100.017
M205 X10
G0 F1200 X77.32 Y99.381
M205 X20
G1 F600 X75.617 Y97.679 E47.87224
G0 X75.547 Y97.609
M205 X10
G0 F1200 X76.182 Y97.679
M205 X20
G1 F600 X77.32 Y98.816 E47.92574
G0 X77.39 Y98.886
M205 X10
G0 F1200 X77.32 Y98.25
M205 X20
G1 F600 X76.748 Y97.679 E47.95263
G0 X76.678 Y97.609
M205 X10
G0 F1200 X61.679 Y98.449
M205 X20
G1 F600 X77.32 Y114.089 E48.68831
G0 X77.39 Y114.159
M205 X10
G0 F1200 X77.32 Y114.655
M205 X20
G1 F600 X61.679 Y99.014 E49.42401
G0 X61.609 Y98.944
M205 X10
G0 F1200 X61.679 Y99.58
M205 X20
G1 F600 X77.32 Y115.22 E50.15969
G0 X77.39 Y115.29
M205 X10
G0 F1200 X76.852 Y115.319
M205 X20
G1 F600 X61.679 Y100.146 E50.87338
G0 X61.609 Y100.076
M205 X10
G0 F1200 X61.679 Y100.711
M205 X20
G1 F600 X76.286 Y115.319 E51.56048
G0 X76.356 Y115.389
M205 X10
G0 F1200 X75.721 Y115.319
M205 X20
G1 F600 X61.679 Y101.277 E52.22097
G0 X61.609 Y101.207
M205 X10
G0 F1200 X61.679 Y101.843
M205 X20
G1 F600 X75.155 Y115.319 E52.85484
G0 X75.225 Y115.389
M205 X10
G0 F1200 X74.589 Y115.319
M205 X20
G1 F600 X61.679 Y102.408 E53.46211
G0 X61.609 Y102.338
M205 X10
G0 F1200 X61.679 Y102.974
M205 X20
G1 F600 X74.024 Y115.319 E54.04278
G0 X74.094 Y115.389
M205 X10
G0 F1200 X73.458 Y115.319
M205 X20
G1 F600 X61.679 Y103.54 E54.59683
G0 X61.609 Y103.47
M205 X10
G0 F1200 X61.679 Y104.105
M205 X20
G1 F600 X72.892 Y115.319 E55.12428
G0 X72.962 Y115.389
M205 X10
G0 F1200 X72.327 Y115.319
M205 X20
G1 F600 X61.679 Y104.671 E55.62513
G0 X61.609 Y104.601
M205 X10
G0 F1200 X61.679 Y105.237
M205 X20
G1 F600 X71.761 Y115.319 E56.09935
G0 X71.831 Y115.389
M205 X10
G0 F1200 X71.195 Y115.319
M205 X20
G1 F600 X61.679 Y105.802 E56.54698
G0 X61.609 Y105.732
M205 X10
G0 F1200 X61.679 Y106.368
M205 X20
G1 F600 X70.63 Y115.319 E56.96801
G0 X70.7 Y115.389
M205 X10
G0 F1200 X70.064 Y115.319
M205 X20
G1 F600 X61.679 Y106.934 E57.36241
G0 X61.609 Y106.864
M205 X10
G0 F1200 X61.679 Y107.5
M205 X20
G1 F600 X69.498 Y115.319 E57.73019
G0 X69.568 Y115.389
M205 X10
G0 F1200 X68.933 Y115.319
M205 X20
G1 F600 X61.679 Y108.065 E58.0714
G0 X61.609 Y107.995
M205 X10
G0 F1200 X61.679 Y108.631
M205 X20
G1 F600 X68.367 Y115.319 E58.38598
G0 X68.437 Y115.389
M205 X10
G0 F1200 X67.801 Y115.319
M205 X20
G1 F600 X61.679 Y109.197 E58.67394
G0 X61.609 Y109.127
M205 X10
G0 F1200 X61.679 Y109.762
M205 X20
G1 F600 X67.235 Y115.319 E58.9353
G0 X67.305 Y115.389
M205 X10
G0 F1200 X66.67 Y115.319
M205 X20
G1 F600 X61.679 Y110.328 E59.17007
G0 X61.609 Y110.258
M205 X10
G0 F1200 X61.679 Y110.894
M205 X20
G1 F600 X66.104 Y115.319 E59.3782
G0 X66.174 Y115.389
M205 X10
G0 F1200 X65.538 Y115.319
M205 X20
G1 F600 X61.679 Y111.459 E59.55974
G0 X61.609 Y111.389
M205 X10
G0 F1200 X61.679 Y112.025
M205 X20
G1 F600 X64.973 Y115.319 E59.71468
G0 X65.043 Y115.389
M205 X10
G0 F1200 X64.407 Y115.319
M205 X20
G1 F600 X61.679 Y112.591 E59.843
G0 X61.609 Y112.521
M205 X10
G0 F1200 X61.679 Y113.156
M205 X20
G1 F600 X63.841 Y115.319 E59.94472
G0 X63.911 Y115.389
M205 X10
G0 F1200 X63.276 Y115.319
M205 X20
G1 F600 X61.679 Y113.722 E60.01983
G0 X61.609 Y113.652
M205 X10
G0 F1200 X61.679 Y114.288
M205 X20
G1 F600 X62.71 Y115.319 E60.06833
G0 X62.78 Y115.389
M205 X10
G0 F1200 X62.144 Y115.319
M205 X20
G1 F600 X61.679 Y114.853 E60.09023
M205 X10
G1 F2400 E59.09023
G0 F1200 X77.872 Y97.128
G0 X79.165 Y97.128
G0 X79.847 Y95.847
G0 X99.153 Y94.153
G0 X99.835 Y92.872
G0 X101.128 Y92.872
G0 X101.5 Y92.5
M205 X20
;TYPE:WALL-INNER
G1 F2400 E60.09023
G1 F600 X101.5 Y74.5 E60.68891
G1 X117.5 Y74.5 E61.22107
G1 X117.5 Y92.5 E61.81975
G1 X101.5 Y92.5 E62.35191
M205 X10
G0 F1200 X101.1 Y92.9
M205 X20
G1 F600 X101.1 Y74.1 E62.9772
G1 X117.9 Y74.1 E63.53598
G1 X117.9 Y92.9 E64.16127
G1 X101.1 Y92.9 E64.72004
M205 X10
G0 F1200 X100.7 Y93.3
M205 X20
;TYPE:WALL-OUTER
G1 F600 X100.7 Y73.7 E65.37193
G1 X118.3 Y73.7 E65.95731
G1 X118.3 Y93.3 E66.60921
G1 X100.7 Y93.3 E67.19459
M205 X10
G0 F1200 X101.936 Y92.319
M205 X20
;TYPE:SKIN
G1 F600 X101.679 Y92.062 E67.20668
M205 X10
G0 F1200 X101.679 Y91.496
M205 X20
G1 F600 X102.502 Y92.319 E67.24539
G0 X102.572 Y92.389
M205 X10
G0 F1200 X103.067 Y92.319
M205 X20
G1 F600 X101.679 Y90.931 E67.31068
G0 X101.609 Y90.861
M205 X10
G0 F1200 X101.679 Y90.365
M205 X20
G1 F600 X103.633 Y92.319 E67.40259
G0 X103.703 Y92.389
M205 X10
G0 F1200 X104.199 Y92.319
M205 X20
G1 F600 X101.679 Y89.799 E67.52112
G0 X101.609 Y89.729
M205 X10
G0 F1200 X101.679 Y89.234
M205 X20
G1 F600 X104.764 Y92.319 E67.66623
G0 X104.834 Y92.389
M205 X10
G0 F1200 X105.33 Y92.319
M205 X20
G1 F600 X101.679 Y88.668 E67.83796
G0 X101.609 Y88.598
M205 X10
G0 F1200 X101.679 Y88.102
M205 X20
G1 F600 X105.896 Y92.319 E68.03632
G0 X105.966 Y92.389
M205 X10
G0 F1200 X106.461 Y92.319
M205 X20
G1 F600 X101.679 Y87.536 E68.26127
G0 X101.609 Y87.466
M205 X10
G0 F1200 X101.679 Y86.971
M205 X20
G1 F600 X107.027 Y92.319 E68.51282
G0 X107.097 Y92.389
M205 X10
G0 F1200 X107.593 Y92.319
M205 X20
G1 F600 X101.679 Y86.405 E68.791
G0 X101.609 Y86.335
M205 X10
G0 F1200 X101.679 Y85.839
M205 X20
G1 F600 X108.159 Y92.319 E69.0958
G0 X108.229 Y92.389
M205 X10
G0 F1200 X108.724 Y92.319
M205 X20
G1 F600 X101.679 Y85.274 E69.42717
G0 X101.609 Y85.204
M205 X10
G0 F1200 X101.679 Y84.708
M205 X20
G1 F600 X109.29 Y92.319 E69.78517
G0 X109.36 Y92.389
M205 X10
G0 F1200 X109.856 Y92.319
M205 X20
G1 F600 X101.679 Y84.142 E70.16979
G0 X101.609 Y84.072
M205 X10
G0 F1200 X101.679 Y83.577
M205 X20
G1 F600 X110.421 Y92.319 E70.58099
G0 X110.491 Y92.389
M205 X10
G0 F1200 X110.987 Y92.319
M205 X20
G1 F600 X101.679 Y83.011 E71.01881
G0 X101.609 Y82.941
M205 X10
G0 F1200 X101.679 Y82.445
M205 X20
G1 F600 X111.553 Y92.319 E71.48325
G0 X111.623 Y92.389
M205 X10
G0 F1200 X112.118 Y92.319
M205 X20
G1 F600 X101.679 Y81.88 E71.97427
G0 X101.609 Y81.81
M205 X10
G0 F1200 X101.679 Y81.314
M205 X20
G1 F600 X112.684 Y92.319 E72.49191
G0 X112.754 Y92.389
M205 X10
G0 F1200 X113.25 Y92.319
M205 X20
G1 F600 X101.679 Y80.748 E73.03618
G0 X101.609 Y80.678
M205 X10
G0 F1200 X101.679 Y80.183
M205 X20
G1 F600 X113.815 Y92.319 E73.60702
G0 X113.885 Y92.389
M205 X10
G0 F1200 X114.381 Y92.319
M205 X20
G1 F600 X101.679 Y79.617 E74.20448
G0 X101.609 Y79.547
M205 X10
G0 F1200 X101.679 Y79.051
M205 X20
G1 F600 X114.947 Y92.319 E74.82857
G0 X115.017 Y92.389
M205 X10
G0 F1200 X115.512 Y92.319
M205 X20
G1 F600 X101.679 Y78.486 E75.47923
G0 X101.609 Y78.416
M205 X10
G0 F1200 X101.679 Y77.92
M205 X20
G1 F600 X116.078 Y92.319 E76.15651
G0 X116.148 Y92.389
M205 X10
G0 F1200 X116.644 Y92.319
M205 X20
G1 F600 X101.679 Y77.354 E76.86042
G0 X101.609 Y77.284
M205 X10
G0 F1200 X101.679 Y76.788
M205 X20
G1 F600 X117.21 Y92.319 E77.59095
G0 X117.28 Y92.389
M205 X10
G0 F1200 X117.319 Y91.863
M205 X20
G1 F600 X101.679 Y76.223 E78.32661
G0 X101.609 Y76.153
M205 X10
G0 F1200 X101.679 Y75.657
M205 X20
G1 F600 X117.319 Y91.298 E79.06229
G0 X117.389 Y91.368
M205 X10
