;FLAVOR:RepRap
;TIME:8933
;Generated with Cura_SteamEngine 2.3.1
M104 S190
M109 S190

M117 Black

;LAYER_COUNT:23
;LAYER:15
G0 F4800 X105.182 Y33.448 Z3.2
G1 F2400 E3684.00135
G1 Z3.6
G0 F4800 X98.3 Y96.7 Z3.6
M205 X20
;TYPE:WALL-OUTER
G1 Z3.2
G1 F2400 E3685.00135
G1 F1800 X98.3 Y116.3 E3685.65325
G1 X80.7 Y116.3 E3686.23863
G1 X80.7 Y96.7 E3686.89053
G1 X98.3 Y96.7 E3687.47591
M205 X25
G0 F4800 X97.5 Y97.5
M205 X20
G1 F1800 X81.5 Y97.5 E3688.00807
G1 X81.5 Y115.5 E3688.60675
G1 X97.5 Y115.5 E3689.13891
G1 X97.5 Y97.5 E3689.7376
M205 X25
G0 F4800 X97.782 Y97.218
G1 F2400 E3688.7376
G0 F4800 X97.54 Y101.887
G0 X96.635 Y101.887
G0 X95.546 Y101.887
G0 X94.641 Y101.887
G0 X94.655 Y101.887
G0 X94.57 Y101.835
M205 X20
G1 F2400 E3689.7376
G1 F1800 X94.57 Y98.892 E3689.83548
G1 X94.681 Y98.892 E3689.83917
G1 X94.681 Y101.835 E3689.86633
G1 X94.681 Y101.946 E3689.87003
G1 X94.681 Y102.051 E3689.87352
G0 X94.57 Y102.051
G1 X94.436 Y102.051 E3689.87585
G0 X94.422 Y102.041
G1 X94.331 Y101.975 E3689.87862
G1 X94.065 Y101.781 E3689.88957
G1 X94.065 Y101.736 E3689.89107
G0 X94.086 Y101.751
G0 X94.351 Y101.946
G0 X94.376 Y101.934
G0 X94.57 Y101.835
M205 X25
G0 F4800 X92.285 Y102.038
M205 X20
;TYPE:WALL-INNER
G1 F3600 X92.285 Y102.471 E3689.90547
G1 X86.738 Y102.471 E3690.08997
G1 X86.738 Y107.015 E3690.2411
G1 X91.473 Y107.015 E3690.39859
G1 X91.473 Y107.346 E3690.4096
G1 X86.738 Y107.346 E3690.53992
G1 X86.738 Y111.796 E3690.68793
G1 X92.285 Y111.796 E3690.87242
G1 X92.285 Y112.229 E3690.88682
G1 X86.212 Y112.229 E3691.08881
G1 X86.212 Y102.038 E3691.42776
G1 X92.285 Y102.038 E3691.62975
M205 X25
G0 F4800 X92.685 Y101.638
M205 X20
;TYPE:WALL-OUTER
G1 F1800 X92.685 Y102.871 E3691.67076
G1 X87.138 Y102.871 E3691.85526
G1 X87.138 Y106.615 E3691.97978
G1 X91.873 Y106.615 E3692.13727
G1 X91.873 Y107.746 E3692.17489
G1 X87.138 Y107.746 E3692.33237
G1 X87.138 Y111.396 E3692.45377
G1 X92.685 Y111.396 E3692.63827
G1 X92.685 Y112.629 E3692.67928
G1 X85.812 Y112.629 E3692.90787
G1 X85.812 Y101.638 E3693.27343
G1 X92.685 Y101.638 E3693.50203
M205 X25
G0 F4800 X92.003 Y102.071
G1 F2400 E3692.50203
G1 Z3.6
G0 F4800 X100.7 Y96.7 Z3.6
M205 X20
;TYPE:WALL-OUTER
G1 Z3.2
G1 F2400 E3693.50203
G1 F1800 X118.3 Y96.7 E3694.08741
G1 X118.3 Y116.3 E3694.73931
G1 X100.7 Y116.3 E3695.32469
G1 X100.7 Y96.7 E3695.97659
M205 X25
G0 F4800 X101.5 Y97.5
M205 X20
G1 F1800 X101.5 Y115.5 E3696.57527
G1 X117.499 Y115.5 E3697.1074
G1 X117.499 Y97.5 E3697.70608
G1 X101.5 Y97.5 E3698.23821
M205 X25
G0 F4800 X101.218 Y97.218
G1 F2400 E3697.23821
G0 F4800 X106.668 Y97.46
G0 X106.668 Y98.365
G0 X106.668 Y100.773
G0 X106.668 Y102.078
G0 X106.668 Y102.401
G0 X106.738 Y102.471
M205 X20
;TYPE:WALL-INNER
G1 F2400 E3698.23821
G1 F3600 X106.738 Y107.015 E3698.38934
G1 X111.473 Y107.015 E3698.54683
G1 X111.473 Y107.346 E3698.55784
G1 X106.738 Y107.346 E3698.68816
G1 X106.738 Y111.796 E3698.83617
G1 X112.285 Y111.796 E3699.02066
G1 X112.285 Y112.229 E3699.03506
G1 X106.212 Y112.229 E3699.23705
G1 X106.212 Y102.038 E3699.576
G1 X112.285 Y102.038 E3699.77799
G1 X112.285 Y102.471 E3699.7924
G1 X106.738 Y102.471 E3699.97689
M205 X25
G0 F4800 X107.138 Y102.871
M205 X20
;TYPE:WALL-OUTER
G1 F1800 X107.138 Y106.615 E3700.10142
G1 X111.873 Y106.615 E3700.2589
G1 X111.873 Y107.746 E3700.29652
G1 X107.138 Y107.746 E3700.45401
G1 X107.138 Y111.396 E3700.57541
G1 X112.685 Y111.396 E3700.7599
G1 X112.685 Y112.629 E3700.80091
G1 X105.812 Y112.629 E3701.02951
G1 X105.812 Y101.638 E3701.39507
G1 X112.685 Y101.638 E3701.62366
G1 X112.685 Y102.871 E3701.66467
G1 X107.138 Y102.871 E3701.84917
M205 X25
G0 F4800 X107.138 Y102.438
G1 F2400 E3700.84917
G0 F4800 X107.138 Y102.371
G0 X112.257 Y102.066
G0 X114.1 Y101.763
G0 X114.402 Y101.966
G0 X114.351 Y101.946
M205 X20
G1 F2400 E3701.84917
G1 F1800 X114.376 Y101.934 E3701.85009
G1 X114.57 Y101.835 E3701.85734
G1 X114.57 Y98.892 E3701.95522
G1 X114.681 Y98.892 E3701.95891
G1 X114.681 Y101.835 E3701.98607
G0 X114.681 Y101.946
G1 X114.681 Y102.051 E3701.9892
G0 X114.57 Y102.051
G0 X114.436 Y102.051
G0 X114.422 Y102.041
G0 X114.331 Y101.975
G1 X114.065 Y101.781 E3701.99722
G1 X114.065 Y101.736 E3701.99872
G0 X114.086 Y101.751
G0 X114.351 Y101.946
M205 X25
G1 F2400 E3700.99872
G1 Z3.6
G0 F4800 X78.3 Y96.7 Z3.6
M205 X20
;TYPE:WALL-OUTER
G1 Z3.2
G1 F2400 E3701.99872
G1 F1800 X78.3 Y116.3 E3702.65062
G1 X60.7 Y116.3 E3703.236
G1 X60.7 Y96.7 E3703.8879
G1 X78.3 Y96.7 E3704.47327
M205 X25
G0 F4800 X77.5 Y97.5
M205 X20
G1 F1800 X61.5 Y97.5 E3705.00544
G1 X61.5 Y115.5 E3705.60412
G1 X77.5 Y115.5 E3706.13628
G1 X77.5 Y97.5 E3706.73496
M205 X25
G0 F4800 X77.782 Y97.218
G1 F2400 E3705.73496
G0 F4800 X77.54 Y101.887
G0 X76.635 Y101.887
G0 X75.546 Y101.887
G0 X74.641 Y101.887
G0 X74.655 Y101.887
G0 X74.57 Y101.835
M205 X20
G1 F2400 E3706.73496
G1 F1800 X74.57 Y98.892 E3706.83285
G1 X74.681 Y98.892 E3706.83654
G1 X74.681 Y101.835 E3706.8637
G1 X74.681 Y101.946 E3706.86739
G1 X74.681 Y102.051 E3706.87089
G0 X74.57 Y102.051
G1 X74.436 Y102.051 E3706.87322
G0 X74.422 Y102.041
G1 X74.331 Y101.975 E3706.87599
G1 X74.065 Y101.781 E3706.88694
G1 X74.065 Y101.736 E3706.88844
G0 X74.086 Y101.751
G0 X74.351 Y101.946
G0 X74.376 Y101.934
G0 X74.57 Y101.835
M205 X25
G0 F4800 X72.285 Y102.038
M205 X20
;TYPE:WALL-INNER
G1 F3600 X72.285 Y102.471 E3706.90284
G1 X66.738 Y102.471 E3707.08734
G1 X66.738 Y107.015 E3707.23847
G1 X71.473 Y107.015 E3707.39596
G1 X71.473 Y107.346 E3707.40696
G1 X66.738 Y107.346 E3707.53729
G1 X66.738 Y111.796 E3707.68529
G1 X72.285 Y111.796 E3707.86979
G1 X72.285 Y112.229 E3707.88419
G1 X66.212 Y112.229 E3708.08618
G1 X66.212 Y102.038 E3708.42513
G1 X72.285 Y102.038 E3708.62712
M205 X25
G0 F4800 X72.685 Y101.638
M205 X20
;TYPE:WALL-OUTER
G1 F1800 X72.685 Y102.871 E3708.66813
G1 X67.138 Y102.871 E3708.85262
G1 X67.138 Y106.615 E3708.97715
G1 X71.873 Y106.615 E3709.13464
G1 X71.873 Y107.746 E3709.17225
G1 X67.138 Y107.746 E3709.32974
G1 X67.138 Y111.396 E3709.45114
G1 X72.685 Y111.396 E3709.63563
G1 X72.685 Y112.629 E3709.67664
G1 X65.812 Y112.629 E3709.90524
G1 X65.812 Y101.638 E3710.2708
G1 X72.685 Y101.638 E3710.4994
M205 X25
G0 F4800 X72.003 Y102.071
G1 F2400 E3709.4994
G1 Z3.6
G0 F4800 X58.3 Y96.7 Z3.6
M205 X20
;TYPE:WALL-OUTER
G1 Z3.2
G1 F2400 E3710.4994
G1 F1800 X58.3 Y116.3 E3711.1513
G1 X40.7 Y116.3 E3711.73668
G1 X40.7 Y96.7 E3712.38858
G1 X58.3 Y96.7 E3712.97395
M205 X25
G0 F4800 X57.5 Y97.5
M205 X20
G1 F1800 X41.5 Y97.5 E3713.50612
G1 X41.5 Y115.5 E3714.1048
G1 X57.5 Y115.5 E3714.63696
G1 X57.5 Y97.5 E3715.23564
M205 X25
G0 F4800 X57.782 Y97.218
G1 F2400 E3714.23564
G0 F4800 X57.54 Y101.887
G0 X56.635 Y101.887
G0 X55.547 Y101.887
G0 X54.642 Y101.887
G0 X54.656 Y101.887
G0 X54.571 Y101.835
M205 X20
G1 F2400 E3715.23564
G1 F1800 X54.571 Y98.892 E3715.33353
G1 X54.682 Y98.892 E3715.33722
G1 X54.682 Y101.835 E3715.36438
G1 X54.682 Y101.946 E3715.36807
G1 X54.682 Y102.051 E3715.37157
G0 X54.571 Y102.051
G1 X54.437 Y102.051 E3715.3739
G0 X54.423 Y102.041
G1 X54.332 Y101.975 E3715.37667
G1 X54.066 Y101.781 E3715.38762
G1 X54.066 Y101.736 E3715.38912
G0 X54.087 Y101.751
G0 X54.352 Y101.946
G0 X54.377 Y101.934
G0 X54.571 Y101.835
M205 X25
G0 F4800 X52.286 Y102.038
M205 X20
;TYPE:WALL-INNER
G1 F3600 X52.286 Y102.471 E3715.40352
G1 X46.739 Y102.471 E3715.58801
G1 X46.739 Y107.015 E3715.73915
G1 X51.474 Y107.015 E3715.89664
G1 X51.474 Y107.346 E3715.90764
G1 X46.739 Y107.346 E3716.03796
G1 X46.739 Y111.796 E3716.18597
G1 X52.286 Y111.796 E3716.37047
G1 X52.286 Y112.229 E3716.38487
G1 X46.213 Y112.229 E3716.58686
G1 X46.213 Y102.038 E3716.92581
G1 X52.286 Y102.038 E3717.1278
M205 X25
G0 F4800 X52.686 Y101.638
M205 X20
;TYPE:WALL-OUTER
G1 F1800 X52.686 Y102.871 E3717.16881
G1 X47.139 Y102.871 E3717.3533
G1 X47.139 Y106.615 E3717.47783
G1 X51.874 Y106.615 E3717.63532
G1 X51.874 Y107.746 E3717.67293
G1 X47.139 Y107.746 E3717.83042
G1 X47.139 Y111.396 E3717.95182
G1 X52.686 Y111.396 E3718.13631
G1 X52.686 Y112.629 E3718.17732
G1 X45.813 Y112.629 E3718.40592
G1 X45.813 Y101.638 E3718.77148
G1 X52.686 Y101.638 E3719.00008
M205 X25
G0 F4800 X52.004 Y102.071
G1 F2400 E3718.00008
G1 Z3.6
G0 F4800 X38.3 Y96.7 Z3.6
M205 X20
;TYPE:WALL-OUTER
G1 Z3.2
G1 F2400 E3719.00008
G1 F1800 X38.3 Y116.3 E3719.65198
G1 X20.7 Y116.3 E3720.23736
G1 X20.7 Y96.7 E3720.88925
G1 X38.3 Y96.7 E3721.47463
M205 X25
G0 F4800 X37.5 Y97.5
M205 X20
G1 F1800 X21.501 Y97.5 E3722.00676
G1 X21.501 Y115.499 E3722.60541
G1 X37.5 Y115.499 E3723.13754
G1 X37.5 Y97.5 E3723.73619
M205 X25
G0 F4800 X37.782 Y97.218
G1 F2400 E3722.73619
G0 F4800 X33.383 Y97.46
G0 X33.383 Y99.752
G0 X33.383 Y100.312
G0 X33.453 Y100.242
M205 X20
G1 F2400 E3723.73619
G1 F1800 X33.736 Y100.242 E3723.7456
G1 X33.736 Y100.323 E3723.7458
G0 X33.453 Y100.323
G1 X33.453 Y101.346 E3723.77982
G1 X33.343 Y101.346 E3723.78348
G1 X33.343 Y100.323 E3723.79284
G1 X31.896 Y100.323 E3723.84096
G1 X31.948 Y100.435 E3723.84507
G1 X33.076 Y102.823 E3723.93291
G1 X33.1 Y102.872 E3723.93473
G1 X32.974 Y102.872 E3723.93502
G1 X31.858 Y100.479 E3723.95842
G0 X31.858 Y100.323
G0 X31.858 Y100.242
G0 X31.896 Y100.242
G1 X33.343 Y100.242 E3723.96817
G1 X33.343 Y99.712 E3723.9858
G1 X33.453 Y99.712 E3723.98946
G1 X33.453 Y100.242 E3723.9918
M205 X25
G1 F2400 E3722.9918
G0 F4800 X33.383 Y100.312
G0 X31.897 Y100.471
G0 X31.079 Y100.853
G0 X28.281 Y102.203
G0 X26.988 Y102.203
G0 X26.946 Y102.245
G0 X27.016 Y102.175
M205 X20
;TYPE:WALL-INNER
G1 F2400 E3723.9918
G1 F3600 X27.016 Y107.042 E3724.15368
G1 X31.75 Y107.042 E3724.31113
G1 X31.75 Y107.373 E3724.32214
G1 X27.016 Y107.373 E3724.45244
G1 X27.016 Y111.932 E3724.60407
G1 X32.563 Y111.932 E3724.78856
G1 X32.563 Y112.365 E3724.80296
G1 X26.49 Y112.365 E3725.00495
G1 X26.49 Y102.175 E3725.34387
G1 X27.016 Y102.175 E3725.36137
M205 X25
G0 F4800 X27.416 Y106.642
M205 X20
;TYPE:WALL-OUTER
G1 F1800 X32.15 Y106.642 E3725.51882
G1 X32.15 Y107.773 E3725.55644
G1 X27.416 Y107.773 E3725.71389
G1 X27.416 Y111.532 E3725.83892
G1 X32.963 Y111.532 E3726.02341
G1 X32.963 Y112.765 E3726.06442
G1 X26.09 Y112.765 E3726.29302
G1 X26.09 Y101.775 E3726.65855
G1 X27.416 Y101.775 E3726.70265
G1 X27.416 Y106.642 E3726.86453
M205 X25
G0 F4800 X26.89 Y106.642
G1 F2400 E3725.86453
G1 Z3.6
G0 F4800 X20.7 Y93.3 Z3.6
M205 X20
;TYPE:WALL-OUTER
G1 Z3.2
G1 F2400 E3726.86453
G1 F1800 X20.7 Y73.7 E3727.51643
G1 X38.3 Y73.7 E3728.1018
G1 X38.3 Y93.3 E3728.7537
G1 X20.7 Y93.3 E3729.33908
M205 X25
G0 F4800 X21.501 Y92.499
M205 X20
G1 F1800 X37.5 Y92.499 E3729.87121
G1 X37.5 Y74.5 E3730.46986
G1 X21.501 Y74.5 E3731.00199
G1 X21.501 Y92.499 E3731.60064
M205 X25
G0 F4800 X21.219 Y92.781
G1 F2400 E3730.60064
G0 F4800 X37.528 Y92.527
G0 X37.54 Y79.024
G0 X35.194 Y78.655
G0 X33.954 Y79.024
G0 X33.892 Y79.102
M205 X20
G1 F2400 E3731.60064
G1 F1800 X33.866 Y79.081 E3731.60175
G1 X33.771 Y78.952 E3731.60708
G1 X33.739 Y78.898 E3731.60917
G1 X33.707 Y78.844 E3731.61125
G1 X33.676 Y78.766 E3731.61404
G1 X33.664 Y78.715 E3731.61579
G1 X33.657 Y78.688 E3731.61672
G0 X33.676 Y78.688
G0 X33.707 Y78.688
G0 X33.771 Y78.688
G0 X33.784 Y78.721
G0 X33.816 Y78.799
G0 X33.834 Y78.841
G0 X33.864 Y78.88
G0 X33.963 Y79.012
G1 X34.06 Y79.08 E3731.61904
G1 X34.128 Y79.127 E3731.62179
G1 X34.184 Y79.148 E3731.62378
G1 X34.26 Y79.177 E3731.62649
G1 X34.271 Y79.178 E3731.62685
G1 X34.433 Y79.199 E3731.63229
G1 X34.454 Y79.202 E3731.63299
G1 X34.576 Y79.186 E3731.63708
G1 X34.659 Y79.174 E3731.63987
G1 X34.737 Y79.142 E3731.64268
G1 X34.8 Y79.115 E3731.64496
G1 X34.822 Y79.098 E3731.64588
G1 X34.954 Y78.995 E3731.65145
G1 X34.97 Y78.982 E3731.65214
G1 X35.033 Y78.882 E3731.65607
G1 X35.076 Y78.814 E3731.65874
G1 X35.101 Y78.745 E3731.66118
G1 X35.122 Y78.686 E3731.66327
G1 X35.126 Y78.649 E3731.66451
G1 X35.146 Y78.497 E3731.6696
G1 X35.121 Y78.294 E3731.67641
G1 X35.119 Y78.281 E3731.67684
G1 X35.06 Y78.151 E3731.68159
G1 X35.052 Y78.135 E3731.68219
G1 X34.988 Y78.041 E3731.68597
G1 X34.975 Y78.022 E3731.68674
G1 X33.778 Y76.524 E3731.75051
G1 X33.71 Y76.439 E3731.75413
G1 X33.625 Y76.333 E3731.75865
G1 X33.625 Y76.232 E3731.76201
G1 X33.625 Y76.122 E3731.76567
G0 X33.859 Y76.122
G1 X33.968 Y76.122 E3731.76841
G1 X35.254 Y76.122 E3731.81119
G1 X35.254 Y76.232 E3731.81485
G1 X33.968 Y76.232 E3731.82496
G0 X33.947 Y76.276
G0 X33.864 Y76.448
G0 X33.859 Y76.458
G1 X35.056 Y77.958 E3731.8415
G0 X35.075 Y77.982
G0 X35.137 Y78.081
G0 X35.154 Y78.108
G0 X35.213 Y78.233
G0 X35.218 Y78.251
G0 X35.227 Y78.281
G0 X35.253 Y78.49
G0 X35.251 Y78.508
G0 X35.233 Y78.661
G0 X35.222 Y78.708
G0 X35.205 Y78.781
G0 X35.18 Y78.844
G0 X35.167 Y78.867
G0 X35.123 Y78.939
G0 X35.044 Y79.039
G0 X35.016 Y79.075
G0 X34.883 Y79.176
G0 X34.849 Y79.196
G0 X34.778 Y79.238
G0 X34.708 Y79.265
G0 X34.681 Y79.271
G0 X34.59 Y79.291
G0 X34.464 Y79.304
G0 X34.418 Y79.309
G0 X34.258 Y79.289
G0 X34.236 Y79.284
G0 X34.141 Y79.262
G0 X34.086 Y79.239
G0 X34.067 Y79.227
G0 X33.991 Y79.18
G0 X33.892 Y79.102
M205 X25
G0 F4800 X32.371 Y80.455
M205 X20
;TYPE:WALL-INNER
G1 F3600 X32.579 Y80.755 E3731.85364
G1 X32.697 Y80.958 E3731.86145
G1 X32.76 Y81.084 E3731.86614
G1 X32.821 Y81.238 E3731.87165
G1 X32.868 Y81.381 E3731.87665
G1 X32.93 Y81.631 E3731.88522
G1 X32.985 Y81.954 E3731.89612
G1 X33.049 Y82.527 E3731.9153
G1 X33.049 Y84.208 E3731.97121
G1 X30.202 Y84.208 E3732.0659
G1 X30.202 Y83.776 E3732.08027
G1 X32.522 Y83.776 E3732.15743
G1 X32.522 Y82.554 E3732.19807
G1 X32.484 Y82.148 E3732.21164
G1 X32.442 Y81.869 E3732.22102
G1 X32.371 Y81.58 E3732.23092
G1 X32.261 Y81.291 E3732.2412
G1 X32.116 Y81.026 E3732.25125
G1 X31.958 Y80.79 E3732.2607
G1 X31.684 Y80.435 E3732.27561
G1 X31.345 Y80.157 E3732.29019
G1 X31.119 Y79.992 E3732.2995
G1 X30.862 Y79.842 E3732.3094
G1 X30.578 Y79.725 E3732.31961
G1 X30.289 Y79.65 E3732.32954
G1 X30.013 Y79.607 E3732.33883
G1 X29.598 Y79.566 E3732.3527
G1 X29.253 Y79.587 E3732.3642
G1 X29 Y79.621 E3732.37269
G1 X28.808 Y79.667 E3732.37926
G1 X28.562 Y79.756 E3732.38796
G1 X28.262 Y79.893 E3732.39893
G1 X27.901 Y80.106 E3732.41287
G1 X27.655 Y80.3 E3732.42329
G1 X27.359 Y80.611 E3732.43757
G1 X27.162 Y80.881 E3732.44869
G1 X27.028 Y81.104 E3732.45734
G1 X26.946 Y81.284 E3732.46392
G1 X26.864 Y81.527 E3732.47245
G1 X26.784 Y81.849 E3732.48348
G1 X26.712 Y82.465 E3732.50411
G1 X26.665 Y83.059 E3732.52393
G1 X26.65 Y83.652 E3732.54366
G1 X26.651 Y84.813 E3732.58227
G1 X26.666 Y85.408 E3732.60207
G1 X26.712 Y86.006 E3732.62202
G1 X26.784 Y86.628 E3732.64284
G1 X26.865 Y86.948 E3732.65382
G1 X26.947 Y87.188 E3732.66226
G1 X27.03 Y87.366 E3732.66879
G1 X27.165 Y87.587 E3732.6774
G1 X27.359 Y87.85 E3732.68827
G1 X27.652 Y88.161 E3732.70249
G1 X27.893 Y88.355 E3732.71278
G1 X28.266 Y88.588 E3732.7274
G1 X28.59 Y88.719 E3732.73903
G1 X28.906 Y88.815 E3732.75001
G1 X29.098 Y88.851 E3732.75651
G1 X29.589 Y88.896 E3732.77291
G1 X30.049 Y88.849 E3732.78829
G1 X30.283 Y88.808 E3732.79619
G1 X30.521 Y88.743 E3732.80439
G1 X30.753 Y88.65 E3732.81271
G1 X30.966 Y88.54 E3732.82068
G1 X31.372 Y88.287 E3732.83659
G1 X31.685 Y87.966 E3732.8515
G1 X31.827 Y87.799 E3732.85879
G1 X31.962 Y87.613 E3732.86644
G1 X32.077 Y87.416 E3732.87403
G1 X32.16 Y87.244 E3732.88038
G1 X32.582 Y87.244 E3732.89441
G1 X32.657 Y87.244 E3732.89691
G1 X32.782 Y87.244 E3732.90107
G1 X32.657 Y87.551 E3732.90508
G1 X32.624 Y87.618 E3732.90732
G1 X32.609 Y87.646 E3732.90837
G1 X32.449 Y87.902 E3732.91841
G1 X32.265 Y88.145 E3732.92855
G1 X31.869 Y88.596 E3732.94851
G1 X31.493 Y88.864 E3732.96387
G1 X31.217 Y89.037 E3732.9747
G1 X31.081 Y89.111 E3732.97985
G1 X30.877 Y89.204 E3732.98731
G1 X30.766 Y89.243 E3732.99122
G1 X30.557 Y89.299 E3732.99842
G1 X30.23 Y89.358 E3733.00947
G1 X29.906 Y89.394 E3733.02031
G1 X29.588 Y89.417 E3733.03092
G1 X29.196 Y89.391 E3733.04399
G1 X28.935 Y89.362 E3733.05272
G1 X28.687 Y89.317 E3733.0611
G1 X28.457 Y89.253 E3733.06904
G1 X28.249 Y89.172 E3733.07647
G1 X28.015 Y89.06 E3733.0851
G1 X27.669 Y88.872 E3733.09819
G1 X27.33 Y88.616 E3733.11232
G1 X27.157 Y88.471 E3733.11983
G1 X27.039 Y88.355 E3733.12533
G1 X26.89 Y88.185 E3733.13285
G1 X26.774 Y88.032 E3733.13924
