;FLAVOR:RepRap
;TIME:9174
;Generated with Cura_SteamEngine 2.3.1
M104 S190
M109 S190

M117 White

;LAYER_COUNT:23
;LAYER:0
M107
M205 X10
G1 F2400 E-1
G1 Z20.4
G0 F1200 X41.501 Y97.5 Z.6
M205 X20
;TYPE:WALL-INNER
G1 Z.2
G1 F2400 E0
G1 F600 X57.501 Y97.5 E0.53216
G1 X57.501 Y115.5 E1.13084
G1 X41.501 Y115.5 E1.66301
G1 X41.501 Y97.5 E2.26169
M205 X10
G0 F1200 X41.101 Y97.1
M205 X20
G1 F600 X57.901 Y97.1 E2.82046
G1 X57.901 Y115.9 E3.44575
G1 X41.101 Y115.9 E4.00452
G1 X41.101 Y97.1 E4.62981
M205 X10
G0 F1200 X40.701 Y96.7
M205 X20
;TYPE:WALL-OUTER
G1 F600 X58.301 Y96.7 E5.21519
G1 X58.301 Y116.3 E5.86709
G1 X40.701 Y116.3 E6.45247
G1 X40.701 Y96.7 E7.10436
M205 X10
G0 F1200 X41.681 Y97.683
M205 X20
;TYPE:SKIN
G1 F600 X57.32 Y113.323 E7.84
G0 X57.39 Y113.393
M205 X10
G0 F1200 X57.32 Y112.758
M205 X20
G1 F600 X42.242 Y97.679 E8.54925
G0 X42.172 Y97.609
M205 X10
G0 F1200 X42.808 Y97.679
M205 X20
G1 F600 X57.32 Y112.192 E9.23187
G0 X57.39 Y112.262
M205 X10
G0 F1200 X57.32 Y111.626
M205 X20
G1 F600 X43.373 Y97.679 E9.88789
G0 X43.303 Y97.609
M205 X10
G0 F1200 X43.939 Y97.679
M205 X20
G1 F600 X57.32 Y111.061 E10.51732
G0 X57.39 Y111.131
M205 X10
G0 F1200 X57.32 Y110.495
M205 X20
G1 F600 X44.505 Y97.679 E11.12012
G0 X44.435 Y97.609
M205 X10
G0 F1200 X45.07 Y97.679
M205 X20
G1 F600 X57.32 Y109.929 E11.69632
G0 X57.39 Y109.999
M205 X10
G0 F1200 X57.32 Y109.363
M205 X20
G1 F600 X45.636 Y97.679 E12.2459
G0 X45.566 Y97.609
M205 X10
G0 F1200 X46.202 Y97.679
M205 X20
G1 F600 X57.32 Y108.798 E12.76888
G0 X57.39 Y108.868
M205 X10
G0 F1200 X57.32 Y108.232
M205 X20
G1 F600 X46.768 Y97.679 E13.26524
G0 X46.698 Y97.609
M205 X10
G0 F1200 X47.333 Y97.679
M205 X20
G1 F600 X57.32 Y107.666 E13.735
G0 X57.39 Y107.736
M205 X10
G0 F1200 X57.32 Y107.101
M205 X20
G1 F600 X47.899 Y97.679 E14.17816
G0 X47.829 Y97.609
M205 X10
G0 F1200 X48.465 Y97.679
M205 X20
G1 F600 X57.32 Y106.535 E14.59469
G0 X57.39 Y106.605
M205 X10
G0 F1200 X57.32 Y105.969
M205 X20
G1 F600 X49.03 Y97.679 E14.98463
G0 X48.96 Y97.609
M205 X10
G0 F1200 X49.596 Y97.679
M205 X20
G1 F600 X57.32 Y105.404 E15.34796
G0 X57.39 Y105.474
M205 X10
G0 F1200 X57.32 Y104.838
M205 X20
G1 F600 X50.162 Y97.679 E15.68468
G0 X50.092 Y97.609
M205 X10
G0 F1200 X50.727 Y97.679
M205 X20
G1 F600 X57.32 Y104.272 E15.99479
G0 X57.39 Y104.342
M205 X10
G0 F1200 X57.32 Y103.707
M205 X20
G1 F600 X51.293 Y97.679 E16.27831
G0 X51.223 Y97.609
M205 X10
G0 F1200 X51.859 Y97.679
M205 X20
G1 F600 X57.32 Y103.141 E16.5352
G0 X57.39 Y103.211
M205 X10
G0 F1200 X57.32 Y102.575
M205 X20
G1 F600 X52.424 Y97.679 E16.76549
G0 X52.354 Y97.609
M205 X10
G0 F1200 X52.99 Y97.679
M205 X20
G1 F600 X57.32 Y102.01 E16.96919
G0 X57.39 Y102.08
M205 X10
G0 F1200 X57.32 Y101.444
M205 X20
G1 F600 X53.556 Y97.679 E17.14626
G0 X53.486 Y97.609
M205 X10
G0 F1200 X54.121 Y97.679
M205 X20
G1 F600 X57.32 Y100.878 E17.29673
G0 X57.39 Y100.948
M205 X10
G0 F1200 X57.32 Y100.312
M205 X20
G1 F600 X54.687 Y97.679 E17.42058
G0 X54.617 Y97.609
M205 X10
G0 F1200 X55.253 Y97.679
M205 X20
G1 F600 X57.32 Y99.747 E17.51782
G0 X57.39 Y99.817
M205 X10
G0 F1200 X57.32 Y99.181
M205 X20
G1 F600 X55.819 Y97.679 E17.58845
G0 X55.749 Y97.609
M205 X10
G0 F1200 X56.384 Y97.679
M205 X20
G1 F600 X57.32 Y98.615 E17.63248
G0 X57.39 Y98.685
M205 X10
G0 F1200 X57.32 Y98.05
M205 X20
G1 F600 X56.95 Y97.679 E17.6499
M205 X10
G0 F1200 X41.681 Y98.249
M205 X20
G1 F600 X57.32 Y113.889 E18.38554
G0 X57.39 Y113.959
M205 X10
G0 F1200 X57.32 Y114.455
M205 X20
G1 F600 X41.681 Y98.815 E19.12117
G0 X41.611 Y98.745
M205 X10
G0 F1200 X41.681 Y99.381
M205 X20
G1 F600 X57.32 Y115.02 E19.85678
G0 X57.39 Y115.09
M205 X10
G0 F1200 X57.053 Y115.319
M205 X20
G1 F600 X41.681 Y99.946 E20.57986
G0 X41.611 Y99.876
M205 X10
G0 F1200 X41.681 Y100.512
M205 X20
G1 F600 X56.487 Y115.319 E21.27631
G0 X56.557 Y115.389
M205 X10
G0 F1200 X55.922 Y115.319
M205 X20
G1 F600 X41.681 Y101.078 E21.94616
G0 X41.611 Y101.008
M205 X10
G0 F1200 X41.681 Y101.643
M205 X20
G1 F600 X55.356 Y115.319 E22.58942
G0 X55.426 Y115.389
M205 X10
G0 F1200 X54.79 Y115.319
M205 X20
G1 F600 X41.681 Y102.209 E23.20605
G0 X41.611 Y102.139
M205 X10
G0 F1200 X41.681 Y102.775
M205 X20
G1 F600 X54.225 Y115.319 E23.79608
G0 X54.295 Y115.389
M205 X10
G0 F1200 X53.659 Y115.319
M205 X20
G1 F600 X41.681 Y103.34 E24.35951
G0 X41.611 Y103.27
M205 X10
G0 F1200 X41.681 Y103.906
M205 X20
G1 F600 X53.093 Y115.319 E24.89632
G0 X53.163 Y115.389
M205 X10
G0 F1200 X52.528 Y115.319
M205 X20
G1 F600 X41.681 Y104.472 E25.40653
G0 X41.611 Y104.402
M205 X10
G0 F1200 X41.681 Y105.037
M205 X20
G1 F600 X51.962 Y115.319 E25.89014
G0 X52.032 Y115.389
M205 X10
G0 F1200 X51.396 Y115.319
M205 X20
G1 F600 X41.681 Y105.603 E26.34713
G0 X41.611 Y105.533
M205 X10
G0 F1200 X41.681 Y106.169
M205 X20
G1 F600 X50.831 Y115.319 E26.77752
G0 X50.901 Y115.389
M205 X10
G0 F1200 X50.265 Y115.319
M205 X20
G1 F600 X41.681 Y106.734 E27.1813
G0 X41.611 Y106.664
M205 X10
G0 F1200 X41.681 Y107.3
M205 X20
G1 F600 X49.699 Y115.319 E27.55847
G0 X49.769 Y115.389
M205 X10
G0 F1200 X49.134 Y115.319
M205 X20
G1 F600 X41.681 Y107.866 E27.90904
G0 X41.611 Y107.796
M205 X10
G0 F1200 X41.681 Y108.431
M205 X20
G1 F600 X48.568 Y115.319 E28.233
G0 X48.638 Y115.389
M205 X10
G0 F1200 X48.002 Y115.319
M205 X20
G1 F600 X41.681 Y108.997 E28.53035
G0 X41.611 Y108.927
M205 X10
G0 F1200 X41.681 Y109.563
M205 X20
G1 F600 X47.436 Y115.319 E28.80107
G0 X47.506 Y115.389
M205 X10
G0 F1200 X46.871 Y115.319
M205 X20
G1 F600 X41.681 Y110.129 E29.04519
G0 X41.611 Y110.059
M205 X10
G0 F1200 X41.681 Y110.694
M205 X20
G1 F600 X46.305 Y115.319 E29.26271
G0 X46.375 Y115.389
M205 X10
G0 F1200 X45.739 Y115.319
M205 X20
G1 F600 X41.681 Y111.26 E29.45361
G0 X41.611 Y111.19
M205 X10
G0 F1200 X41.681 Y111.826
M205 X20
G1 F600 X45.174 Y115.319 E29.61791
G0 X45.244 Y115.389
M205 X10
G0 F1200 X44.608 Y115.319
M205 X20
G1 F600 X41.681 Y112.391 E29.75561
G0 X41.611 Y112.321
M205 X10
G0 F1200 X41.681 Y112.957
M205 X20
G1 F600 X44.042 Y115.319 E29.86669
G0 X44.112 Y115.389
M205 X10
G0 F1200 X43.477 Y115.319
M205 X20
G1 F600 X41.681 Y113.523 E29.95117
G0 X41.611 Y113.453
M205 X10
G0 F1200 X41.681 Y114.088
M205 X20
G1 F600 X42.911 Y115.319 E30.00905
G0 X42.981 Y115.389
M205 X10
G0 F1200 X42.345 Y115.319
M205 X20
G1 F600 X41.681 Y114.654 E30.0403
G0 X41.611 Y114.584
M205 X10
G0 F1200 X41.681 Y115.22
M205 X20
G1 F600 X41.78 Y115.319 E30.04496
M205 X10
G0 F1200 X37.5 Y115.5
M205 X20
;TYPE:WALL-INNER
G1 F600 X21.5 Y115.5 E30.57712
G1 X21.5 Y97.5 E31.1758
G1 X37.5 Y97.5 E31.70797
G1 X37.5 Y115.5 E32.30665
M205 X10
G0 F1200 X37.9 Y115.9
M205 X20
G1 F600 X21.1 Y115.9 E32.86542
G1 X21.1 Y97.1 E33.49071
G1 X37.9 Y97.1 E34.04948
G1 X37.9 Y115.9 E34.67477
M205 X10
G0 F1200 X38.3 Y116.3
M205 X20
;TYPE:WALL-OUTER
G1 F600 X20.7 Y116.3 E35.26015
G1 X20.7 Y96.7 E35.91205
G1 X38.3 Y96.7 E36.49743
G1 X38.3 Y116.3 E37.14932
M205 X10
G0 F1200 X37.254 Y115.319
M205 X20
;TYPE:SKIN
G1 F600 X21.679 Y99.744 E37.88192
G0 X21.609 Y99.674
M205 X10
G0 F1200 X21.679 Y99.178
M205 X20
G1 F600 X37.32 Y114.819 E38.61763
G0 X37.39 Y114.889
M205 X10
G0 F1200 X37.32 Y114.253
M205 X20
G1 F600 X21.679 Y98.613 E39.35331
G0 X21.609 Y98.543
M205 X10
G0 F1200 X21.679 Y98.047
M205 X20
G1 F600 X37.32 Y113.687 E40.08899
G0 X37.39 Y113.757
M205 X10
G0 F1200 X37.32 Y113.122
M205 X20
G1 F600 X21.877 Y97.679 E40.81538
G0 X21.807 Y97.609
M205 X10
G0 F1200 X22.443 Y97.679
M205 X20
G1 F600 X37.32 Y112.556 E41.51515
G0 X37.39 Y112.626
M205 X10
G0 F1200 X37.32 Y111.99
M205 X20
G1 F600 X23.009 Y97.679 E42.1883
G0 X22.939 Y97.609
M205 X10
G0 F1200 X23.574 Y97.679
M205 X20
G1 F600 X37.32 Y111.425 E42.83487
G0 X37.39 Y111.495
M205 X10
G0 F1200 X37.32 Y110.859
M205 X20
G1 F600 X24.14 Y97.679 E43.45481
G0 X24.07 Y97.609
M205 X10
G0 F1200 X24.706 Y97.679
M205 X20
G1 F600 X37.32 Y110.293 E44.04814
G0 X37.39 Y110.363
M205 X10
G0 F1200 X37.32 Y109.728
M205 X20
G1 F600 X25.271 Y97.679 E44.61489
G0 X25.201 Y97.609
M205 X10
G0 F1200 X25.837 Y97.679
M205 X20
G1 F600 X37.32 Y109.162 E45.15501
G0 X37.39 Y109.232
M205 X10
G0 F1200 X37.32 Y108.596
M205 X20
G1 F600 X26.403 Y97.679 E45.66851
G0 X26.333 Y97.609
M205 X10
G0 F1200 X26.969 Y97.679
M205 X20
G1 F600 X37.32 Y108.031 E46.15542
G0 X37.39 Y108.101
M205 X10
G0 F1200 X37.32 Y107.465
M205 X20
G1 F600 X27.534 Y97.679 E46.61572
G0 X27.464 Y97.609
M205 X10
G0 F1200 X28.1 Y97.679
M205 X20
G1 F600 X37.32 Y106.899 E47.0494
G0 X37.39 Y106.969
M205 X10
G0 F1200 X37.32 Y106.334
M205 X20
G1 F600 X28.666 Y97.679 E47.45648
G0 X28.596 Y97.609
M205 X10
G0 F1200 X29.231 Y97.679
M205 X20
G1 F600 X37.32 Y105.768 E47.83696
G0 X37.39 Y105.838
M205 X10
G0 F1200 X37.32 Y105.202
M205 X20
G1 F600 X29.797 Y97.679 E48.19082
G0 X29.727 Y97.609
M205 X10
G0 F1200 X30.363 Y97.679
M205 X20
G1 F600 X37.32 Y104.636 E48.51806
G0 X37.39 Y104.706
M205 X10
G0 F1200 X37.32 Y104.071
M205 X20
G1 F600 X30.928 Y97.679 E48.81872
G0 X30.858 Y97.609
M205 X10
G0 F1200 X31.494 Y97.679
M205 X20
G1 F600 X37.32 Y103.505 E49.09275
G0 X37.39 Y103.575
M205 X10
G0 F1200 X37.32 Y102.939
M205 X20
G1 F600 X32.06 Y97.679 E49.34017
G0 X31.99 Y97.609
M205 X10
G0 F1200 X32.625 Y97.679
M205 X20
G1 F600 X37.32 Y102.374 E49.56101
G0 X37.39 Y102.444
M205 X10
G0 F1200 X37.32 Y101.808
M205 X20
G1 F600 X33.191 Y97.679 E49.75522
G0 X33.121 Y97.609
M205 X10
G0 F1200 X33.757 Y97.679
M205 X20
G1 F600 X37.32 Y101.242 E49.92282
G0 X37.39 Y101.312
M205 X10
G0 F1200 X37.32 Y100.677
M205 X20
G1 F600 X34.322 Y97.679 E50.06383
G0 X34.252 Y97.609
M205 X10
G0 F1200 X34.888 Y97.679
M205 X20
G1 F600 X37.32 Y100.111 E50.17823
G0 X37.39 Y100.181
M205 X10
G0 F1200 X37.32 Y99.545
M205 X20
G1 F600 X35.454 Y97.679 E50.266
G0 X35.384 Y97.609
M205 X10
G0 F1200 X36.02 Y97.679
M205 X20
G1 F600 X37.32 Y98.98 E50.32717
G0 X37.39 Y99.05
M205 X10
G0 F1200 X37.32 Y98.414
M205 X20
G1 F600 X36.585 Y97.679 E50.36174
G0 X36.515 Y97.609
M205 X10
G0 F1200 X37.151 Y97.679
M205 X20
G1 F600 X37.32 Y97.848 E50.36969
M205 X10
G0 F1200 X21.679 Y100.31
M205 X20
G1 F600 X36.688 Y115.319 E51.07567
G0 X36.758 Y115.389
M205 X10
G0 F1200 X36.123 Y115.319
M205 X20
G1 F600 X21.679 Y100.875 E51.75507
G0 X21.609 Y100.805
M205 X10
G0 F1200 X21.679 Y101.441
M205 X20
G1 F600 X35.557 Y115.319 E52.40785
G0 X35.627 Y115.389
M205 X10
G0 F1200 X34.991 Y115.319
M205 X20
G1 F600 X21.679 Y102.007 E53.034
G0 X21.609 Y101.937
M205 X10
G0 F1200 X21.679 Y102.572
M205 X20
G1 F600 X34.426 Y115.319 E53.63358
G0 X34.496 Y115.389
M205 X10
G0 F1200 X33.86 Y115.319
M205 X20
G1 F600 X21.679 Y103.138 E54.20654
G0 X21.609 Y103.068
M205 X10
G0 F1200 X21.679 Y103.704
M205 X20
G1 F600 X33.294 Y115.319 E54.75287
G0 X33.364 Y115.389
M205 X10
G0 F1200 X32.729 Y115.319
M205 X20
G1 F600 X21.679 Y104.269 E55.27263
G0 X21.609 Y104.199
M205 X10
G0 F1200 X21.679 Y104.835
M205 X20
G1 F600 X32.163 Y115.319 E55.76577
G0 X32.233 Y115.389
M205 X10
G0 F1200 X31.597 Y115.319
M205 X20
G1 F600 X21.679 Y105.401 E56.23228
G0 X21.609 Y105.331
M205 X10
G0 F1200 X21.679 Y105.967
M205 X20
G1 F600 X31.032 Y115.319 E56.67219
G0 X31.102 Y115.389
M205 X10
G0 F1200 X30.466 Y115.319
M205 X20
G1 F600 X21.679 Y106.532 E57.08551
G0 X21.609 Y106.462
M205 X10
G0 F1200 X21.679 Y107.098
M205 X20
G1 F600 X29.9 Y115.319 E57.4722
G0 X29.97 Y115.389
M205 X10
G0 F1200 X29.335 Y115.319
M205 X20
G1 F600 X21.679 Y107.664 E57.83229
G0 X21.609 Y107.594
M205 X10
G0 F1200 X21.679 Y108.229
M205 X20
G1 F600 X28.769 Y115.319 E58.16578
G0 X28.839 Y115.389
M205 X10
G0 F1200 X28.203 Y115.319
M205 X20
G1 F600 X21.679 Y108.795 E58.47265
G0 X21.609 Y108.725
M205 X10
G0 F1200 X21.679 Y109.361
M205 X20
G1 F600 X27.637 Y115.319 E58.75289
G0 X27.707 Y115.389
M205 X10
G0 F1200 X27.072 Y115.319
M205 X20
G1 F600 X21.679 Y109.926 E59.00656
G0 X21.609 Y109.856
M205 X10
G0 F1200 X21.679 Y110.492
M205 X20
G1 F600 X26.506 Y115.319 E59.23361
G0 X26.576 Y115.389
M205 X10
G0 F1200 X25.94 Y115.319
M205 X20
G1 F600 X21.679 Y111.058 E59.43404
G0 X21.609 Y110.988
M205 X10
G0 F1200 X21.679 Y111.623
M205 X20
G1 F600 X25.375 Y115.319 E59.60788
G0 X25.445 Y115.389
M205 X10
G0 F1200 X24.809 Y115.319
M205 X20
G1 F600 X21.679 Y112.189 E59.75511
G0 X21.609 Y112.119
M205 X10
G0 F1200 X21.679 Y112.755
M205 X20
G1 F600 X24.243 Y115.319 E59.87571
G0 X24.313 Y115.389
M205 X10
G0 F1200 X23.678 Y115.319
M205 X20
G1 F600 X21.679 Y113.32 E59.96974
G0 X21.609 Y113.25
M205 X10
G0 F1200 X21.679 Y113.886
M205 X20
G1 F600 X23.112 Y115.319 E60.03714
G0 X23.182 Y115.389
M205 X10
G0 F1200 X22.546 Y115.319
M205 X20
G1 F600 X21.679 Y114.452 E60.07792
G0 X21.609 Y114.382
M205 X10
G0 F1200 X21.679 Y115.017
M205 X20
G1 F600 X21.981 Y115.319 E60.09213
M205 X10
G1 F2400 E59.09213
G0 F1200 X37.86 Y115.5
G0 X39.165 Y115.5
G0 X39.848 Y117.153
G0 X79.153 Y117.153
G0 X79.835 Y115.5
G0 X81.14 Y115.5
G0 X81.5 Y115.5
M205 X20
;TYPE:WALL-INNER
G1 F2400 E60.09213
G1 F600 X81.5 Y97.5 E60.69081
G1 X97.5 Y97.5 E61.22297
G1 X97.5 Y115.5 E61.82166
G1 X81.5 Y115.5 E62.35382
M205 X10
G0 F1200 X81.1 Y115.9
M205 X20
G1 F600 X81.1 Y97.1 E62.97911
G1 X97.9 Y97.1 E63.53788
G1 X97.9 Y115.9 E64.16317
G1 X81.1 Y115.9 E64.72194
M205 X10
G0 F1200 X80.7 Y116.3
M205 X20
;TYPE:WALL-OUTER
G1 F600 X80.7 Y96.7 E65.37384
G1 X98.3 Y96.7 E65.95922
G1 X98.3 Y116.3 E66.61112
G1 X80.7 Y116.3 E67.19649
M205 X10
G0 F1200 X81.943 Y115.319
M205 X20
;TYPE:SKIN
G1 F600 X81.68 Y115.055 E67.20889
M205 X10
G0 F1200 X81.68 Y114.489
M205 X20
G1 F600 X82.509 Y115.319 E67.24791
G0 X82.579 Y115.389
M205 X10
G0 F1200 X83.075 Y115.319
M205 X20
G1 F600 X81.68 Y113.924 E67.31352
G0 X81.61 Y113.854
M205 X10
G0 F1200 X81.68 Y113.358
M205 X20
G1 F600 X83.64 Y115.319 E67.40574
G0 X83.71 Y115.389
M205 X10
G0 F1200 X84.206 Y115.319
M205 X20
G1 F600 X81.68 Y112.792 E67.52458
G0 X81.61 Y112.722
M205 X10
G0 F1200 X81.68 Y112.227
M205 X20
G1 F600 X84.772 Y115.319 E67.67002
G0 X84.842 Y115.389
M205 X10
G0 F1200 X85.337 Y115.319
M205 X20
G1 F600 X81.68 Y111.661 E67.84205
G0 X81.61 Y111.591
M205 X10
G0 F1200 X81.68 Y111.095
M205 X20
G1 F600 X85.903 Y115.319 E68.04071
G0 X85.973 Y115.389
M205 X10
G0 F1200 X86.469 Y115.319
M205 X20
G1 F600 X81.68 Y110.529 E68.266
G0 X81.61 Y110.459
M205 X10
G0 F1200 X81.68 Y109.964
M205 X20
G1 F600 X87.034 Y115.319 E68.51786
G0 X87.104 Y115.389
M205 X10
G0 F1200 X87.6 Y115.319
M205 X20
G1 F600 X81.68 Y109.398 E68.79634
G0 X81.61 Y109.328
M205 X10
G0 F1200 X81.68 Y108.832
M205 X20
G1 F600 X88.166 Y115.319 E69.10144
G0 X88.236 Y115.389
M205 X10
G0 F1200 X88.732 Y115.319
M205 X20
G1 F600 X81.68 Y108.267 E69.43315
G0 X81.61 Y108.197
M205 X10
G0 F1200 X81.68 Y107.701
M205 X20
G1 F600 X89.297 Y115.319 E69.79145
G0 X89.367 Y115.389
M205 X10
G0 F1200 X89.863 Y115.319
M205 X20
G1 F600 X81.68 Y107.135 E70.17638
G0 X81.61 Y107.065
M205 X10
G0 F1200 X81.68 Y106.57
M205 X20
G1 F600 X90.429 Y115.319 E70.5879
G0 X90.499 Y115.389
M205 X10
G0 F1200 X90.994 Y115.319
M205 X20
G1 F600 X81.68 Y106.004 E71.02603
G0 X81.61 Y105.934
M205 X10
G0 F1200 X81.68 Y105.438
M205 X20
G1 F600 X91.56 Y115.319 E71.49078
G0 X91.63 Y115.389
M205 X10
G0 F1200 X92.126 Y115.319
M205 X20
G1 F600 X81.68 Y104.873 E71.98213
G0 X81.61 Y104.803
M205 X10
G0 F1200 X81.68 Y104.307
M205 X20
G1 F600 X92.691 Y115.319 E72.50007
G0 X92.761 Y115.389
M205 X10
G0 F1200 X93.257 Y115.319
M205 X20
G1 F600 X81.68 Y103.741 E73.04464
G0 X81.61 Y103.671
M205 X10
G0 F1200 X81.68 Y103.176
M205 X20
G1 F600 X93.823 Y115.319 E73.61581
G0 X93.893 Y115.389
M205 X10
G0 F1200 X94.388 Y115.319
M205 X20
G1 F600 X81.68 Y102.61 E74.21358
G0 X81.61 Y102.54
M205 X10
G0 F1200 X81.68 Y102.044
M205 X20
G1 F600 X94.954 Y115.319 E74.83797
G0 X95.024 Y115.389
M205 X10
G0 F1200 X95.52 Y115.319
M205 X20
G1 F600 X81.68 Y101.479 E75.48897
G0 X81.61 Y101.409
M205 X10
G0 F1200 X81.68 Y100.913
M205 X20
G1 F600 X96.085 Y115.319 E76.16656
G0 X96.155 Y115.389
M205 X10
G0 F1200 X96.651 Y115.319
M205 X20
G1 F600 X81.68 Y100.347 E76.87077
G0 X81.61 Y100.277
M205 X10
G0 F1200 X81.68 Y99.781
M205 X20
G1 F600 X97.217 Y115.319 E77.60161
G0 X97.287 Y115.389
M205 X10
G0 F1200 X97.32 Y114.856
M205 X20
G1 F600 X81.68 Y99.216 E78.33726
G0 X81.61 Y99.146
M205 X10
G0 F1200 X81.68 Y98.65
M205 X20
